provia conversion luts/Provia to Nostalgic Neg sRGB.cube
# sRGB
# github.com/abpy/FujifilmCameraProfiles
LUT_3D_SIZE 32
0.01590 0.01602 0.01456
0.04682 0.01416 0.00955
0.08874 0.01264 0.00501
0.13818 0.01330 0.00108
0.18416 0.01535 0.00000
0.22483 0.01638 0.00000
0.25998 0.01818 0.00000
0.28976 0.01360 0.00000
0.31428 0.01423 0.00000
0.33997 0.01443 0.00000
0.35861 0.00598 0.00000
0.37917 0.00714 0.00000
0.40458 0.01013 0.00000
0.42373 0.00000 0.00000
0.44822 0.00428 0.00000
0.47662 0.01139 0.00000
0.50100 0.00664 0.00000
0.52734 0.01648 0.00000
0.55884 0.03005 0.00000
0.58730 0.02895 0.00000
0.61306 0.03591 0.00000
0.64396 0.04594 0.00000
0.67290 0.04616 0.00000
0.70130 0.06251 0.00000
0.72986 0.06851 0.00000
0.75080 0.07630 0.00000
0.77489 0.09826 0.00000
0.79463 0.10245 0.00000
0.81646 0.12279 0.00000
0.83801 0.12545 0.01272
0.85359 0.14031 0.00977
0.87261 0.14775 0.02520
0.00075 0.05418 0.00630
0.03812 0.05161 0.00504
0.09057 0.04805 0.00370
0.13783 0.04777 0.00000
0.18412 0.04410 0.00172
0.22180 0.04687 0.00000
0.25623 0.04477 0.00000
0.28403 0.03717 0.00000
0.31076 0.03925 0.00000
0.33588 0.03676 0.00000
0.35318 0.02687 0.00000
0.37644 0.03101 0.00000
0.40177 0.03170 0.00000
0.42080 0.02021 0.00000
0.44666 0.02897 0.00000
0.47522 0.03486 0.00000
0.49896 0.02848 0.00000
0.52631 0.04139 0.00000
0.55816 0.05291 0.00000
0.58606 0.05070 0.00000
0.61232 0.05788 0.00000
0.64357 0.06481 0.00000
0.67239 0.06478 0.00000
0.70107 0.07872 0.00000
0.72934 0.08161 0.00000
0.75043 0.09013 0.00000
0.77474 0.10897 0.00000
0.79432 0.11244 0.00000
0.81662 0.13156 0.00000
0.83819 0.13251 0.01699
0.85414 0.14750 0.01345
0.87365 0.15450 0.02880
0.00000 0.09660 0.00054
0.02517 0.09302 0.00010
0.08343 0.08720 0.00000
0.13324 0.08309 0.00000
0.17794 0.08070 0.00000
0.21634 0.07646 0.00000
0.24913 0.06998 0.00000
0.27843 0.06485 0.00000
0.30627 0.06437 0.00000
0.32910 0.05920 0.00000
0.34747 0.05216 0.00000
0.37340 0.05709 0.00000
0.39785 0.05432 0.00000
0.41766 0.04627 0.00000
0.44496 0.05613 0.00000
0.47340 0.05901 0.00000
0.49666 0.05335 0.00000
0.52519 0.06556 0.00000
0.55728 0.07338 0.00000
0.58448 0.07083 0.00000
0.61149 0.07781 0.00000
0.64307 0.08246 0.00000
0.67176 0.08256 0.00000
0.70078 0.09463 0.00000
0.72852 0.09464 0.00000
0.75001 0.10440 0.00000
0.77451 0.12016 0.00000
0.79397 0.12343 0.00000
0.81679 0.14105 0.00000
0.83836 0.14043 0.02112
0.85483 0.15548 0.01732
0.87482 0.16218 0.03246
0.00000 0.13730 0.00000
0.00960 0.13241 0.00000
0.06935 0.12722 0.00000
0.12435 0.12143 0.00000
0.17102 0.11511 0.00000
0.20685 0.10751 0.00000
0.24016 0.09990 0.00000
0.27202 0.09465 0.00000
0.29916 0.09211 0.00000
0.31909 0.08568 0.00000
0.34169 0.08199 0.00000
0.36919 0.08559 0.00000
0.39196 0.07993 0.00000
0.41389 0.07783 0.00000
0.44268 0.08540 0.00000
0.47045 0.08522 0.00000
0.49374 0.08181 0.00000
0.52373 0.09239 0.00000
0.55579 0.09696 0.00000
0.58206 0.09468 0.00000
0.61039 0.10134 0.00000
0.64225 0.10372 0.00000
0.67083 0.10438 0.00000
0.70031 0.11437 0.00000
0.72708 0.11128 0.00000
0.74945 0.12285 0.00000
0.77404 0.13478 0.00000
0.79353 0.13863 0.00000
0.81703 0.15386 0.00000
0.83855 0.15205 0.02544
0.85593 0.16655 0.02220
0.87642 0.17321 0.03687
0.00000 0.16706 0.00000
0.00304 0.16296 0.00000
0.06270 0.15864 0.00000
0.11448 0.15298 0.00000
0.15703 0.14619 0.00000
0.19601 0.13891 0.00000
0.23279 0.13170 0.00000
0.26403 0.12624 0.00000
0.29006 0.12216 0.00000
0.31145 0.11673 0.00000
0.33738 0.11579 0.00000
0.36383 0.11583 0.00000
0.38553 0.11019 0.00000
0.41030 0.11181 0.00000
0.43991 0.11574 0.00000
0.46636 0.11352 0.00000
0.49076 0.11309 0.00000
0.52199 0.12106 0.00000
0.55338 0.12290 0.00000
0.57894 0.12183 0.00000
0.60909 0.12745 0.00000
0.64098 0.12783 0.00000
0.66965 0.12951 0.00000
0.69956 0.13705 0.00000
0.72524 0.13221 0.00000
0.74876 0.14486 0.00000
0.77316 0.15248 0.00000
0.79305 0.15794 0.00000
0.81732 0.16979 0.00000
0.83865 0.16879 0.02807
0.85759 0.18079 0.02727
0.87837 0.18789 0.04125
0.00000 0.18962 0.00000
0.00000 0.18703 0.00000
0.04265 0.18430 0.00000
0.10265 0.17977 0.00000
0.14919 0.17542 0.00000
0.19109 0.17034 0.00000
0.22529 0.16242 0.00000
0.25555 0.15826 0.00000
0.28247 0.15480 0.00000
0.30784 0.15229 0.00000
0.33371 0.15002 0.00000
0.35818 0.14811 0.00000
0.38044 0.14533 0.00000
0.40757 0.14677 0.00000
0.43683 0.14683 0.00000
0.46208 0.14448 0.00000
0.48833 0.14650 0.00000
0.52005 0.15086 0.00000
0.54996 0.15099 0.00000
0.57588 0.15175 0.00000
0.60771 0.15529 0.00000
0.63926 0.15447 0.00000
0.66837 0.15718 0.00000
0.69842 0.16194 0.00000
0.72339 0.15843 0.00000
0.74799 0.16958 0.00000
0.77186 0.17344 0.00000
0.79266 0.18061 0.00000
0.81760 0.18859 0.00074
0.83855 0.19024 0.02841
0.85982 0.19826 0.03104
0.88050 0.20610 0.04440
0.00000 0.21453 0.00000
0.00000 0.21234 0.00000
0.04821 0.21001 0.00000
0.09718 0.20700 0.00000
0.14068 0.20338 0.00000
0.18062 0.19902 0.00000
0.21669 0.19432 0.00000
0.24892 0.19009 0.00000
0.27816 0.18675 0.00000
0.30494 0.18502 0.00000
0.33031 0.18365 0.00000
0.35399 0.18221 0.00000
0.37759 0.18190 0.00000
0.40644 0.18013 0.00000
0.43397 0.17862 0.00000
0.45892 0.17772 0.00000
0.48676 0.17985 0.00000
0.51795 0.18132 0.00000
0.54626 0.18124 0.00000
0.57391 0.18315 0.00000
0.60634 0.18426 0.00000
0.63737 0.18349 0.00000
0.66718 0.18658 0.00000
0.69686 0.18876 0.00000
0.72179 0.18814 0.00000
0.74719 0.19624 0.00000
0.77042 0.19817 0.00000
0.79253 0.20547 0.00000
0.81776 0.21027 0.00127
0.83846 0.21461 0.02429
0.86223 0.21910 0.03174
0.88270 0.22715 0.04549
0.00000 0.23595 0.00000
0.00000 0.23563 0.00000
0.05020 0.23587 0.00000
0.09807 0.23484 0.00000
0.14065 0.23142 0.00000
0.17843 0.22722 0.00000
0.21290 0.22366 0.00000
0.24599 0.21980 0.00000
0.27525 0.21851 0.00000
0.30242 0.21768 0.00000
0.32830 0.21630 0.00000
0.35335 0.21508 0.00000
0.37944 0.21372 0.00000
0.40651 0.21211 0.00000
0.43218 0.21090 0.00000
0.45743 0.21116 0.00000
0.48608 0.21210 0.00000
0.51603 0.21221 0.00000
0.54367 0.21282 0.00000
0.57302 0.21433 0.00000
0.60512 0.21404 0.00000
0.63587 0.21427 0.00000
0.66617 0.21686 0.00000
0.69516 0.21745 0.00000
0.72062 0.21941 0.00000
0.74644 0.22417 0.00000
0.76926 0.22604 0.00000
0.79285 0.23190 0.00000
0.81778 0.23482 0.00000
0.83862 0.24013 0.01892
0.86417 0.24315 0.02832
0.88503 0.25018 0.04466
0.00000 0.26362 0.00643
0.02961 0.26256 0.00170
0.06730 0.26141 0.00000
0.10389 0.25988 0.00000
0.13991 0.25808 0.00000
0.17532 0.25610 0.00000
0.20963 0.25397 0.00000
0.24215 0.25181 0.00000
0.27275 0.24991 0.00000
0.30181 0.24821 0.00000
0.32965 0.24651 0.00000
0.35618 0.24533 0.00000
0.38197 0.24452 0.00000
0.40725 0.24351 0.00000
0.43199 0.24284 0.00000
0.45779 0.24327 0.00000
0.48655 0.24325 0.00000
0.51500 0.24322 0.00000
0.54274 0.24411 0.00000
0.57273 0.24466 0.00000
0.60437 0.24446 0.00000
0.63508 0.24572 0.00000
0.66537 0.24727 0.00000
0.69384 0.24767 0.00000
0.72002 0.25076 0.00000
0.74591 0.25301 0.00000
0.76878 0.25544 0.00000
0.79365 0.25940 0.00000
0.81778 0.26161 0.00000
0.83993 0.26518 0.01231
0.86524 0.26932 0.02115
0.88745 0.27457 0.04113
0.01099 0.28722 0.00513
0.04812 0.28728 0.00336
0.08007 0.28728 0.00167
0.11363 0.28706 0.00000
0.14781 0.28635 0.00000
0.18117 0.28493 0.00000
0.21269 0.28213 0.00000
0.24375 0.28041 0.00000
0.27461 0.27897 0.00000
0.30515 0.27671 0.00000
0.33348 0.27517 0.00000
0.35880 0.27542 0.00000
0.38404 0.27500 0.00000
0.40890 0.27419 0.00000
0.43399 0.27377 0.00000
0.46054 0.27383 0.00000
0.48802 0.27366 0.00000
0.51533 0.27373 0.00000
0.54292 0.27434 0.00000
0.57332 0.27462 0.00000
0.60447 0.27512 0.00000
0.63501 0.27667 0.00000
0.66497 0.27749 0.00000
0.69333 0.27848 0.00000
0.72024 0.28105 0.00000
0.74586 0.28250 0.00000
0.76957 0.28530 0.00000
0.79477 0.28746 0.00000
0.81804 0.28939 0.00000
0.84104 0.29186 0.00294
0.86566 0.29624 0.01166
0.88926 0.30020 0.03383
0.06771 0.31548 0.03709
0.08942 0.31514 0.03332
0.10973 0.31477 0.02918
0.13386 0.31428 0.02345
0.16045 0.31363 0.01603
0.18851 0.31272 0.00678
0.21749 0.31146 0.00000
0.24694 0.30987 0.00000
0.27638 0.30806 0.00000
0.30516 0.30664 0.00000
0.33298 0.30605 0.00000
0.36017 0.30553 0.00000
0.38669 0.30466 0.00000
0.41229 0.30403 0.00000
0.43778 0.30386 0.00000
0.46387 0.30372 0.00000
0.49034 0.30344 0.00000
0.51709 0.30345 0.00000
0.54501 0.30395 0.00000
0.57519 0.30444 0.00000
0.60554 0.30541 0.00000
0.63562 0.30679 0.00000
0.66536 0.30755 0.00000
0.69385 0.30894 0.00000
0.72100 0.31078 0.00000
0.74654 0.31226 0.00000
0.77125 0.31466 0.00000
0.79609 0.31585 0.00000
0.81878 0.31716 0.00000
0.84245 0.31904 0.00000
0.86590 0.32340 0.00240
0.89025 0.32669 0.02278
0.09437 0.34031 0.03865
0.11066 0.34046 0.03472
0.12681 0.34059 0.03056
0.14686 0.34066 0.02509
0.16971 0.34057 0.01855
0.19455 0.34013 0.01116
0.22092 0.33913 0.00258
0.24799 0.33732 0.00000
0.27603 0.33646 0.00000
0.30534 0.33667 0.00000
0.33457 0.33573 0.00000
0.36363 0.33422 0.00000
0.39051 0.33339 0.00000
0.41569 0.33344 0.00000
0.44136 0.33335 0.00000
0.46734 0.33305 0.00000
0.49357 0.33272 0.00000
0.52047 0.33287 0.00000
0.54870 0.33334 0.00000
0.57797 0.33396 0.00000
0.60754 0.33510 0.00000
0.63722 0.33642 0.00000
0.66689 0.33732 0.00000
0.69525 0.33879 0.00000
0.72222 0.34030 0.00000
0.74806 0.34190 0.00000
0.77332 0.34359 0.00000
0.79760 0.34448 0.00000
0.82013 0.34490 0.00000
0.84421 0.34733 0.00000
0.86789 0.34935 0.00000
0.89092 0.35364 0.01091
0.11692 0.36762 0.06313
0.12893 0.36763 0.06017
0.14163 0.36763 0.05686
0.15844 0.36762 0.05223
0.17887 0.36757 0.04627
0.20206 0.36746 0.03897
0.22706 0.36729 0.03076
0.25326 0.36695 0.02166
0.28047 0.36617 0.01099
0.30837 0.36496 0.00000
0.33646 0.36372 0.00000
0.36415 0.36300 0.00000
0.39124 0.36280 0.00000
0.41816 0.36264 0.00000
0.44491 0.36235 0.00000
0.47122 0.36206 0.00000
0.49762 0.36197 0.00000
0.52479 0.36216 0.00000
0.55284 0.36250 0.00000
0.58155 0.36312 0.00000
0.61082 0.36432 0.00000
0.64044 0.36556 0.00000
0.66952 0.36679 0.00000
0.69729 0.36824 0.00000
0.72410 0.36975 0.00000
0.75025 0.37133 0.00000
0.77545 0.37259 0.00000
0.79948 0.37332 0.00000
0.82265 0.37389 0.00000
0.84636 0.37581 0.00000
0.86884 0.37722 0.00000
0.89246 0.38051 0.00181
0.13886 0.39336 0.07663
0.14914 0.39355 0.07389
0.16010 0.39373 0.07080
0.17463 0.39393 0.06638
0.19229 0.39407 0.06042
0.21247 0.39407 0.05260
0.23462 0.39383 0.04241
0.25828 0.39324 0.02958
0.28317 0.39215 0.01468
0.30941 0.39129 0.00328
0.33698 0.39186 0.00365
0.36512 0.39192 0.00014
0.39349 0.39164 0.00000
0.42195 0.39122 0.00000
0.44869 0.39099 0.00000
0.47494 0.39096 0.00000
0.50192 0.39104 0.00000
0.52952 0.39123 0.00000
0.55760 0.39156 0.00000
0.58630 0.39232 0.00000
0.61554 0.39352 0.00000
0.64473 0.39480 0.00000
0.67307 0.39616 0.00000
0.70006 0.39766 0.00000
0.72695 0.39926 0.00000
0.75283 0.40075 0.00000
0.77774 0.40183 0.00000
0.80202 0.40248 0.00000
0.82570 0.40320 0.00000
0.84848 0.40427 0.00000
0.87051 0.40558 0.00000
0.89450 0.40777 0.00000
0.15867 0.41965 0.09405
0.16693 0.41974 0.09149
0.17595 0.41983 0.08857
0.18822 0.41997 0.08445
0.20352 0.42013 0.07914
0.22149 0.42032 0.07279
0.24174 0.42051 0.06563
0.26404 0.42068 0.05791
0.28821 0.42079 0.04966
0.31394 0.42071 0.03963
0.34082 0.42038 0.02787
0.36833 0.41995 0.01694
0.39597 0.41964 0.00778
0.42335 0.41957 0.00067
0.45072 0.41969 0.00000
0.47862 0.41987 0.00000
0.50679 0.42009 0.00000
0.53484 0.42035 0.00000
0.56319 0.42089 0.00000
0.59206 0.42183 0.00000
0.62113 0.42299 0.00000
0.64983 0.42427 0.00000
0.67749 0.42575 0.00000
0.70431 0.42737 0.00000
0.73055 0.42897 0.00000
0.75566 0.43040 0.00000
0.78060 0.43137 0.00000
0.80522 0.43201 0.00000
0.82876 0.43255 0.00000
0.85069 0.43275 0.00000
0.87273 0.43348 0.00000
0.89688 0.43672 0.00000
0.17838 0.44590 0.11009
0.18565 0.44607 0.10795
0.19365 0.44626 0.10552
0.20459 0.44652 0.10205
0.21837 0.44682 0.09745
0.23469 0.44713 0.09166
0.25323 0.44740 0.08460
0.27370 0.44756 0.07619
0.29587 0.44758 0.06645
0.31969 0.44739 0.05591
0.34529 0.44689 0.04616
0.37098 0.44725 0.03490
0.39747 0.44780 0.02549
0.42508 0.44826 0.01793
0.45415 0.44848 0.00990
0.48390 0.44882 0.00000
0.51191 0.44912 0.00000
0.54030 0.44975 0.00000
0.56926 0.45065 0.00000
0.59834 0.45171 0.00000
0.62713 0.45289 0.00000
0.65526 0.45426 0.00000
0.68250 0.45583 0.00000
0.70903 0.45743 0.00000
0.73463 0.45897 0.00000
0.75938 0.46033 0.00000
0.78450 0.46126 0.00000
0.80894 0.46194 0.00000
0.83214 0.46226 0.00000
0.85400 0.46219 0.00000
0.87663 0.46353 0.00000
0.89927 0.46401 0.00000
0.19786 0.47282 0.12680
0.20399 0.47296 0.12484
0.21081 0.47312 0.12260
0.22029 0.47334 0.11936
0.23240 0.47362 0.11502
0.24694 0.47397 0.10954
0.26369 0.47438 0.10291
0.28247 0.47482 0.09527
0.30323 0.47523 0.08705
0.32587 0.47560 0.07886
0.34999 0.47600 0.07090
0.37534 0.47649 0.06333
0.40201 0.47693 0.05598
0.42994 0.47715 0.04810
0.45841 0.47739 0.03788
0.48720 0.47803 0.02444
0.51649 0.47890 0.01268
0.54634 0.47995 0.00320
0.57594 0.48105 0.00000
0.60474 0.48212 0.00000
0.63308 0.48342 0.00000
0.66083 0.48489 0.00000
0.68785 0.48642 0.00000
0.71404 0.48793 0.00000
0.73925 0.48940 0.00000
0.76411 0.49067 0.00000
0.78889 0.49167 0.00000
0.81313 0.49246 0.00000
0.83625 0.49269 0.00000
0.85883 0.49327 0.00000
0.88093 0.49488 0.00000
0.90365 0.49538 0.00000
0.21794 0.50089 0.14701
0.22347 0.50108 0.14541
0.22964 0.50129 0.14359
0.23825 0.50159 0.14097
0.24934 0.50197 0.13747
0.26276 0.50241 0.13305
0.27835 0.50291 0.12770
0.29592 0.50345 0.12141
0.31533 0.50400 0.11422
0.33648 0.50458 0.10627
0.35941 0.50521 0.09818
0.38430 0.50599 0.09184
0.40886 0.50649 0.07889
0.43493 0.50706 0.06527
0.46258 0.50778 0.05219
0.49182 0.50855 0.04010
0.52252 0.50941 0.02805
0.55329 0.51067 0.01440
0.58200 0.51174 0.01345
0.61077 0.51320 0.01012
0.63916 0.51472 0.00686
0.66662 0.51616 0.00623
0.69311 0.51757 0.00669
0.71876 0.51904 0.00173
0.74384 0.52045 0.00000
0.76871 0.52165 0.00000
0.79331 0.52263 0.00000
0.81742 0.52333 0.00000
0.84114 0.52388 0.00000
0.86416 0.52501 0.00000
0.88619 0.52683 0.00000
0.90845 0.52676 0.00000
0.23928 0.52990 0.16650
0.24400 0.53009 0.16506
0.24932 0.53031 0.16341
0.25679 0.53062 0.16102
0.26651 0.53104 0.15780
0.27844 0.53156 0.15367
0.29251 0.53218 0.14848
0.30860 0.53288 0.14215
0.32660 0.53366 0.13471
0.34635 0.53451 0.12648
0.36777 0.53546 0.11789
0.39082 0.53647 0.10915
0.41549 0.53754 0.10053
0.44172 0.53864 0.09221
0.46953 0.53957 0.08413
0.49851 0.54022 0.07486
0.52809 0.54098 0.06274
0.55795 0.54226 0.04771
0.58795 0.54384 0.03099
0.61766 0.54545 0.01692
0.64559 0.54670 0.01193
0.67186 0.54786 0.01342
0.69763 0.54937 0.01282
0.72300 0.55090 0.00929
0.74805 0.55219 0.00406
0.77285 0.55324 0.00000
0.79734 0.55409 0.00000
0.82171 0.55478 0.00000
0.84607 0.55554 0.00000
0.86927 0.55650 0.00000
0.89214 0.55722 0.00000
0.91396 0.55761 0.00000
0.25993 0.56069 0.18676
0.26423 0.56091 0.18549
0.26909 0.56116 0.18404
0.27596 0.56153 0.18196
0.28494 0.56202 0.17919
0.29602 0.56263 0.17568
0.30914 0.56336 0.17143
0.32424 0.56421 0.16645
0.34124 0.56517 0.16078
0.36006 0.56624 0.15455
0.38062 0.56746 0.14796
0.40287 0.56888 0.14141
0.42683 0.57064 0.13572
0.45196 0.57181 0.12645
0.47811 0.57220 0.11183
0.50572 0.57296 0.09746
0.53451 0.57395 0.08263
0.56435 0.57510 0.06673
0.59483 0.57636 0.04790
0.62348 0.57735 0.03462
0.64957 0.57839 0.03153
0.67584 0.58042 0.02428
0.70152 0.58220 0.01920
0.72659 0.58348 0.01729
0.75145 0.58452 0.01398
0.77613 0.58539 0.00368
0.80071 0.58608 0.00000
0.82531 0.58669 0.00000
0.84974 0.58725 0.00000
0.87405 0.58763 0.00000
0.89772 0.58742 0.00000
0.92049 0.58579 0.00000
0.28409 0.59205 0.20957
0.28786 0.59229 0.20847
0.29214 0.59255 0.20721
0.29824 0.59292 0.20537
0.30628 0.59342 0.20289
0.31629 0.59404 0.19972
0.32827 0.59478 0.19582
0.34214 0.59565 0.19115
0.35784 0.59665 0.18564
0.37530 0.59777 0.17927
0.39452 0.59899 0.17202
0.41545 0.60035 0.16404
0.43806 0.60186 0.15565
0.46229 0.60352 0.14713
0.48804 0.60527 0.13874
0.51482 0.60663 0.12818
0.54235 0.60737 0.11395
0.57047 0.60801 0.09850
0.59863 0.60894 0.08298
0.62632 0.61051 0.06701
0.65382 0.61283 0.04799
0.67972 0.61447 0.03434
0.70432 0.61529 0.03050
0.72920 0.61632 0.02668
0.75393 0.61723 0.02133
0.77850 0.61789 0.01305
0.80312 0.61840 0.00000
0.82782 0.61880 0.00000
0.85264 0.61904 0.00000
0.87739 0.61902 0.00000
0.90148 0.61869 0.00000
0.92357 0.61820 0.00000
0.30933 0.62365 0.23286
0.31273 0.62388 0.23186
0.31660 0.62415 0.23071
0.32213 0.62453 0.22905
0.32945 0.62505 0.22682
0.33862 0.62570 0.22398
0.34965 0.62649 0.22049
0.36253 0.62743 0.21633
0.37723 0.62852 0.21148
0.39372 0.62978 0.20595
0.41195 0.63121 0.19975
0.43185 0.63281 0.19290
0.45332 0.63456 0.18540
0.47615 0.63629 0.17688
0.49995 0.63770 0.16633
0.52466 0.63890 0.15392
0.55076 0.64012 0.14082
0.57759 0.64132 0.12600
0.60406 0.64264 0.11015
0.62994 0.64405 0.09374
0.65558 0.64535 0.07804
0.68110 0.64667 0.06437
0.70689 0.64836 0.05172
0.73146 0.64939 0.04112
0.75553 0.64995 0.03229
0.77994 0.65046 0.02270
0.80452 0.65082 0.00892
0.82930 0.65098 0.00000
0.85431 0.65096 0.00000
0.87928 0.65080 0.00000
0.90362 0.65042 0.00000
0.92607 0.64948 0.00000
0.33759 0.65447 0.25749
0.34060 0.65472 0.25656
0.34405 0.65500 0.25549
0.34898 0.65541 0.25394
0.35554 0.65595 0.25186
0.36379 0.65664 0.24919
0.37378 0.65748 0.24588
0.38552 0.65847 0.24190
0.39901 0.65960 0.23719
0.41422 0.66087 0.23169
0.43109 0.66227 0.22541
0.44955 0.66380 0.21842
0.46950 0.66547 0.21093
0.49089 0.66732 0.20333
0.51377 0.66937 0.19616
0.53798 0.67161 0.18962
0.56186 0.67289 0.17568
0.58586 0.67393 0.15888
0.61023 0.67513 0.14257
0.63483 0.67643 0.12584
0.65978 0.67791 0.10903
0.68496 0.67963 0.09189
0.70858 0.68065 0.07643
0.73219 0.68148 0.06356
0.75679 0.68247 0.05195
0.78088 0.68292 0.03725
0.80509 0.68309 0.01988
0.82982 0.68306 0.00120
0.85494 0.68279 0.00000
0.88006 0.68229 0.00000
0.90459 0.68140 0.00000
0.92657 0.68002 0.00000
0.36822 0.68447 0.28347
0.37093 0.68472 0.28257
0.37404 0.68501 0.28154
0.37850 0.68542 0.28005
0.38445 0.68598 0.27803
0.39195 0.68668 0.27546
0.40104 0.68753 0.27228
0.41171 0.68854 0.26846
0.42396 0.68971 0.26398
0.43780 0.69103 0.25879
0.45322 0.69249 0.25292
0.47020 0.69408 0.24636
0.48863 0.69578 0.23901
0.50836 0.69758 0.23072
0.52929 0.69947 0.22166
0.55135 0.70143 0.21265
0.57434 0.70343 0.20407
0.59748 0.70526 0.19407
0.61966 0.70656 0.17845
0.64194 0.70776 0.16149
0.66462 0.70904 0.14455
0.68770 0.71049 0.12749
0.71183 0.71238 0.11132
0.73612 0.71412 0.09565
0.75823 0.71438 0.07788
0.78145 0.71492 0.05876
0.80540 0.71516 0.03681
0.83001 0.71487 0.01583
0.85478 0.71437 0.00000
0.87947 0.71334 0.00000
0.90354 0.71159 0.00000
0.92459 0.71013 0.00000
0.40311 0.71299 0.31244
0.40546 0.71325 0.31159
0.40816 0.71355 0.31061
0.41204 0.71397 0.30918
0.41723 0.71454 0.30726
0.42381 0.71527 0.30479
0.43185 0.71615 0.30175
0.44137 0.71719 0.29808
0.45242 0.71839 0.29377
0.46497 0.71976 0.28879
0.47902 0.72128 0.28314
0.49452 0.72296 0.27686
0.51141 0.72477 0.27003
0.52962 0.72669 0.26282
0.54896 0.72869 0.25518
0.56907 0.73072 0.24674
0.58937 0.73266 0.23687
0.60947 0.73449 0.22595
0.63005 0.73627 0.21461
0.65126 0.73794 0.20094
0.67251 0.73949 0.18376
0.69399 0.74104 0.16626
0.71583 0.74256 0.14808
0.73860 0.74438 0.13113
0.76284 0.74651 0.11611
0.78484 0.74702 0.09473
0.80723 0.74669 0.07279
0.83065 0.74616 0.04838
0.85445 0.74544 0.01838
0.87831 0.74363 0.00034
0.90150 0.74177 0.00000
0.92070 0.74053 0.00000
0.44000 0.74089 0.34352
0.44210 0.74115 0.34273
0.44451 0.74145 0.34181
0.44797 0.74187 0.34049
0.45261 0.74245 0.33872
0.45850 0.74318 0.33645
0.46568 0.74407 0.33365
0.47420 0.74513 0.33028
0.48407 0.74636 0.32630
0.49527 0.74776 0.32170
0.50778 0.74931 0.31645
0.52154 0.75102 0.31053
0.53646 0.75286 0.30397
0.55244 0.75482 0.29684
0.56939 0.75688 0.28937
0.58719 0.75903 0.28188
0.60573 0.76124 0.27450
0.62481 0.76343 0.26636
0.64381 0.76539 0.25499
0.66290 0.76722 0.24158
0.68237 0.76904 0.22666
0.70214 0.77092 0.20865
0.72295 0.77297 0.19065
0.74461 0.77500 0.17255
0.76690 0.77689 0.15513
0.79070 0.77868 0.14174
0.81190 0.77815 0.12051
0.83362 0.77719 0.09648
0.85619 0.77602 0.06955
0.87904 0.77437 0.03903
0.90093 0.77236 0.01292
0.91720 0.77097 0.00000
0.47880 0.76833 0.37894
0.48068 0.76859 0.37820
0.48282 0.76889 0.37734
0.48592 0.76933 0.37611
0.49005 0.76991 0.37445
0.49530 0.77065 0.37232
0.50168 0.77155 0.36969
0.50923 0.77263 0.36654
0.51795 0.77387 0.36282
0.52783 0.77528 0.35853
0.53885 0.77685 0.35363
0.55099 0.77858 0.34813
0.56419 0.78044 0.34208
0.57840 0.78243 0.33553
0.59348 0.78451 0.32847
0.60930 0.78667 0.32101
0.62577 0.78888 0.31337
0.64283 0.79112 0.30567
0.66027 0.79335 0.29704
0.67750 0.79559 0.28575
0.69477 0.79788 0.27235
0.71298 0.80014 0.25683
0.73234 0.80242 0.23916
0.75318 0.80492 0.22151
0.77510 0.80735 0.20424
0.79704 0.80907 0.18703
0.81986 0.81048 0.17160
0.83925 0.80865 0.14585
0.85979 0.80678 0.12097
0.88112 0.80500 0.09231
0.90025 0.80298 0.06265
0.91320 0.80127 0.01931
0.51850 0.79542 0.41693
0.52019 0.79567 0.41626
0.52212 0.79597 0.41549
0.52490 0.79639 0.41437
0.52861 0.79696 0.41288
0.53332 0.79768 0.41099
0.53905 0.79857 0.40867
0.54582 0.79962 0.40589
0.55363 0.80084 0.40264
0.56245 0.80224 0.39889
0.57225 0.80380 0.39459
0.58298 0.80553 0.38974
0.59457 0.80741 0.38432
0.60694 0.80943 0.37836
0.61999 0.81156 0.37190
0.63363 0.81380 0.36494
0.64788 0.81612 0.35750
0.66267 0.81852 0.34956
0.67786 0.82101 0.34081
0.69353 0.82353 0.33068
0.70995 0.82600 0.31921
0.72702 0.82845 0.30602
0.74462 0.83092 0.29045
0.76310 0.83341 0.27263
0.78307 0.83592 0.25414
0.80441 0.83819 0.23643
0.82703 0.84073 0.22091
0.84700 0.84050 0.20178
0.86496 0.83764 0.17815
0.88400 0.83499 0.15126
0.89939 0.83290 0.11911
0.90922 0.83062 0.07143
0.55875 0.82210 0.45798
0.56026 0.82236 0.45741
0.56199 0.82266 0.45675
0.56448 0.82309 0.45581
