provia conversion luts/Provia to Nostalgic Neg sRGB.cube
# sRGB
# github.com/abpy/FujifilmCameraProfiles
LUT_3D_SIZE 5
DOMAIN_MIN 0.000000 0.000000 0.000000
DOMAIN_MAX 0.903226 0.903226 0.903226
0.01590 0.01602 0.01456
0.28976 0.01360 0.00000
0.44822 0.00428 0.00000
0.64396 0.04594 0.00000
0.81646 0.12279 0.00000
0.00000 0.23595 0.00000
0.24599 0.21980 0.00000
0.43218 0.21090 0.00000
0.63587 0.21427 0.00000
0.81778 0.23482 0.00000
0.15867 0.41965 0.09405
0.26404 0.42068 0.05791
0.45072 0.41969 0.00000
0.64983 0.42427 0.00000
0.82876 0.43255 0.00000
0.30933 0.62365 0.23286
0.36253 0.62743 0.21633
0.49995 0.63770 0.16633
0.68110 0.64667 0.06437
0.85431 0.65096 0.00000
0.55875 0.82210 0.45798
0.58311 0.82638 0.44880
0.64863 0.83830 0.42010
0.74418 0.85547 0.36212
0.87176 0.86896 0.24567
0.00366 0.00632 0.34842
0.26513 0.00286 0.21060
0.44662 0.01033 0.12667
0.65301 0.05126 0.06460
0.82867 0.13194 0.05006
0.00000 0.23520 0.26519
0.24772 0.23923 0.23203
0.43663 0.22708 0.17802
0.64102 0.22181 0.11737
0.83029 0.24044 0.07146
0.11857 0.42618 0.26515
0.25555 0.42857 0.24641
0.45580 0.42913 0.22371
0.65875 0.43136 0.19656
0.84181 0.43974 0.12953
0.29315 0.63202 0.33959
0.35393 0.63588 0.32763
0.50372 0.64477 0.29666
0.68885 0.65229 0.24625
0.86352 0.65723 0.19644
0.56001 0.82558 0.51909
0.58493 0.82998 0.51088
0.65298 0.84239 0.48780
0.75352 0.86015 0.44488
0.88438 0.87703 0.33582
0.00425 0.03953 0.52585
0.24305 0.02583 0.47846
0.45634 0.02831 0.36253
0.65792 0.03766 0.29269
0.86073 0.08470 0.23037
0.00000 0.23992 0.49406
0.20796 0.23812 0.45381
0.44673 0.24595 0.39230
0.65107 0.24353 0.33708
0.85951 0.24790 0.28013
0.05852 0.43863 0.47409
0.24762 0.44352 0.46081
0.47191 0.45609 0.44553
0.67226 0.45581 0.40687
0.86371 0.45584 0.35217
0.28634 0.64280 0.50618
0.35604 0.64736 0.50151
0.51497 0.65763 0.48958
0.70384 0.66449 0.46255
0.88215 0.66832 0.41771
0.56423 0.83490 0.62974
0.58957 0.83949 0.62711
0.65981 0.85144 0.61702
0.77023 0.86779 0.59074
0.90208 0.88381 0.52349
0.06214 0.10668 0.72418
0.19995 0.11001 0.69556
0.46411 0.10467 0.60841
0.65787 0.09458 0.50493
0.87179 0.11895 0.44874
0.00000 0.26360 0.70676
0.11238 0.26275 0.67390
0.43829 0.25943 0.61510
0.65812 0.26792 0.53859
0.87003 0.28127 0.49118
0.00000 0.45412 0.67664
0.16236 0.45621 0.66172
0.43743 0.46526 0.63260
0.67745 0.48106 0.59911
0.87525 0.48291 0.55836
0.25840 0.65463 0.66974
0.33684 0.65949 0.66828
0.50952 0.67344 0.66625
0.71720 0.68972 0.65630
0.89616 0.68818 0.61966
0.55621 0.84244 0.74257
0.58300 0.84672 0.74319
0.65979 0.85879 0.74258
0.78131 0.87712 0.73479
0.92026 0.89158 0.70165
0.21287 0.18965 0.81660
0.24381 0.18471 0.80213
0.41157 0.18836 0.74817
0.64782 0.22821 0.70525
0.83643 0.25733 0.63428
0.08278 0.31449 0.84136
0.14912 0.30988 0.82608
0.38480 0.31019 0.77891
0.64319 0.33010 0.73144
0.84259 0.35448 0.66608
0.00000 0.48441 0.84911
0.03045 0.48553 0.84092
0.37398 0.49125 0.82029
0.64703 0.50626 0.78152
0.86499 0.52876 0.73931
0.08728 0.67165 0.84686
0.21938 0.67623 0.84631
0.44156 0.68635 0.84200
0.68448 0.70365 0.83315
0.89565 0.71886 0.81164
0.52307 0.84519 0.86661
0.55266 0.85062 0.87020
0.63635 0.86591 0.87970
0.77034 0.88883 0.88840
0.92632 0.90823 0.88184
