provia conversion luts/Provia to Bleach Bypass DisplayP3.cube
# DisplayP3
# github.com/abpy/FujifilmCameraProfiles
LUT_3D_SIZE 8
DOMAIN_MIN 0.000000 0.000000 0.000000
DOMAIN_MAX 0.903226 0.903226 0.903226
0.01693 0.01763 0.01587
0.06659 0.01633 0.01047
0.12490 0.01565 0.00000
0.20899 0.02292 0.00000
0.30056 0.02853 0.00000
0.38450 0.02648 0.00000
0.45786 0.00622 0.00000
0.52553 0.01397 0.00000
0.05111 0.10059 0.03717
0.10210 0.10702 0.03819
0.15719 0.11247 0.03384
0.23303 0.11254 0.03348
0.31733 0.11095 0.02560
0.40022 0.11500 0.04019
0.47289 0.10848 0.03810
0.54009 0.11586 0.07831
0.09968 0.18101 0.07259
0.13639 0.18472 0.07743
0.18865 0.19105 0.07743
0.26446 0.19836 0.08137
0.34936 0.20500 0.08693
0.43195 0.21185 0.09693
0.51063 0.22318 0.13414
0.58019 0.23824 0.17112
0.16114 0.29115 0.11614
0.18886 0.29419 0.12118
0.23911 0.29993 0.12642
0.31114 0.30988 0.13954
0.39503 0.32090 0.15031
0.48117 0.33395 0.16812
0.56732 0.35378 0.19874
0.64696 0.37950 0.23188
0.24366 0.42072 0.18738
0.26779 0.42479 0.19558
0.31728 0.43310 0.20784
0.38668 0.44682 0.22851
0.46783 0.46629 0.25133
0.55750 0.48973 0.27135
0.65026 0.51829 0.29750
0.73258 0.54874 0.31886
0.35763 0.57118 0.29543
0.37879 0.57624 0.30265
0.42466 0.58738 0.31601
0.48936 0.60426 0.33427
0.56756 0.62758 0.35930
0.65353 0.65530 0.38250
0.73713 0.68083 0.39072
0.80872 0.70196 0.39198
0.48543 0.72572 0.41556
0.50195 0.73002 0.41826
0.53902 0.73977 0.42514
0.59418 0.75478 0.43800
0.66148 0.77305 0.44958
0.73383 0.79215 0.45557
0.80378 0.81084 0.45469
0.86342 0.82574 0.43518
0.59779 0.84655 0.49531
0.61052 0.84987 0.49959
0.64012 0.85747 0.50854
0.68494 0.86860 0.52077
0.73974 0.88148 0.53522
0.79831 0.89426 0.53905
0.85318 0.90548 0.52334
0.90083 0.91662 0.47168
0.01472 0.01440 0.05625
0.07213 0.01471 0.07068
0.12550 0.01002 0.07054
0.21145 0.01980 0.07243
0.30528 0.03962 0.07331
0.38897 0.03722 0.06439
0.46101 0.01469 0.04298
0.52719 0.01491 0.06226
0.06085 0.10538 0.10123
0.11064 0.11099 0.11048
0.16518 0.11458 0.11639
0.23948 0.11619 0.11785
0.32321 0.11703 0.11350
0.40604 0.11832 0.11241
0.47622 0.11182 0.10855
0.54163 0.11479 0.12137
0.11289 0.18923 0.14408
0.14846 0.19332 0.15066
0.20048 0.19979 0.15696
0.27451 0.20629 0.15772
0.35906 0.21235 0.16214
0.44183 0.21828 0.17046
0.51808 0.22808 0.17916
0.58521 0.24085 0.20114
0.17588 0.30280 0.19059
0.20282 0.30581 0.19372
0.25273 0.31216 0.20135
0.32298 0.32082 0.20817
0.40567 0.33079 0.21300
0.49289 0.34470 0.23132
0.57691 0.36188 0.24486
0.65462 0.38495 0.26153
0.25926 0.43299 0.25401
0.28225 0.43680 0.25874
0.33048 0.44503 0.26801
0.39959 0.45942 0.28788
0.47849 0.47687 0.30079
0.56777 0.49943 0.31496
0.66067 0.52753 0.33764
0.74184 0.55692 0.35257
0.37092 0.58215 0.34713
0.39122 0.58684 0.35242
0.43576 0.59741 0.36277
0.49969 0.61416 0.38028
0.57801 0.63804 0.40711
0.66229 0.66379 0.42324
0.74449 0.68730 0.42463
0.81571 0.70779 0.42275
0.49524 0.73424 0.45945
0.51085 0.73795 0.45962
0.54666 0.74686 0.46384
0.60083 0.76117 0.47519
0.66755 0.77883 0.48684
0.73937 0.79718 0.49319
0.80877 0.81501 0.49245
0.86759 0.82890 0.46848
0.60421 0.85182 0.54412
0.61651 0.85488 0.54770
0.64529 0.86180 0.55245
0.68937 0.87212 0.55870
0.74361 0.88433 0.56897
0.80180 0.89658 0.57130
0.85641 0.90731 0.55821
0.90362 0.91772 0.51130
0.01049 0.02415 0.11080
0.07760 0.03011 0.12135
0.13492 0.02145 0.12680
0.21273 0.02534 0.13801
0.30665 0.05101 0.15145
0.39335 0.05986 0.15143
0.46900 0.05515 0.13600
0.53424 0.05782 0.12957
0.07081 0.11322 0.14951
0.11663 0.11762 0.15639
0.16822 0.12147 0.16207
0.23928 0.12315 0.17112
0.32596 0.12764 0.18133
0.40985 0.12850 0.18216
0.48552 0.13391 0.17076
0.54851 0.13256 0.16452
0.12010 0.19863 0.19422
0.15449 0.20252 0.19908
0.20665 0.20843 0.20578
0.28348 0.22026 0.22214
0.36940 0.22760 0.23552
0.45367 0.23526 0.24518
0.53111 0.24289 0.24597
0.59309 0.24516 0.22870
0.18887 0.31671 0.25728
0.21734 0.32096 0.26344
0.27086 0.32954 0.27619
0.34128 0.33957 0.28691
0.42499 0.35203 0.29866
0.51535 0.36844 0.31952
0.60041 0.38677 0.33007
0.67848 0.41093 0.33553
0.27937 0.45363 0.34066
0.30403 0.45861 0.34697
0.35555 0.46973 0.36126
0.42512 0.48538 0.37997
0.50302 0.50166 0.38852
0.59349 0.52472 0.40195
0.68789 0.55343 0.42418
0.76473 0.57801 0.42567
0.39387 0.60499 0.43861
0.41438 0.60972 0.44315
0.45906 0.62055 0.45378
0.52370 0.63833 0.47390
0.60105 0.66152 0.49938
0.68050 0.68141 0.50062
0.76185 0.70279 0.49802
0.83409 0.72344 0.49510
0.51114 0.74999 0.53924
0.52743 0.75399 0.54111
0.56325 0.76262 0.54508
0.61556 0.77540 0.55328
0.68134 0.79226 0.57052
0.75267 0.80962 0.58395
0.82070 0.82493 0.57885
0.87731 0.83615 0.54406
0.61658 0.86361 0.65142
0.62885 0.86629 0.65347
0.65709 0.87200 0.65202
0.70015 0.88052 0.64543
0.75294 0.89109 0.64458
0.80989 0.90204 0.64578
0.86378 0.91140 0.63866
0.91063 0.91959 0.61267
0.02786 0.02266 0.17481
0.09243 0.04513 0.18763
0.15137 0.05547 0.19327
0.21777 0.03166 0.19084
0.30959 0.05484 0.20305
0.39193 0.03938 0.20088
0.46847 0.01665 0.18977
0.53833 0.05289 0.16983
0.08607 0.11818 0.21321
0.12367 0.12438 0.21858
0.17671 0.13110 0.22318
0.24246 0.12678 0.22344
0.32996 0.13743 0.23388
0.41123 0.13372 0.23398
0.48678 0.12654 0.22566
0.55640 0.14427 0.21024
0.13338 0.20844 0.26214
0.16479 0.21274 0.26588
0.21983 0.22226 0.27285
0.29004 0.23142 0.28231
0.37432 0.24374 0.29462
0.45906 0.25276 0.30421
0.53967 0.26029 0.30694
0.60637 0.26558 0.29573
0.19981 0.32783 0.32111
0.22716 0.33204 0.32601
0.28159 0.34152 0.33707
0.35361 0.35496 0.35279
0.43909 0.37175 0.37183
0.53031 0.39076 0.39013
0.62117 0.41237 0.40368
0.69718 0.43306 0.40517
0.29489 0.46834 0.40348
0.31991 0.47397 0.41049
0.37291 0.48695 0.42695
0.44440 0.50526 0.44908
0.52655 0.52622 0.46892
0.61785 0.55033 0.48795
0.71125 0.57689 0.50592
0.78672 0.59866 0.50132
0.40442 0.62096 0.50649
0.42728 0.62700 0.51431
0.47695 0.64068 0.53175
0.54441 0.65979 0.55489
0.61986 0.68035 0.57521
0.69937 0.69987 0.58300
0.78172 0.72083 0.58579
0.85197 0.73840 0.57698
0.51900 0.76190 0.60600
0.53669 0.76654 0.61119
0.57502 0.77633 0.62184
0.62822 0.78912 0.63541
0.69392 0.80517 0.65513
0.76568 0.82188 0.67183
0.83308 0.83519 0.66575
0.88990 0.84526 0.63728
0.62525 0.87181 0.71378
0.63954 0.87512 0.71821
0.67103 0.88205 0.72618
0.71480 0.89080 0.73191
0.76538 0.90001 0.73407
0.81999 0.90919 0.73872
0.87233 0.91637 0.73498
0.91990 0.92238 0.72693
0.02587 0.01751 0.25786
0.08673 0.02580 0.26140
0.15234 0.04194 0.26650
0.23195 0.06808 0.27694
0.31733 0.06571 0.27795
0.39786 0.04110 0.26827
0.47306 0.00000 0.25008
0.53232 0.00000 0.20815
0.08422 0.11559 0.28556
0.12178 0.12024 0.28899
0.17949 0.13064 0.29471
0.25496 0.14357 0.30401
0.33819 0.14686 0.30667
0.41870 0.14344 0.30183
0.49490 0.13443 0.28966
0.55502 0.10631 0.25713
0.14427 0.21953 0.33559
0.17412 0.22375 0.33932
0.23060 0.23432 0.34741
0.30311 0.24694 0.35901
0.38565 0.25887 0.36927
0.47039 0.27111 0.37954
0.55086 0.28055 0.38035
0.61935 0.28597 0.36570
0.21344 0.34204 0.39122
0.24069 0.34686 0.39666
0.29695 0.35811 0.40960
0.37124 0.37374 0.42860
0.45508 0.39211 0.44963
0.54511 0.41409 0.47106
0.63526 0.43636 0.48689
0.71420 0.45545 0.48510
0.30934 0.48458 0.46941
0.33421 0.49036 0.47651
0.38720 0.50340 0.49264
0.45940 0.52194 0.51566
0.54158 0.54337 0.54071
0.63194 0.56773 0.56507
0.72343 0.59270 0.58280
0.80275 0.61265 0.58162
0.41592 0.63345 0.56302
0.43896 0.63947 0.57076
0.48870 0.65310 0.58832
0.55584 0.67191 0.61231
0.63047 0.69174 0.63530
0.71069 0.71176 0.65196
0.79225 0.73130 0.65981
0.86340 0.74626 0.65255
0.51936 0.76804 0.65574
0.53804 0.77297 0.66213
0.57966 0.78395 0.67630
0.63757 0.79864 0.69515
0.70313 0.81397 0.71422
0.77265 0.82880 0.72961
0.84063 0.84193 0.73201
0.89955 0.85186 0.71337
0.63220 0.87618 0.74352
0.64655 0.87954 0.74875
0.67851 0.88685 0.76043
0.72278 0.89634 0.77507
0.77152 0.90506 0.78615
0.82451 0.91309 0.79612
0.87844 0.92124 0.79935
0.92665 0.92821 0.78956
0.04769 0.05530 0.35508
0.10109 0.06632 0.35949
0.16734 0.07278 0.36304
0.23982 0.07412 0.36420
0.32511 0.07504 0.36588
0.40846 0.05757 0.36053
0.48666 0.00588 0.34619
0.54364 0.00000 0.29964
0.10212 0.13805 0.37771
0.13637 0.14112 0.38064
0.19272 0.14510 0.38306
0.26306 0.15067 0.38626
0.34694 0.15742 0.39022
0.43068 0.15854 0.38975
0.51009 0.15056 0.38198
0.56921 0.11831 0.34592
0.16051 0.23494 0.41394
0.18867 0.23899 0.41777
0.24219 0.24779 0.42572
0.31629 0.26180 0.43755
0.40029 0.27706 0.45046
0.48590 0.29096 0.46151
0.56880 0.30176 0.46709
0.63549 0.30751 0.45236
0.22991 0.35924 0.46464
0.25700 0.36451 0.47056
0.31434 0.37699 0.48478
0.39019 0.39417 0.50561
0.47544 0.41459 0.52973
0.56450 0.43710 0.55357
0.65357 0.45964 0.57586
0.73025 0.48084 0.58009
0.32081 0.50121 0.53525
0.34629 0.50710 0.54279
0.40163 0.52077 0.56050
0.47644 0.54015 0.58596
0.55952 0.56209 0.61405
0.64707 0.58570 0.64196
0.73406 0.60899 0.66474
0.81279 0.62915 0.67199
0.42968 0.64713 0.62191
0.45135 0.65278 0.62943
0.49883 0.66547 0.64630
0.56506 0.68331 0.67008
0.64000 0.70260 0.69547
0.71875 0.72102 0.71773
0.79920 0.73990 0.73410
0.87066 0.75388 0.73471
0.52419 0.77570 0.70257
0.54283 0.78047 0.70919
0.58417 0.79106 0.72393
0.64221 0.80541 0.74404
0.70864 0.82026 0.76483
0.77774 0.83396 0.78194
0.84612 0.84686 0.79116
0.90728 0.85690 0.78497
0.63699 0.88120 0.78330
0.65177 0.88458 0.78836
0.68444 0.89189 0.79937
0.72872 0.90101 0.81325
0.77687 0.90915 0.82567
0.82845 0.91672 0.83641
0.88313 0.92606 0.84593
0.93174 0.93360 0.84067
0.04863 0.03711 0.43346
0.10456 0.05338 0.43799
0.17441 0.08035 0.44513
0.25325 0.09918 0.45480
0.34118 0.10258 0.46387
0.42716 0.09126 0.46686
0.50283 0.03138 0.45398
0.56276 0.00000 0.42403
0.10507 0.13793 0.45072
0.14219 0.14515 0.45506
0.20186 0.15951 0.46257
0.27900 0.17361 0.47407
0.36652 0.18292 0.48686
0.45147 0.18403 0.49274
0.52707 0.16897 0.48366
0.58932 0.14558 0.46192
0.17219 0.25115 0.48698
0.20004 0.25579 0.49176
0.25721 0.26736 0.50253
0.33290 0.28288 0.51715
0.41935 0.29916 0.53553
0.50775 0.31491 0.55330
0.58776 0.32358 0.55840
0.65548 0.32881 0.55233
0.24690 0.37859 0.53427
0.27333 0.38385 0.54051
0.33005 0.39630 0.55541
0.40747 0.41486 0.57826
0.49366 0.43592 0.60479
0.58432 0.45853 0.63359
0.67275 0.48147 0.65830
0.74884 0.50185 0.67123
0.33571 0.51788 0.59646
0.36089 0.52371 0.60428
0.41664 0.53765 0.62304
0.49173 0.55748 0.65017
0.57452 0.57942 0.68061
0.66184 0.60217 0.71214
0.74885 0.62513 0.74116
0.82412 0.64562 0.75827
0.43355 0.65684 0.67045
0.45533 0.66245 0.67839
0.50401 0.67540 0.69686
0.57153 0.69352 0.72302
0.64663 0.71239 0.75083
0.72727 0.73154 0.77850
0.80636 0.74948 0.80220
0.87500 0.76362 0.81338
0.53378 0.78506 0.74883
0.55216 0.78971 0.75572
0.59278 0.79984 0.77090
0.64948 0.81322 0.79137
0.71394 0.82687 0.81285
0.78271 0.84002 0.83335
0.85049 0.85189 0.84968
0.91067 0.86119 0.85550
0.63699 0.88384 0.81665
0.65139 0.88704 0.82179
0.68292 0.89387 0.83286
0.72512 0.90207 0.84661
0.77271 0.90980 0.86019
0.83018 0.92002 0.87683
0.88691 0.92995 0.89073
0.93535 0.93629 0.89363
0.08779 0.07134 0.54672
0.11455 0.06580 0.55979
0.17973 0.08385 0.55776
0.26488 0.10964 0.54676
0.35224 0.11201 0.55250
0.43832 0.09976 0.55841
0.52071 0.07808 0.56172
0.58117 0.00000 0.54740
0.13724 0.17028 0.53080
0.16290 0.17354 0.53470
0.21682 0.17719 0.54737
0.29324 0.18906 0.55525
0.37875 0.19585 0.56709
0.46353 0.19641 0.57570
0.54641 0.19628 0.58350
0.60849 0.16806 0.57491
0.19438 0.27526 0.54761
0.21902 0.27882 0.55326
0.27376 0.28889 0.56652
0.35028 0.30407 0.58653
0.43540 0.31919 0.60690
0.52388 0.33495 0.62619
0.60845 0.34863 0.64351
0.67792 0.35287 0.65113
0.26294 0.39839 0.59304
0.28774 0.40331 0.59941
0.34382 0.41587 0.61528
0.42155 0.43461 0.63997
0.50931 0.45630 0.66867
0.59996 0.47853 0.69932
0.68982 0.50275 0.72996
0.76768 0.52177 0.75355
0.34670 0.53281 0.64711
0.37157 0.53861 0.65547
0.42595 0.55214 0.67490
0.49965 0.57125 0.70231
0.58345 0.59319 0.73508
0.67197 0.61616 0.77064
0.76116 0.64020 0.80566
0.83544 0.65811 0.82970
0.43579 0.66571 0.71206
0.45757 0.67129 0.72050
0.50654 0.68431 0.74024
0.57499 0.70263 0.76831
0.65211 0.72178 0.79832
0.73331 0.74034 0.82786
0.81287 0.75769 0.85780
0.88113 0.77112 0.87731
0.53494 0.79074 0.78423
0.55287 0.79516 0.79112
0.59284 0.80485 0.80649
0.64940 0.81784 0.82782
0.71447 0.83135 0.85132
0.78402 0.84446 0.87490
0.85268 0.85611 0.89543
0.91290 0.86555 0.90866
0.63319 0.88652 0.84523
0.64634 0.88930 0.84987
0.67630 0.89540 0.86027
0.72085 0.90395 0.87535
0.77542 0.91391 0.89320
0.83360 0.92391 0.91090
0.88951 0.93294 0.92698
0.93918 0.94056 0.93842
