provia conversion luts/Provia to Classic Neg sRGB.cube
# sRGB
# github.com/abpy/FujifilmCameraProfiles
LUT_3D_SIZE 5
DOMAIN_MIN 0.000000 0.000000 0.000000
DOMAIN_MAX 0.903226 0.903226 0.903226
0.00923 0.01141 0.00931
0.15273 0.01536 0.00000
0.35503 0.03448 0.00000
0.62425 0.07762 0.00000
0.82698 0.09835 0.00000
0.00000 0.17373 0.06174
0.15421 0.18120 0.04672
0.36400 0.19731 0.02523
0.64401 0.21914 0.00000
0.84135 0.22095 0.00000
0.00000 0.38222 0.17426
0.15348 0.38775 0.16497
0.39647 0.40498 0.14256
0.68209 0.43119 0.11258
0.87465 0.43713 0.11250
0.00000 0.64413 0.34396
0.16710 0.65156 0.33638
0.46129 0.67339 0.31581
0.73836 0.70061 0.28806
0.90470 0.70712 0.28477
0.00000 0.83880 0.47025
0.15352 0.84590 0.46282
0.47835 0.86696 0.44246
0.75868 0.89518 0.42244
0.91909 0.90966 0.43198
0.03430 0.01624 0.12731
0.17779 0.01972 0.09850
0.38708 0.03835 0.06955
0.65820 0.08398 0.03801
0.84152 0.11457 0.02558
0.02607 0.19363 0.21326
0.18021 0.20022 0.19565
0.39485 0.21506 0.16271
0.66915 0.23517 0.12369
0.85424 0.23164 0.10278
0.00000 0.40505 0.32224
0.18868 0.41163 0.31310
0.42802 0.43118 0.28964
0.70450 0.45776 0.25989
0.88903 0.45488 0.24653
0.00000 0.66003 0.46049
0.21941 0.66774 0.45345
0.48744 0.68941 0.43438
0.75340 0.71560 0.41012
0.91728 0.71930 0.40643
0.00000 0.84536 0.56708
0.19626 0.85225 0.56070
0.48752 0.87263 0.54284
0.76403 0.90024 0.52451
0.92725 0.91299 0.53428
0.08273 0.03951 0.29645
0.20719 0.04408 0.27091
0.41502 0.07269 0.23557
0.67878 0.10138 0.19758
0.85398 0.11088 0.18409
0.07487 0.21918 0.37740
0.21048 0.22444 0.35969
0.42814 0.24282 0.32661
0.69322 0.25959 0.28358
0.86952 0.24519 0.25883
0.08941 0.43242 0.48628
0.23306 0.44030 0.47810
0.46608 0.46209 0.45796
0.72993 0.48894 0.43364
0.90500 0.47774 0.41567
0.16328 0.68014 0.62353
0.29601 0.68815 0.61711
0.52948 0.70971 0.59941
0.77287 0.73462 0.57804
0.93123 0.73534 0.56996
0.18151 0.85856 0.72934
0.31020 0.86547 0.72320
0.53926 0.88494 0.70556
0.77852 0.90996 0.68446
0.93585 0.92219 0.67864
0.12892 0.08416 0.50015
0.24556 0.09283 0.47803
0.45582 0.11737 0.43460
0.71084 0.14348 0.39354
0.87545 0.13631 0.37264
0.12475 0.25766 0.57406
0.25410 0.26296 0.55716
0.47670 0.28159 0.52131
0.72996 0.29974 0.47933
0.89187 0.27955 0.44834
0.17392 0.47456 0.68228
0.29675 0.48350 0.67254
0.52114 0.50596 0.64783
0.76500 0.52721 0.61828
0.92526 0.51144 0.59436
0.26552 0.70609 0.79522
0.36901 0.71431 0.78745
0.58048 0.73522 0.76667
0.80773 0.75780 0.74225
0.94851 0.75789 0.72824
0.28228 0.87222 0.89038
0.37759 0.87880 0.88387
0.58141 0.89717 0.86506
0.80472 0.92035 0.83923
0.94764 0.93153 0.82323
0.21388 0.15632 0.70894
0.31734 0.16228 0.68632
0.52206 0.17493 0.62344
0.75571 0.19354 0.57645
0.89876 0.18102 0.54587
0.17316 0.31396 0.75167
0.30172 0.32008 0.73333
0.53491 0.34270 0.69447
0.77180 0.36054 0.65087
0.91454 0.34031 0.61429
0.25396 0.52676 0.84143
0.36629 0.53670 0.83107
0.58556 0.56151 0.80393
0.80565 0.58402 0.77259
0.94389 0.57289 0.74627
0.36960 0.73940 0.93063
0.45764 0.74776 0.92314
0.64733 0.76771 0.90314
0.84062 0.78696 0.87745
0.96018 0.78757 0.85788
0.41681 0.89055 0.98340
0.49064 0.89681 0.97982
0.66051 0.91300 0.96888
0.84316 0.93216 0.95293
0.96048 0.94359 0.93876
