provia conversion luts/Provia to Nostalgic Neg sRGB.cube
# sRGB
# github.com/abpy/FujifilmCameraProfiles
LUT_3D_SIZE 8
DOMAIN_MIN 0.000000 0.000000 0.000000
DOMAIN_MAX 0.903226 0.903226 0.903226
0.01590 0.01602 0.01456
0.18416 0.01535 0.00000
0.31428 0.01423 0.00000
0.40458 0.01013 0.00000
0.50100 0.00664 0.00000
0.61306 0.03591 0.00000
0.72986 0.06851 0.00000
0.81646 0.12279 0.00000
0.00000 0.16706 0.00000
0.15703 0.14619 0.00000
0.29006 0.12216 0.00000
0.38553 0.11019 0.00000
0.49076 0.11309 0.00000
0.60909 0.12745 0.00000
0.72524 0.13221 0.00000
0.81732 0.16979 0.00000
0.00000 0.26362 0.00643
0.13991 0.25808 0.00000
0.27275 0.24991 0.00000
0.38197 0.24452 0.00000
0.48655 0.24325 0.00000
0.60437 0.24446 0.00000
0.72002 0.25076 0.00000
0.81778 0.26161 0.00000
0.11692 0.36762 0.06313
0.17887 0.36757 0.04627
0.28047 0.36617 0.01099
0.39124 0.36280 0.00000
0.49762 0.36197 0.00000
0.61082 0.36432 0.00000
0.72410 0.36975 0.00000
0.82265 0.37389 0.00000
0.19786 0.47282 0.12680
0.23240 0.47362 0.11502
0.30323 0.47523 0.08705
0.40201 0.47693 0.05598
0.51649 0.47890 0.01268
0.63308 0.48342 0.00000
0.73925 0.48940 0.00000
0.83625 0.49269 0.00000
0.28409 0.59205 0.20957
0.30628 0.59342 0.20289
0.35784 0.59665 0.18564
0.43806 0.60186 0.15565
0.54235 0.60737 0.11395
0.65382 0.61283 0.04799
0.75393 0.61723 0.02133
0.85264 0.61904 0.00000
0.40311 0.71299 0.31244
0.41723 0.71454 0.30726
0.45242 0.71839 0.29377
0.51141 0.72477 0.27003
0.58937 0.73266 0.23687
0.67251 0.73949 0.18376
0.76284 0.74651 0.11611
0.85445 0.74544 0.01838
0.55875 0.82210 0.45798
0.56781 0.82367 0.45457
0.59001 0.82762 0.44615
0.62628 0.83418 0.43073
0.67336 0.84295 0.40786
0.72917 0.85296 0.37442
0.79447 0.86262 0.31313
0.87176 0.86896 0.24567
0.02034 0.00411 0.22942
0.17921 0.00434 0.15122
0.30735 0.00602 0.07105
0.40333 0.01698 0.03271
0.50056 0.00000 0.00207
0.61483 0.02710 0.00000
0.73557 0.06956 0.02135
0.82123 0.12528 0.01457
0.00000 0.14046 0.17052
0.14286 0.13680 0.13702
0.28283 0.12454 0.08839
0.38088 0.11307 0.05889
0.48811 0.11440 0.02368
0.61092 0.12650 0.00000
0.72822 0.13012 0.02101
0.82220 0.17142 0.03049
0.00000 0.26062 0.15040
0.12981 0.25906 0.13301
0.27209 0.25503 0.10995
0.38388 0.25035 0.09911
0.48746 0.24732 0.07453
0.60594 0.24707 0.02945
0.72327 0.25420 0.00000
0.82228 0.26426 0.02273
0.09195 0.36871 0.16487
0.16744 0.36910 0.15301
0.27784 0.36857 0.13287
0.39236 0.36656 0.11790
0.49950 0.36520 0.10395
0.61327 0.36707 0.08202
0.72796 0.37235 0.03029
0.82788 0.37757 0.01849
0.18304 0.47622 0.19855
0.22272 0.47710 0.18995
0.30070 0.47868 0.17201
0.40331 0.48031 0.15272
0.51877 0.48203 0.13212
0.63615 0.48589 0.12034
0.74296 0.49157 0.09836
0.84060 0.49505 0.02801
0.27603 0.59567 0.25821
0.29967 0.59713 0.25244
0.35414 0.60054 0.23849
0.43836 0.60566 0.21647
0.54462 0.61053 0.18656
0.65603 0.61508 0.14900
0.75715 0.61916 0.13115
0.85623 0.62135 0.08011
0.40215 0.71465 0.34738
0.41651 0.71622 0.34267
0.45230 0.72012 0.33070
0.51241 0.72658 0.31044
0.59168 0.73464 0.28369
0.67620 0.74150 0.24120
0.76663 0.74841 0.18770
0.85909 0.74811 0.13018
0.55900 0.82330 0.48236
0.56815 0.82489 0.47897
0.59062 0.82888 0.47056
0.62730 0.83554 0.45597
0.67546 0.84452 0.43545
0.73239 0.85476 0.40581
0.79897 0.86494 0.34804
0.87733 0.87275 0.28219
0.03236 0.01147 0.35923
0.15389 0.00290 0.31984
0.28439 0.00582 0.23159
0.39063 0.01774 0.17274
0.50013 0.00436 0.14300
0.62010 0.02538 0.11103
0.74164 0.07207 0.07014
0.83213 0.13285 0.06437
0.00000 0.13223 0.31736
0.11691 0.13045 0.28769
0.27727 0.13318 0.24405
0.38390 0.13388 0.19897
0.49246 0.12797 0.16830
0.61673 0.13085 0.13145
0.73854 0.13784 0.08994
0.83304 0.17659 0.07787
0.00000 0.26700 0.29936
0.12722 0.26802 0.28504
0.28041 0.27102 0.26255
0.39106 0.26652 0.23529
0.49335 0.25930 0.20547
0.61129 0.25523 0.17150
0.73371 0.25951 0.13307
0.83535 0.26945 0.09933
0.05592 0.37491 0.29013
0.15396 0.37597 0.28110
0.27770 0.37802 0.26691
0.39754 0.37836 0.25419
0.50609 0.37519 0.23837
0.62033 0.37522 0.21391
0.73750 0.37914 0.17963
0.84213 0.38454 0.13879
0.15901 0.48339 0.30622
0.20738 0.48466 0.30000
0.29682 0.48710 0.28771
0.40686 0.48930 0.27420
0.52483 0.49040 0.26112
0.64304 0.49244 0.24672
0.75133 0.49719 0.22386
0.85124 0.50069 0.17785
0.25923 0.60375 0.34762
0.28595 0.60543 0.34314
0.34735 0.60895 0.33282
0.43996 0.61315 0.31751
0.54951 0.61701 0.29736
0.66118 0.62018 0.27326
0.76452 0.62355 0.25409
0.86435 0.62668 0.21926
0.39937 0.71824 0.41918
0.41429 0.71983 0.41553
0.45160 0.72377 0.40624
0.51403 0.73023 0.39082
0.59589 0.73828 0.37069
0.68422 0.74556 0.34094
0.77559 0.75226 0.30072
0.86997 0.75396 0.25664
0.56062 0.82666 0.53396
0.56989 0.82829 0.53118
0.59278 0.83238 0.52421
0.63048 0.83922 0.51250
0.68078 0.84843 0.49676
0.74014 0.85878 0.47426
0.80872 0.86929 0.42326
0.88689 0.87832 0.35815
0.00256 0.01115 0.47225
0.11403 0.00000 0.44598
0.27044 0.00000 0.38640
0.39356 0.01222 0.31108
0.50031 0.02746 0.26892
0.62392 0.02704 0.24111
0.75335 0.03042 0.20054
0.85298 0.10292 0.16599
0.00000 0.13431 0.44782
0.06092 0.13212 0.42333
0.26845 0.13181 0.38259
0.39068 0.14023 0.32337
0.49562 0.14684 0.29029
0.62132 0.14062 0.25810
0.74884 0.13627 0.22346
0.85370 0.16516 0.18448
0.00000 0.26630 0.42709
0.09396 0.26685 0.41325
0.25887 0.26899 0.38480
0.39108 0.27350 0.35424
0.49933 0.27349 0.32710
0.61724 0.26979 0.29663
0.74407 0.26670 0.26354
0.85335 0.27361 0.22669
0.00256 0.38070 0.41672
0.13752 0.38219 0.40875
0.27553 0.38684 0.39537
0.40624 0.39280 0.38366
0.51515 0.39269 0.36362
0.62923 0.38985 0.33675
0.74717 0.39033 0.30705
0.85661 0.39272 0.26966
0.13898 0.49214 0.41791
0.19675 0.49388 0.41387
0.29773 0.49799 0.40685
0.41542 0.50324 0.39969
0.53442 0.50567 0.38942
0.65103 0.50547 0.37088
0.76066 0.50699 0.34427
0.86430 0.50884 0.30662
0.25317 0.61081 0.44662
0.28357 0.61249 0.44386
0.35044 0.61630 0.43779
0.44593 0.62139 0.42907
0.55666 0.62573 0.41700
0.66914 0.62780 0.39913
0.77391 0.63007 0.37668
0.87503 0.63336 0.34676
0.39746 0.72236 0.50453
0.41330 0.72403 0.50224
0.45199 0.72805 0.49651
0.51626 0.73457 0.48646
0.60081 0.74267 0.47199
0.69333 0.75030 0.45167
0.78768 0.75662 0.42316
0.88394 0.76009 0.38888
0.56356 0.83212 0.59799
0.57290 0.83380 0.59654
0.59604 0.83798 0.59266
0.63455 0.84481 0.58552
0.68679 0.85367 0.57465
0.74924 0.86339 0.55672
0.82010 0.87319 0.51828
0.89701 0.88235 0.46522
0.00000 0.01818 0.60285
0.06736 0.00709 0.58480
0.24947 0.00866 0.52907
0.40582 0.01663 0.47671
0.50828 0.03949 0.39965
0.62084 0.04921 0.36069
0.75602 0.05009 0.32833
0.86504 0.09274 0.29545
0.00000 0.13948 0.58196
0.00369 0.13915 0.56092
0.24677 0.13929 0.51929
0.40012 0.14274 0.47425
0.50545 0.15191 0.41058
0.61998 0.15400 0.37488
0.75218 0.15833 0.34823
0.86454 0.17137 0.31412
0.00000 0.27001 0.55045
0.01128 0.27014 0.53735
0.23642 0.27031 0.50906
0.38409 0.27409 0.47603
0.50505 0.28106 0.44146
0.62159 0.28240 0.40949
0.74962 0.28237 0.38298
0.86279 0.28614 0.35359
0.00000 0.38623 0.53615
0.08342 0.38709 0.52822
0.24857 0.39001 0.51178
0.38969 0.39649 0.49347
0.51596 0.40374 0.47565
0.63495 0.40583 0.45121
0.75405 0.40365 0.42293
0.86458 0.40551 0.39578
0.10611 0.50000 0.53243
0.17790 0.50176 0.52851
0.28951 0.50643 0.52124
0.41509 0.51408 0.51420
0.54096 0.52134 0.50650
0.65749 0.52290 0.48745
0.76741 0.52061 0.46041
0.87215 0.51931 0.42980
0.24963 0.61829 0.54697
0.28243 0.62007 0.54521
0.35330 0.62439 0.54168
0.45227 0.63105 0.53740
0.56470 0.63812 0.53116
0.67742 0.64136 0.51732
0.78247 0.64077 0.49440
0.88443 0.64092 0.46636
0.39690 0.72721 0.58730
0.41421 0.72904 0.58633
0.45600 0.73349 0.58385
0.52257 0.74053 0.57929
0.60767 0.74888 0.57146
0.70178 0.75624 0.55811
0.79744 0.76097 0.53716
0.89501 0.76461 0.50919
0.56411 0.83746 0.66119
0.57362 0.83915 0.66068
0.59695 0.84323 0.65906
0.63504 0.84956 0.65508
0.68783 0.85760 0.64739
0.75519 0.86728 0.63545
0.83151 0.87738 0.61493
0.90710 0.88520 0.57938
0.01826 0.06846 0.69989
0.11764 0.06625 0.68880
0.25232 0.06387 0.65456
0.40573 0.07727 0.60187
0.53023 0.08516 0.55262
0.63008 0.07836 0.48675
0.75664 0.08712 0.44804
0.87105 0.11016 0.41836
0.00000 0.15975 0.69321
0.06547 0.16010 0.68114
0.23777 0.16137 0.64732
0.39616 0.16491 0.60065
0.52322 0.16824 0.55556
0.62815 0.16846 0.49728
0.75608 0.17942 0.46345
0.87046 0.19007 0.43554
0.00000 0.28290 0.67306
0.00000 0.28359 0.66156
0.20036 0.28345 0.63294
0.37199 0.28253 0.60064
0.50777 0.28527 0.56587
0.62760 0.29252 0.52592
0.75465 0.30269 0.49803
0.86855 0.30659 0.47299
0.00000 0.39594 0.65465
0.00000 0.39619 0.64681
0.20051 0.39714 0.62934
0.36349 0.40055 0.60784
0.50661 0.40819 0.58585
0.63899 0.41763 0.56167
0.75992 0.42139 0.53736
0.87079 0.42190 0.51211
0.00000 0.51018 0.65120
0.10558 0.51107 0.64591
0.25076 0.51370 0.63466
0.38945 0.51949 0.62122
0.52656 0.52846 0.60877
0.65699 0.53636 0.59394
0.77237 0.53694 0.57232
0.87801 0.53420 0.54602
0.22315 0.62486 0.64310
0.26050 0.62658 0.64188
0.33783 0.63099 0.63951
0.44277 0.63853 0.63696
0.56263 0.64835 0.63392
0.68379 0.65650 0.62632
0.79046 0.65658 0.60728
0.89144 0.65401 0.58211
0.38822 0.73275 0.67036
0.40633 0.73468 0.67018
0.45031 0.73949 0.66975
0.52081 0.74736 0.66883
0.61081 0.75722 0.66619
0.70964 0.76636 0.65902
0.80750 0.77123 0.64420
0.90235 0.77274 0.62018
0.55994 0.84198 0.72594
0.56973 0.84359 0.72605
0.59405 0.84750 0.72606
0.63477 0.85387 0.72515
0.69091 0.86241 0.72193
0.76078 0.87264 0.71564
0.84041 0.88312 0.70460
0.91731 0.88979 0.67833
0.14358 0.14867 0.76410
0.16671 0.15097 0.75830
0.22402 0.14901 0.73822
0.35729 0.14675 0.69719
0.51015 0.15264 0.66189
0.63457 0.15355 0.61565
0.74773 0.15249 0.56084
0.86395 0.17311 0.53653
0.04018 0.21464 0.77171
0.07695 0.21390 0.76572
0.18236 0.20913 0.74096
0.34696 0.20797 0.70249
0.50394 0.21046 0.66990
0.63221 0.21176 0.62385
0.74850 0.21495 0.57382
0.86518 0.23021 0.55010
0.00000 0.30910 0.77680
0.00000 0.30852 0.76829
0.13976 0.30712 0.74620
0.33092 0.30610 0.71492
0.48471 0.30799 0.68704
0.62710 0.31418 0.64622
0.75168 0.32234 0.60695
0.86686 0.33166 0.58212
0.00000 0.41272 0.76916
0.00000 0.41250 0.76212
0.13154 0.41258 0.74633
0.32527 0.41375 0.72388
0.48526 0.41724 0.69947
0.62877 0.42892 0.67350
0.75914 0.43883 0.64577
0.87210 0.44455 0.62248
0.00000 0.52197 0.75709
0.00000 0.52259 0.75212
0.17882 0.52441 0.74101
0.34402 0.52844 0.72702
0.49577 0.53582 0.71335
0.64108 0.54577 0.69764
0.77374 0.55371 0.67747
0.88278 0.55677 0.65817
0.13888 0.63394 0.74448
0.18954 0.63539 0.74302
0.28148 0.63915 0.74020
0.39640 0.64583 0.73746
0.52687 0.65479 0.73367
0.66274 0.66426 0.72572
0.78747 0.67099 0.71263
0.89499 0.67207 0.69322
0.36841 0.73939 0.75251
0.38689 0.74133 0.75299
0.43135 0.74618 0.75436
0.50253 0.75425 0.75677
0.59582 0.76481 0.75886
0.70261 0.77596 0.75747
0.80986 0.78389 0.74944
0.90902 0.78614 0.73137
0.54470 0.84375 0.79270
0.55462 0.84536 0.79340
0.57954 0.84935 0.79504
0.62291 0.85639 0.79736
0.68506 0.86686 0.79955
0.76031 0.87940 0.79920
0.84161 0.89103 0.79241
0.92381 0.89752 0.77454
0.21287 0.18965 0.81660
0.22470 0.18801 0.81223
0.25403 0.18298 0.79634
0.34604 0.18131 0.76321
0.47774 0.19602 0.73563
0.61390 0.22290 0.71316
0.73476 0.24589 0.67327
0.83643 0.25733 0.63428
0.17643 0.24279 0.82507
0.18846 0.24205 0.82065
0.22541 0.23791 0.80449
0.33258 0.23705 0.77374
0.47181 0.24764 0.74732
0.61287 0.26619 0.72302
0.73498 0.28529 0.68223
0.83844 0.29681 0.64585
0.00000 0.33899 0.84772
0.03648 0.33733 0.84265
0.14962 0.33402 0.82607
0.29931 0.33335 0.79958
0.45725 0.34048 0.77498
0.60691 0.34986 0.74693
0.73656 0.36329 0.70492
0.84467 0.37750 0.67513
0.00000 0.43436 0.85109
0.00000 0.43418 0.84728
0.10706 0.43429 0.83740
0.28664 0.43653 0.82164
0.45141 0.44164 0.80138
0.60536 0.45007 0.77471
0.74248 0.46356 0.74258
0.85701 0.47654 0.71704
0.00000 0.53715 0.84617
0.00000 0.53778 0.84394
0.10246 0.53959 0.83877
0.29758 0.54318 0.83057
0.46219 0.54913 0.81843
0.61854 0.55865 0.80186
0.75733 0.57196 0.78101
0.87350 0.58266 0.76158
0.00000 0.64551 0.84765
0.07023 0.64692 0.84671
0.21075 0.65046 0.84467
0.34957 0.65602 0.84133
0.49690 0.66311 0.83574
0.64403 0.67273 0.82714
0.77612 0.68441 0.81732
0.89084 0.69219 0.80274
0.31697 0.74533 0.84627
0.33778 0.74715 0.84697
0.38721 0.75175 0.84894
0.46486 0.75957 0.85260
0.56471 0.77033 0.85719
0.67920 0.78262 0.85940
0.79795 0.79283 0.85429
0.90925 0.79807 0.83884
0.52307 0.84519 0.86661
0.53401 0.84719 0.86793
0.56117 0.85218 0.87123
0.60677 0.86054 0.87657
0.67022 0.87198 0.88283
0.74895 0.88546 0.88775
0.83659 0.89820 0.88811
0.92632 0.90823 0.88184
