provia conversion luts/provia_to_nostalgic neg_sRGB.cube
# sRGB
# github.com/abpy/FujifilmCameraProfiles
LUT_3D_SIZE 8
DOMAIN_MIN 0.000000 0.000000 0.000000
DOMAIN_MAX 0.903226 0.903226 0.903226
0.01590 0.01602 0.01456
0.18375 0.00794 0.00000
0.32099 0.00000 0.00000
0.40950 0.00000 0.00000
0.50492 0.00144 0.00000
0.61431 0.02292 0.00000
0.72540 0.05728 0.00000
0.81733 0.10637 0.01238
0.00000 0.16490 0.00000
0.15154 0.14624 0.00000
0.28670 0.12420 0.00000
0.39005 0.11439 0.00000
0.49664 0.11638 0.00000
0.61123 0.12489 0.00000
0.72384 0.13733 0.00000
0.81710 0.16373 0.01538
0.00314 0.26287 0.01108
0.13887 0.25796 0.00000
0.26639 0.24915 0.00000
0.37955 0.24147 0.00000
0.49028 0.23929 0.00000
0.60731 0.24063 0.00000
0.71960 0.24606 0.00000
0.81834 0.25965 0.00448
0.12413 0.36686 0.06668
0.18201 0.36653 0.05013
0.27680 0.36546 0.01520
0.38338 0.36307 0.00000
0.49448 0.36093 0.00000
0.61012 0.36131 0.00000
0.72248 0.36552 0.00000
0.82482 0.37317 0.00000
0.19942 0.47272 0.12888
0.23422 0.47353 0.11820
0.30504 0.47533 0.09261
0.40050 0.47767 0.05269
0.51098 0.48036 0.00409
0.62635 0.48423 0.00000
0.73619 0.48927 0.00000
0.83706 0.49336 0.00000
0.28504 0.59263 0.21279
0.30788 0.59397 0.20581
0.36030 0.59723 0.18825
0.44022 0.60233 0.15778
0.54034 0.60834 0.11136
0.64718 0.61430 0.03702
0.75039 0.61893 0.00000
0.85075 0.62007 0.00000
0.40309 0.71168 0.31941
0.41758 0.71322 0.31407
0.45310 0.71703 0.30016
0.51098 0.72326 0.27477
0.58619 0.73120 0.23509
0.67043 0.73932 0.17632
0.76034 0.74568 0.08550
0.85401 0.74599 0.00000
0.56508 0.82487 0.46954
0.57398 0.82644 0.46673
0.59587 0.83034 0.45928
0.63167 0.83683 0.44534
0.67910 0.84560 0.42258
0.73577 0.85510 0.38555
0.80156 0.86260 0.32739
0.86889 0.86552 0.24885
0.00000 0.00430 0.22936
0.17756 0.00165 0.15466
0.30663 0.00336 0.07285
0.39948 0.00485 0.03576
0.50349 0.00788 0.01067
0.61867 0.02656 0.00000
0.73275 0.06351 0.01406
0.82244 0.11603 0.03488
0.00000 0.13804 0.16874
0.14393 0.13724 0.13761
0.28193 0.12964 0.09148
0.38715 0.12043 0.05688
0.49641 0.12085 0.02460
0.61479 0.12765 0.00676
0.72952 0.14189 0.02155
0.82214 0.16995 0.03753
0.00000 0.26381 0.15448
0.13887 0.26286 0.14038
0.26966 0.25757 0.11469
0.38294 0.24934 0.08708
0.49243 0.24499 0.05951
0.61032 0.24489 0.03742
0.72424 0.25086 0.02663
0.82347 0.26325 0.03152
0.10681 0.36984 0.16984
0.17351 0.37022 0.15901
0.27516 0.37029 0.13780
0.38497 0.36856 0.11352
0.49725 0.36609 0.09097
0.61404 0.36593 0.06741
0.72812 0.36986 0.03808
0.83106 0.37669 0.02118
0.18787 0.47660 0.20230
0.22628 0.47759 0.19422
0.30200 0.47975 0.17631
0.40083 0.48244 0.15196
0.51295 0.48517 0.12568
0.62986 0.48862 0.09730
0.74135 0.49312 0.06165
0.84325 0.49719 0.01912
0.28001 0.59611 0.26411
0.30398 0.59751 0.25813
0.35850 0.60085 0.24352
0.44039 0.60596 0.21946
0.54128 0.61183 0.18584
0.64890 0.61746 0.14331
0.75388 0.62188 0.09215
0.85461 0.62338 0.01920
0.40232 0.71278 0.35524
0.41714 0.71435 0.35045
0.45334 0.71819 0.33813
0.51206 0.72446 0.31608
0.58824 0.73249 0.28246
0.67380 0.74081 0.23409
0.76480 0.74744 0.16646
0.85789 0.74867 0.06466
0.56718 0.82666 0.49474
0.57617 0.82826 0.49223
0.59836 0.83224 0.48560
0.63475 0.83884 0.47313
0.68306 0.84762 0.45243
0.74080 0.85707 0.41813
0.80738 0.86474 0.36313
0.87353 0.86819 0.28508
0.00000 0.00000 0.37454
0.15175 0.00000 0.31976
0.28348 0.00072 0.23087
0.39083 0.00904 0.17206
0.50255 0.01467 0.13924
0.62272 0.02673 0.10615
0.73995 0.06572 0.07533
0.83144 0.13259 0.06142
0.00000 0.12948 0.32106
0.12964 0.13135 0.29003
0.27345 0.13463 0.23996
0.38993 0.13294 0.19534
0.50115 0.13091 0.15997
0.62125 0.13208 0.12373
0.73832 0.14695 0.09122
0.83203 0.18149 0.07316
0.00000 0.26851 0.30046
0.14095 0.27040 0.28752
0.28115 0.27130 0.26292
0.39670 0.26459 0.23066
0.50381 0.25717 0.19694
0.61997 0.25336 0.16206
0.73642 0.25794 0.12769
0.83555 0.26902 0.09942
0.09484 0.37850 0.29762
0.17207 0.37984 0.28988
0.28298 0.38175 0.27432
0.39750 0.38107 0.25401
0.50958 0.37756 0.23064
0.62560 0.37563 0.20322
0.74131 0.37751 0.17111
0.84497 0.38177 0.13556
0.17733 0.48566 0.31240
0.22079 0.48704 0.30690
0.30355 0.48993 0.29502
0.40763 0.49310 0.27890
0.52153 0.49529 0.26011
0.63890 0.49737 0.23749
0.75246 0.50021 0.20842
0.85583 0.50339 0.16875
0.27533 0.60303 0.35344
0.30107 0.60450 0.34909
0.35902 0.60789 0.33887
0.44422 0.61270 0.32285
0.54637 0.61788 0.30106
0.65509 0.62264 0.27340
0.76249 0.62648 0.23958
0.86322 0.62842 0.19269
0.40310 0.71596 0.42390
0.41853 0.71753 0.42036
0.45603 0.72136 0.41140
0.51637 0.72747 0.39570
0.59444 0.73524 0.37215
0.68283 0.74345 0.33842
0.77606 0.75025 0.29060
0.86776 0.75313 0.22425
0.57057 0.83054 0.54428
0.57979 0.83216 0.54249
0.60259 0.83617 0.53769
0.64020 0.84274 0.52839
0.69037 0.85130 0.51212
0.75007 0.86048 0.48372
0.81770 0.86838 0.43610
0.88294 0.87296 0.36571
0.00000 0.00000 0.48072
0.12442 0.00000 0.44701
0.27487 0.00000 0.38222
0.39732 0.00900 0.31422
0.50328 0.02437 0.26966
0.62350 0.02868 0.23776
0.74998 0.03376 0.20147
0.85119 0.09950 0.16371
0.00000 0.13364 0.45057
0.09749 0.13360 0.42593
0.26263 0.13542 0.37935
0.38990 0.13867 0.32780
0.50147 0.14090 0.28887
0.62485 0.13869 0.25574
0.75091 0.13786 0.21779
0.85227 0.16511 0.17863
0.00000 0.26772 0.42707
0.10162 0.26885 0.41368
0.25869 0.27099 0.38777
0.39129 0.27174 0.35724
0.50907 0.26910 0.32600
0.62943 0.26461 0.29271
0.75174 0.26171 0.25534
0.85421 0.26902 0.21532
0.05324 0.38409 0.42017
0.15438 0.38588 0.41352
0.27955 0.38973 0.40052
0.40655 0.39280 0.38385
0.52350 0.39219 0.36206
0.63963 0.38941 0.33486
0.75582 0.38753 0.30247
0.86014 0.38810 0.26338
0.16656 0.49527 0.42570
0.21613 0.49713 0.42212
0.30756 0.50120 0.41465
0.41904 0.50595 0.40432
0.53578 0.50878 0.39016
0.65232 0.50954 0.36985
0.76532 0.50985 0.34215
0.86869 0.51037 0.30410
0.27587 0.61063 0.45230
0.30372 0.61220 0.44979
0.36533 0.61583 0.44394
0.45363 0.62088 0.43468
0.55734 0.62583 0.42130
0.66668 0.62962 0.40209
0.77453 0.63238 0.37542
0.87472 0.63338 0.33642
0.40737 0.72111 0.50489
0.42343 0.72275 0.50285
0.46214 0.72671 0.49770
0.52404 0.73287 0.48863
0.60415 0.74026 0.47465
0.69510 0.74766 0.45357
0.79024 0.75381 0.42193
0.88132 0.75737 0.37519
0.57137 0.83472 0.60223
0.58095 0.83636 0.60127
0.60460 0.84036 0.59858
0.64372 0.84673 0.59296
0.69642 0.85484 0.58233
0.75903 0.86366 0.56247
0.82764 0.87186 0.52775
0.89363 0.87754 0.47549
0.00000 0.00650 0.60076
0.09584 0.00698 0.58042
0.26555 0.00931 0.53392
0.41147 0.01879 0.47292
0.51623 0.03756 0.40546
0.62449 0.04842 0.35974
0.75318 0.04905 0.32766
0.86326 0.09035 0.29449
0.00000 0.14489 0.58214
0.03606 0.14484 0.56345
0.24907 0.14558 0.52378
0.39444 0.14756 0.47119
0.50713 0.14985 0.41599
0.62473 0.15075 0.37629
0.75545 0.14939 0.34478
0.86473 0.16714 0.31113
0.00000 0.27348 0.55177
0.00664 0.27358 0.53901
0.22883 0.27405 0.51217
0.37426 0.27524 0.47788
0.50285 0.27676 0.44341
0.63064 0.27684 0.41225
0.75905 0.27466 0.38195
0.86630 0.28063 0.34855
0.00000 0.38802 0.53810
0.08355 0.38913 0.53096
0.24335 0.39219 0.51610
0.38380 0.39730 0.49768
0.51711 0.40191 0.47757
0.64421 0.40323 0.45397
0.76482 0.40184 0.42695
0.87036 0.40248 0.39522
0.12238 0.50316 0.53829
0.18610 0.50494 0.53472
0.29110 0.50925 0.52737
0.41388 0.51554 0.51806
0.54109 0.52137 0.50657
0.66246 0.52408 0.48943
0.77619 0.52374 0.46585
0.87824 0.52219 0.43422
0.26695 0.61818 0.55028
0.29746 0.61992 0.54873
0.36422 0.62410 0.54535
0.45877 0.63046 0.54032
0.56808 0.63738 0.53258
0.68015 0.64216 0.51926
0.78723 0.64337 0.49807
0.88553 0.64195 0.46685
0.40870 0.72732 0.58736
0.42589 0.72916 0.58650
0.46711 0.73361 0.58431
0.53210 0.74053 0.58021
0.61464 0.74853 0.57297
0.70705 0.75566 0.56041
0.80233 0.76056 0.53961
0.89271 0.76282 0.50668
0.57191 0.83889 0.66228
0.58172 0.84055 0.66197
0.60583 0.84456 0.66093
0.64544 0.85086 0.65828
0.69936 0.85884 0.65268
0.76538 0.86779 0.64195
0.83734 0.87630 0.62112
0.90433 0.88174 0.58275
0.00000 0.05037 0.70848
0.10904 0.05247 0.69282
0.25130 0.05908 0.65493
0.39718 0.07311 0.60224
0.52522 0.08272 0.54525
0.63365 0.08285 0.48800
0.75529 0.08581 0.44801
0.86861 0.11787 0.41947
0.00000 0.17077 0.69819
0.00143 0.17040 0.68357
0.22637 0.16978 0.64971
0.38212 0.17116 0.60352
0.51293 0.17089 0.55148
0.63046 0.16902 0.50063
0.75784 0.17021 0.46439
0.87056 0.18955 0.43639
0.00000 0.28948 0.67387
0.00000 0.28865 0.66307
0.19552 0.28722 0.63865
0.35601 0.28676 0.60492
0.49626 0.28764 0.56704
0.62997 0.28948 0.53022
0.76172 0.29173 0.50006
0.87264 0.30242 0.47333
0.00000 0.39768 0.65880
0.00000 0.39802 0.65182
0.19663 0.39949 0.63603
0.35327 0.40324 0.61405
0.49837 0.40909 0.58988
0.63840 0.41461 0.56551
0.76777 0.41788 0.54217
0.87669 0.42255 0.51701
0.00000 0.51165 0.65207
0.10827 0.51289 0.64767
0.24614 0.51620 0.63804
0.38255 0.52213 0.62542
0.52153 0.52990 0.61212
0.65761 0.53662 0.59715
0.78011 0.53914 0.57808
0.88451 0.53902 0.55312
0.23389 0.62576 0.64779
0.26850 0.62752 0.64640
0.34192 0.63195 0.64348
0.44403 0.63938 0.63975
0.56251 0.64867 0.63499
0.68391 0.65652 0.62641
0.79570 0.65884 0.61023
0.89422 0.65629 0.58546
0.39831 0.73431 0.67039
0.41635 0.73632 0.67028
0.45985 0.74128 0.67001
0.52890 0.74925 0.66932
0.61676 0.75884 0.66702
0.71382 0.76735 0.66064
0.81136 0.77226 0.64665
0.90156 0.77273 0.62148
0.56743 0.84285 0.72584
0.57774 0.84461 0.72615
0.60318 0.84891 0.72673
0.64516 0.85581 0.72706
0.70177 0.86465 0.72582
0.76997 0.87427 0.72081
0.84443 0.88288 0.70752
0.91380 0.88759 0.67825
0.12359 0.11945 0.76747
0.17087 0.12071 0.75611
0.25068 0.12319 0.72987
0.36786 0.13087 0.69210
0.50645 0.14351 0.65611
0.63417 0.15095 0.61214
0.75184 0.15514 0.56475
0.86259 0.17703 0.53484
0.00000 0.20884 0.77209
0.09768 0.20737 0.76173
0.21886 0.20434 0.73704
0.35574 0.20497 0.70282
0.49929 0.21032 0.66765
0.63091 0.21340 0.62333
0.75344 0.21586 0.57887
0.86567 0.23227 0.55032
0.00000 0.31222 0.77542
0.00000 0.31070 0.76717
0.18156 0.30818 0.74760
0.33525 0.30761 0.71885
0.48293 0.31053 0.68488
0.62445 0.31472 0.64578
0.75635 0.31930 0.60986
0.87040 0.33127 0.58340
0.00000 0.41231 0.77027
0.00000 0.41213 0.76402
0.16558 0.41240 0.74920
0.32537 0.41473 0.72694
0.47643 0.42012 0.70059
0.62421 0.42746 0.67275
0.76107 0.43476 0.64683
0.87633 0.44360 0.62339
0.00000 0.52191 0.75903
0.00000 0.52266 0.75474
0.18588 0.52483 0.74492
0.33979 0.52930 0.73095
0.48926 0.53634 0.71522
0.63667 0.54470 0.69850
0.77235 0.55193 0.68048
0.88574 0.55643 0.65986
0.15735 0.63349 0.74706
0.20292 0.63495 0.74557
0.28973 0.63875 0.74234
0.40213 0.64541 0.73800
0.52992 0.65450 0.73285
0.66329 0.66396 0.72560
0.78894 0.67037 0.71374
0.89674 0.67128 0.69436
0.36995 0.74033 0.75565
0.38880 0.74233 0.75595
0.43413 0.74729 0.75679
0.50629 0.75546 0.75820
0.59945 0.76589 0.75929
0.70436 0.77645 0.75765
0.80989 0.78388 0.74948
0.90641 0.78531 0.73109
0.55179 0.84552 0.79365
0.56248 0.84740 0.79444
0.58901 0.85203 0.79633
0.63344 0.85963 0.79914
0.69435 0.86970 0.80177
0.76737 0.88091 0.80165
0.84569 0.89078 0.79430
0.91995 0.89584 0.77495
0.20221 0.19065 0.82028
0.22197 0.19038 0.81302
0.26423 0.18837 0.79550
0.34558 0.18649 0.76764
0.46846 0.19652 0.73923
0.60570 0.21786 0.71073
0.73247 0.23723 0.67083
0.84033 0.25760 0.63674
0.14999 0.25315 0.82862
0.17728 0.25123 0.82185
0.23708 0.24707 0.80546
0.33615 0.24590 0.78050
0.46631 0.25569 0.75395
0.60620 0.27154 0.72323
0.73404 0.28450 0.68210
0.84390 0.29965 0.64917
0.03623 0.34054 0.84410
0.10518 0.33949 0.83859
0.20068 0.33878 0.82530
0.31685 0.34265 0.80499
0.45236 0.35153 0.77989
0.59702 0.36140 0.74804
0.73260 0.37031 0.71091
0.85001 0.38243 0.68113
0.00000 0.43330 0.84697
0.02922 0.43379 0.84306
0.16991 0.43598 0.83377
0.29722 0.44136 0.81942
0.43734 0.44898 0.80071
0.58763 0.45785 0.77739
0.73245 0.46845 0.75118
0.85767 0.48054 0.72503
0.00000 0.53775 0.84492
0.00000 0.53864 0.84237
0.15222 0.54103 0.83644
0.29684 0.54544 0.82775
0.44395 0.55232 0.81762
0.59786 0.56175 0.80561
0.74493 0.57258 0.78969
0.87022 0.58269 0.76906
0.04236 0.64355 0.84416
0.11893 0.64480 0.84316
0.22320 0.64801 0.84106
0.34444 0.65360 0.83855
0.48094 0.66161 0.83617
0.62610 0.67154 0.83254
0.76567 0.68177 0.82438
0.88626 0.68872 0.80725
0.30980 0.74376 0.84758
0.32975 0.74546 0.84817
0.37781 0.74979 0.84991
0.45494 0.75720 0.85334
0.55613 0.76739 0.85783
0.67272 0.77907 0.86051
0.79284 0.78979 0.85675
0.90217 0.79640 0.84349
0.51513 0.84317 0.86560
0.52632 0.84514 0.86685
0.55427 0.84999 0.87000
0.60150 0.85804 0.87522
0.66732 0.86912 0.88169
0.74842 0.88266 0.88724
0.83803 0.89671 0.88805
0.92637 0.90823 0.88185
