provia conversion luts/provia_to_nostalgic neg_sRGB.cube
# sRGB
# github.com/abpy/FujifilmCameraProfiles
LUT_3D_SIZE 32
0.01590 0.01602 0.01456
0.05049 0.01450 0.00812
0.08647 0.01295 0.00233
0.13559 0.01110 0.00000
0.18375 0.00794 0.00000
0.22747 0.00397 0.00000
0.26404 0.00177 0.00000
0.29447 0.00056 0.00000
0.32099 0.00000 0.00000
0.34462 0.00000 0.00000
0.36644 0.00000 0.00000
0.38779 0.00000 0.00000
0.40950 0.00000 0.00000
0.43184 0.00000 0.00000
0.45508 0.00000 0.00000
0.47946 0.00000 0.00000
0.50492 0.00144 0.00000
0.53128 0.00539 0.00000
0.55841 0.01042 0.00000
0.58616 0.01634 0.00000
0.61431 0.02292 0.00000
0.64267 0.03014 0.00000
0.67094 0.03833 0.00000
0.69870 0.04748 0.00000
0.72540 0.05728 0.00000
0.75047 0.06831 0.00000
0.77386 0.08069 0.00000
0.79600 0.09350 0.00455
0.81733 0.10637 0.01238
0.83796 0.11899 0.02060
0.85765 0.13130 0.02961
0.87632 0.14360 0.03948
0.00456 0.05156 0.00811
0.04287 0.05007 0.00297
0.08762 0.04877 0.00012
0.13518 0.04825 0.00000
0.18150 0.04665 0.00000
0.22237 0.04396 0.00000
0.25692 0.04059 0.00000
0.28700 0.03572 0.00000
0.31379 0.03143 0.00000
0.33782 0.02828 0.00000
0.36031 0.02563 0.00000
0.38259 0.02390 0.00000
0.40517 0.02319 0.00000
0.42825 0.02305 0.00000
0.45219 0.02370 0.00000
0.47720 0.02548 0.00000
0.50316 0.02837 0.00000
0.52991 0.03234 0.00000
0.55736 0.03739 0.00000
0.58536 0.04316 0.00000
0.61373 0.04901 0.00000
0.64226 0.05491 0.00000
0.67066 0.06110 0.00000
0.69850 0.06786 0.00000
0.72520 0.07548 0.00000
0.75023 0.08452 0.00000
0.77362 0.09504 0.00000
0.79582 0.10619 0.00560
0.81727 0.11766 0.01326
0.83803 0.12908 0.02144
0.85785 0.14039 0.03044
0.87666 0.15182 0.04037
0.00000 0.09268 0.00201
0.03110 0.09088 0.00000
0.08159 0.08849 0.00000
0.12971 0.08545 0.00000
0.17489 0.08167 0.00000
0.21420 0.07755 0.00000
0.24853 0.07247 0.00000
0.27904 0.06710 0.00000
0.30621 0.06289 0.00000
0.33077 0.05925 0.00000
0.35413 0.05613 0.00000
0.37740 0.05420 0.00000
0.40080 0.05314 0.00000
0.42461 0.05264 0.00000
0.44928 0.05310 0.00000
0.47491 0.05460 0.00000
0.50135 0.05693 0.00000
0.52849 0.06005 0.00000
0.55626 0.06381 0.00000
0.58452 0.06792 0.00000
0.61310 0.07215 0.00000
0.64180 0.07654 0.00000
0.67034 0.08129 0.00000
0.69824 0.08661 0.00000
0.72494 0.09279 0.00000
0.74993 0.10043 0.00000
0.77332 0.10950 0.00000
0.79560 0.11927 0.00659
0.81721 0.12952 0.01408
0.83813 0.13984 0.02223
0.85811 0.15019 0.03125
0.87707 0.16079 0.04124
0.00000 0.13297 0.00000
0.01917 0.12953 0.00000
0.07250 0.12578 0.00000
0.12050 0.12100 0.00000
0.16401 0.11553 0.00000
0.20288 0.10954 0.00000
0.23776 0.10335 0.00000
0.26890 0.09798 0.00000
0.29670 0.09362 0.00000
0.32222 0.08974 0.00000
0.34682 0.08680 0.00000
0.37118 0.08501 0.00000
0.39549 0.08383 0.00000
0.42022 0.08329 0.00000
0.44577 0.08367 0.00000
0.47211 0.08479 0.00000
0.49909 0.08651 0.00000
0.52668 0.08883 0.00000
0.55483 0.09163 0.00000
0.58341 0.09465 0.00000
0.61225 0.09776 0.00000
0.64118 0.10105 0.00000
0.66988 0.10466 0.00000
0.69785 0.10879 0.00000
0.72451 0.11374 0.00000
0.74945 0.12011 0.00000
0.77287 0.12775 0.00016
0.79530 0.13610 0.00761
0.81714 0.14505 0.01491
0.83829 0.15413 0.02305
0.85850 0.16339 0.03212
0.87771 0.17299 0.04224
0.00000 0.16490 0.00000
0.00816 0.16112 0.00000
0.06126 0.15716 0.00000
0.10893 0.15209 0.00000
0.15154 0.14624 0.00000
0.19052 0.14005 0.00000
0.22597 0.13409 0.00000
0.25783 0.12882 0.00000
0.28670 0.12420 0.00000
0.31356 0.12031 0.00000
0.33943 0.11752 0.00000
0.36480 0.11566 0.00000
0.39005 0.11439 0.00000
0.41576 0.11392 0.00000
0.44217 0.11422 0.00000
0.46915 0.11506 0.00000
0.49664 0.11638 0.00000
0.52468 0.11819 0.00000
0.55321 0.12033 0.00000
0.58210 0.12257 0.00000
0.61123 0.12489 0.00000
0.64041 0.12737 0.00000
0.66925 0.13012 0.00000
0.69725 0.13333 0.00000
0.72384 0.13733 0.00000
0.74875 0.14264 0.00000
0.77227 0.14898 0.00113
0.79492 0.15605 0.00824
0.81710 0.16373 0.01538
0.83855 0.17158 0.02359
0.85907 0.17972 0.03279
0.87861 0.18827 0.04315
0.00000 0.19002 0.00000
0.00000 0.18701 0.00000
0.05032 0.18382 0.00000
0.09860 0.17966 0.00000
0.14094 0.17479 0.00000
0.17978 0.16958 0.00000
0.21537 0.16440 0.00000
0.24789 0.15953 0.00000
0.27790 0.15516 0.00000
0.30603 0.15155 0.00000
0.33297 0.14883 0.00000
0.35924 0.14684 0.00000
0.38538 0.14555 0.00000
0.41193 0.14503 0.00000
0.43898 0.14510 0.00000
0.46642 0.14563 0.00000
0.49431 0.14662 0.00000
0.52270 0.14802 0.00000
0.55154 0.14960 0.00000
0.58072 0.15124 0.00000
0.61012 0.15296 0.00000
0.63951 0.15482 0.00000
0.66845 0.15693 0.00000
0.69641 0.15946 0.00000
0.72291 0.16278 0.00000
0.74784 0.16720 0.00000
0.77154 0.17245 0.00116
0.79455 0.17845 0.00790
0.81713 0.18496 0.01502
0.83895 0.19169 0.02339
0.85988 0.19876 0.03284
0.87985 0.20629 0.04364
0.00000 0.21351 0.00000
0.00136 0.21139 0.00000
0.04796 0.20913 0.00000
0.09380 0.20615 0.00000
0.13455 0.20257 0.00000
0.17241 0.19859 0.00000
0.20773 0.19443 0.00000
0.24064 0.19034 0.00000
0.27141 0.18657 0.00000
0.30041 0.18335 0.00000
0.32814 0.18074 0.00000
0.35519 0.17874 0.00000
0.38208 0.17740 0.00000
0.40919 0.17665 0.00000
0.43657 0.17640 0.00000
0.46425 0.17663 0.00000
0.49236 0.17729 0.00000
0.52098 0.17823 0.00000
0.55002 0.17930 0.00000
0.57942 0.18045 0.00000
0.60903 0.18170 0.00000
0.63853 0.18308 0.00000
0.66746 0.18471 0.00000
0.69533 0.18677 0.00000
0.72177 0.18958 0.00000
0.74681 0.19327 0.00000
0.77080 0.19767 0.00000
0.79428 0.20278 0.00603
0.81730 0.20826 0.01331
0.83954 0.21404 0.02191
0.86098 0.22013 0.03182
0.88143 0.22674 0.04330
0.00000 0.23776 0.00207
0.01312 0.23636 0.00049
0.05569 0.23485 0.00000
0.09641 0.23281 0.00000
0.13418 0.23028 0.00000
0.17004 0.22737 0.00000
0.20424 0.22424 0.00000
0.23680 0.22107 0.00000
0.26763 0.21805 0.00000
0.29698 0.21529 0.00000
0.32525 0.21290 0.00000
0.35288 0.21096 0.00000
0.38024 0.20950 0.00000
0.40757 0.20853 0.00000
0.43503 0.20803 0.00000
0.46277 0.20797 0.00000
0.49097 0.20826 0.00000
0.51969 0.20874 0.00000
0.54885 0.20935 0.00000
0.57836 0.21010 0.00000
0.60805 0.21096 0.00000
0.63754 0.21197 0.00000
0.66637 0.21326 0.00000
0.69412 0.21500 0.00000
0.72057 0.21741 0.00000
0.74584 0.22052 0.00000
0.77026 0.22430 0.00000
0.79424 0.22862 0.00232
0.81768 0.23327 0.00983
0.84036 0.23823 0.01877
0.86236 0.24347 0.02929
0.88335 0.24927 0.04170
0.00314 0.26287 0.01108
0.03915 0.26196 0.00880
0.07228 0.26097 0.00641
0.10553 0.25962 0.00332
0.13887 0.25796 0.00000
0.17196 0.25601 0.00000
0.20445 0.25384 0.00000
0.23599 0.25152 0.00000
0.26639 0.24915 0.00000
0.29574 0.24685 0.00000
0.32424 0.24474 0.00000
0.35209 0.24293 0.00000
0.37955 0.24147 0.00000
0.40688 0.24040 0.00000
0.43430 0.23972 0.00000
0.46204 0.23939 0.00000
0.49028 0.23929 0.00000
0.51902 0.23938 0.00000
0.54817 0.23965 0.00000
0.57768 0.24008 0.00000
0.60731 0.24063 0.00000
0.63668 0.24138 0.00000
0.66536 0.24245 0.00000
0.69303 0.24397 0.00000
0.71960 0.24606 0.00000
0.74520 0.24874 0.00000
0.77011 0.25199 0.00000
0.79455 0.25565 0.00000
0.81834 0.25965 0.00448
0.84147 0.26390 0.01379
0.86399 0.26843 0.02498
0.88551 0.27352 0.03840
0.03855 0.28866 0.02273
0.06689 0.28812 0.01995
0.09101 0.28753 0.01698
0.11834 0.28672 0.01305
0.14757 0.28567 0.00833
0.17768 0.28440 0.00306
0.20796 0.28290 0.00000
0.23792 0.28123 0.00000
0.26738 0.27945 0.00000
0.29630 0.27764 0.00000
0.32456 0.27592 0.00000
0.35224 0.27436 0.00000
0.37963 0.27302 0.00000
0.40694 0.27193 0.00000
0.43437 0.27111 0.00000
0.46213 0.27054 0.00000
0.49033 0.27017 0.00000
0.51898 0.27002 0.00000
0.54805 0.27007 0.00000
0.57747 0.27026 0.00000
0.60697 0.27060 0.00000
0.63616 0.27120 0.00000
0.66469 0.27214 0.00000
0.69237 0.27350 0.00000
0.71914 0.27535 0.00000
0.74512 0.27769 0.00000
0.77048 0.28048 0.00000
0.79525 0.28363 0.00000
0.81934 0.28707 0.00000
0.84288 0.29071 0.00708
0.86583 0.29465 0.01883
0.88781 0.29911 0.03326
0.07455 0.31476 0.03699
0.09339 0.31443 0.03363
0.11158 0.31408 0.02999
0.13378 0.31358 0.02513
0.15878 0.31293 0.01927
0.18551 0.31214 0.01278
0.21321 0.31120 0.00607
0.24138 0.31011 0.00000
0.26963 0.30891 0.00000
0.29771 0.30763 0.00000
0.32548 0.30632 0.00000
0.35300 0.30504 0.00000
0.38038 0.30385 0.00000
0.40769 0.30281 0.00000
0.43513 0.30195 0.00000
0.46288 0.30128 0.00000
0.49103 0.30080 0.00000
0.51960 0.30052 0.00000
0.54860 0.30042 0.00000
0.57791 0.30048 0.00000
0.60723 0.30076 0.00000
0.63623 0.30133 0.00000
0.66467 0.30220 0.00000
0.69242 0.30344 0.00000
0.71942 0.30510 0.00000
0.74573 0.30717 0.00000
0.77140 0.30960 0.00000
0.79640 0.31231 0.00000
0.82074 0.31524 0.00000
0.84459 0.31836 0.00000
0.86782 0.32179 0.01105
0.89016 0.32567 0.02639
0.10164 0.34081 0.05175
0.11575 0.34065 0.04855
0.13019 0.34047 0.04492
0.14864 0.34022 0.03973
0.17025 0.33989 0.03313
0.19412 0.33948 0.02569
0.21954 0.33896 0.01779
0.24591 0.33833 0.00979
0.27281 0.33758 0.00220
0.29994 0.33672 0.00000
0.32717 0.33578 0.00000
0.35445 0.33480 0.00000
0.38167 0.33384 0.00000
0.40892 0.33296 0.00000
0.43640 0.33218 0.00000
0.46422 0.33153 0.00000
0.49240 0.33105 0.00000
0.52098 0.33074 0.00000
0.54994 0.33061 0.00000
0.57911 0.33069 0.00000
0.60823 0.33103 0.00000
0.63710 0.33162 0.00000
0.66552 0.33247 0.00000
0.69335 0.33365 0.00000
0.72054 0.33518 0.00000
0.74706 0.33704 0.00000
0.77289 0.33916 0.00000
0.79805 0.34149 0.00000
0.82258 0.34399 0.00000
0.84659 0.34666 0.00000
0.86991 0.34958 0.00201
0.89249 0.35290 0.01808
0.12413 0.36686 0.06668
0.13544 0.36681 0.06387
0.14738 0.36674 0.06068
0.16309 0.36665 0.05614
0.18201 0.36653 0.05013
0.20343 0.36637 0.04257
0.22670 0.36615 0.03361
0.25129 0.36585 0.02435
0.27680 0.36546 0.01520
0.30294 0.36496 0.00643
0.32949 0.36438 0.00000
0.35632 0.36374 0.00000
0.38338 0.36307 0.00000
0.41070 0.36241 0.00000
0.43832 0.36181 0.00000
0.46623 0.36131 0.00000
0.49448 0.36093 0.00000
0.52311 0.36071 0.00000
0.55203 0.36069 0.00000
0.58110 0.36088 0.00000
0.61012 0.36131 0.00000
0.63892 0.36196 0.00000
0.66733 0.36286 0.00000
0.69522 0.36406 0.00000
0.72248 0.36552 0.00000
0.74907 0.36720 0.00000
0.77498 0.36906 0.00000
0.80021 0.37106 0.00000
0.82482 0.37317 0.00000
0.84880 0.37540 0.00000
0.87212 0.37782 0.00000
0.89483 0.38056 0.00858
0.14392 0.39286 0.08161
0.15334 0.39287 0.07910
0.16350 0.39289 0.07625
0.17713 0.39291 0.07219
0.19388 0.39294 0.06681
0.21321 0.39296 0.06007
0.23460 0.39295 0.05191
0.25758 0.39291 0.04222
0.28177 0.39281 0.03132
0.30689 0.39263 0.02078
0.33271 0.39238 0.01105
0.35910 0.39206 0.00213
0.38599 0.39170 0.00000
0.41330 0.39134 0.00000
0.44094 0.39100 0.00000
0.46892 0.39073 0.00000
0.49730 0.39057 0.00000
0.52601 0.39055 0.00000
0.55494 0.39070 0.00000
0.58397 0.39106 0.00000
0.61295 0.39162 0.00000
0.64171 0.39240 0.00000
0.67008 0.39341 0.00000
0.69793 0.39465 0.00000
0.72516 0.39605 0.00000
0.75171 0.39758 0.00000
0.77759 0.39923 0.00000
0.80280 0.40093 0.00000
0.82734 0.40268 0.00000
0.85121 0.40447 0.00000
0.87452 0.40640 0.00000
0.89726 0.40852 0.00000
0.16262 0.41895 0.09639
0.17068 0.41901 0.09414
0.17949 0.41908 0.09158
0.19148 0.41919 0.08793
0.20644 0.41932 0.08308
0.22399 0.41947 0.07701
0.24370 0.41964 0.06970
0.26517 0.41980 0.06114
0.28807 0.41994 0.05133
0.31214 0.42004 0.04016
0.33716 0.42009 0.02835
0.36300 0.42009 0.01734
0.38954 0.42007 0.00738
0.41667 0.42004 0.00000
0.44433 0.42002 0.00000
0.47247 0.42006 0.00000
0.50099 0.42017 0.00000
0.52977 0.42041 0.00000
0.55873 0.42080 0.00000
0.58776 0.42136 0.00000
0.61670 0.42211 0.00000
0.64538 0.42305 0.00000
0.67364 0.42417 0.00000
0.70135 0.42543 0.00000
0.72843 0.42679 0.00000
0.75486 0.42821 0.00000
0.78063 0.42966 0.00000
0.80574 0.43109 0.00000
0.83018 0.43249 0.00000
0.85398 0.43388 0.00000
0.87728 0.43533 0.00000
0.89992 0.43681 0.00000
0.18098 0.44543 0.11198
0.18799 0.44553 0.10997
0.19572 0.44565 0.10768
0.20637 0.44582 0.10440
0.21983 0.44604 0.10004
0.23582 0.44631 0.09457
0.25401 0.44661 0.08797
0.27407 0.44695 0.08023
0.29574 0.44729 0.07137
0.31876 0.44763 0.06143
0.34297 0.44796 0.05048
0.36819 0.44828 0.03851
0.39432 0.44859 0.02663
0.42124 0.44890 0.01575
0.44886 0.44922 0.00581
0.47701 0.44958 0.00000
0.50554 0.45001 0.00000
0.53437 0.45054 0.00000
0.56338 0.45119 0.00000
0.59240 0.45198 0.00000
0.62124 0.45293 0.00000
0.64975 0.45402 0.00000
0.67780 0.45523 0.00000
0.70530 0.45651 0.00000
0.73217 0.45783 0.00000
0.75841 0.45915 0.00000
0.78403 0.46041 0.00000
0.80903 0.46159 0.00000
0.83342 0.46269 0.00000
0.85725 0.46373 0.00000
0.88049 0.46470 0.00000
0.90286 0.46547 0.00000
0.19942 0.47272 0.12888
0.20560 0.47286 0.12709
0.21248 0.47302 0.12504
0.22202 0.47324 0.12210
0.23422 0.47353 0.11820
0.24887 0.47389 0.11330
0.26572 0.47432 0.10738
0.28453 0.47480 0.10047
0.30504 0.47533 0.09261
0.32706 0.47589 0.08389
0.35039 0.47647 0.07434
0.37491 0.47707 0.06397
0.40050 0.47767 0.05269
0.42704 0.47830 0.04025
0.45440 0.47895 0.02736
0.48243 0.47963 0.01534
0.51098 0.48036 0.00409
0.53988 0.48116 0.00000
0.56886 0.48207 0.00000
0.59772 0.48310 0.00000
0.62635 0.48423 0.00000
0.65461 0.48544 0.00000
0.68239 0.48671 0.00000
0.70959 0.48800 0.00000
0.73619 0.48927 0.00000
0.76222 0.49046 0.00000
0.78770 0.49155 0.00000
0.81264 0.49251 0.00000
0.83706 0.49336 0.00000
0.86092 0.49406 0.00000
0.88403 0.49454 0.00000
0.90609 0.49465 0.00000
0.21866 0.50114 0.14760
0.22416 0.50131 0.14601
0.23031 0.50149 0.14419
0.23892 0.50176 0.14159
0.25001 0.50212 0.13811
0.26345 0.50256 0.13374
0.27908 0.50309 0.12844
0.29667 0.50370 0.12224
0.31603 0.50438 0.11515
0.33699 0.50512 0.10721
0.35939 0.50591 0.09846
0.38313 0.50675 0.08895
0.40808 0.50763 0.07867
0.43413 0.50854 0.06754
0.46115 0.50947 0.05532
0.48898 0.51043 0.04151
0.51739 0.51143 0.02651
0.54607 0.51249 0.01229
0.57480 0.51364 0.00000
0.60343 0.51485 0.00000
0.63180 0.51610 0.00000
0.65974 0.51739 0.00000
0.68713 0.51869 0.00000
0.71396 0.51997 0.00000
0.74026 0.52116 0.00000
0.76608 0.52223 0.00000
0.79146 0.52316 0.00000
0.81641 0.52392 0.00000
0.84090 0.52450 0.00000
0.86477 0.52484 0.00000
0.88779 0.52486 0.00000
0.90953 0.52440 0.00000
0.23912 0.53078 0.16776
0.24403 0.53097 0.16634
0.24955 0.53118 0.16471
0.25731 0.53149 0.16238
0.26739 0.53190 0.15926
0.27971 0.53241 0.15533
0.29416 0.53303 0.15056
0.31058 0.53374 0.14495
0.32881 0.53456 0.13850
0.34871 0.53545 0.13125
0.37016 0.53643 0.12321
0.39304 0.53748 0.11442
0.41724 0.53858 0.10486
0.44263 0.53972 0.09443
0.46908 0.54089 0.08300
0.49639 0.54209 0.07027
0.52432 0.54332 0.05582
0.55262 0.54458 0.03876
0.58108 0.54587 0.02046
0.60942 0.54717 0.00326
0.63736 0.54851 0.00000
0.66477 0.54986 0.00000
0.69166 0.55117 0.00000
0.71809 0.55241 0.00000
0.74410 0.55351 0.00000
0.76976 0.55445 0.00000
0.79510 0.55521 0.00000
0.82011 0.55576 0.00000
0.84467 0.55606 0.00000
0.86860 0.55605 0.00000
0.89153 0.55565 0.00000
0.91291 0.55479 0.00000
0.26118 0.56143 0.18952
0.26555 0.56164 0.18825
0.27050 0.56187 0.18679
0.27749 0.56221 0.18469
0.28662 0.56267 0.18189
0.29788 0.56324 0.17834
0.31119 0.56393 0.17402
0.32644 0.56474 0.16891
0.34352 0.56567 0.16300
0.36231 0.56669 0.15629
0.38269 0.56782 0.14878
0.40457 0.56902 0.14046
0.42784 0.57030 0.13129
0.45239 0.57163 0.12117
0.47806 0.57298 0.10996
0.50467 0.57437 0.09756
0.53197 0.57576 0.08370
0.55972 0.57714 0.06795
0.58759 0.57853 0.04959
0.61525 0.57994 0.02807
0.64250 0.58135 0.00755
0.66931 0.58272 0.00000
0.69572 0.58402 0.00000
0.72176 0.58518 0.00000
0.74752 0.58618 0.00000
0.77305 0.58699 0.00000
0.79837 0.58759 0.00000
0.82343 0.58792 0.00000
0.84807 0.58796 0.00000
0.87202 0.58764 0.00000
0.89480 0.58690 0.00000
0.91581 0.58572 0.00000
0.28504 0.59263 0.21279
0.28894 0.59285 0.21163
0.29335 0.59311 0.21030
0.29963 0.59348 0.20838
0.30788 0.59397 0.20581
0.31812 0.59459 0.20254
0.33031 0.59534 0.19855
0.34440 0.59622 0.19379
0.36030 0.59723 0.18825
0.37793 0.59835 0.18191
0.39719 0.59959 0.17475
0.41798 0.60092 0.16672
0.44022 0.60233 0.15778
0.46375 0.60380 0.14789
0.48842 0.60531 0.13695
0.51403 0.60683 0.12483
0.54034 0.60834 0.11136
0.56706 0.60985 0.09639
0.59391 0.61136 0.07963
0.62066 0.61285 0.06040
0.64718 0.61430 0.03702
0.67337 0.61566 0.01236
0.69925 0.61691 0.00000
0.72490 0.61801 0.00000
0.75039 0.61893 0.00000
0.77577 0.61964 0.00000
0.80104 0.62010 0.00000
0.82611 0.62026 0.00000
0.85075 0.62007 0.00000
0.87462 0.61948 0.00000
0.89719 0.61848 0.00000
0.91788 0.61711 0.00000
0.31106 0.62376 0.23735
0.31453 0.62400 0.23627
0.31847 0.62427 0.23504
0.32409 0.62466 0.23325
0.33151 0.62518 0.23086
0.34079 0.62584 0.22780
0.35192 0.62663 0.22404
0.36486 0.62757 0.21955
0.37957 0.62864 0.21429
0.39598 0.62983 0.20824
0.41401 0.63115 0.20136
0.43357 0.63257 0.19360
0.45454 0.63409 0.18494
0.47680 0.63567 0.17530
0.50017 0.63729 0.16459
0.52446 0.63893 0.15273
0.54944 0.64057 0.13967
0.57487 0.64220 0.12530
0.60051 0.64381 0.10941
0.62619 0.64537 0.09170
0.65176 0.64685 0.07152
0.67717 0.64824 0.04731
0.70244 0.64950 0.01828
0.72761 0.65059 0.00000
0.75275 0.65149 0.00000
0.77790 0.65215 0.00000
0.80301 0.65252 0.00000
0.82797 0.65255 0.00000
0.85250 0.65218 0.00000
0.87621 0.65139 0.00000
0.89860 0.65019 0.00000
0.91909 0.64870 0.00000
0.33947 0.65422 0.26320
0.34254 0.65446 0.26219
0.34605 0.65475 0.26103
0.35107 0.65515 0.25935
0.35773 0.65569 0.25709
0.36609 0.65637 0.25420
0.37617 0.65720 0.25065
0.38797 0.65817 0.24638
0.40146 0.65928 0.24137
0.41657 0.66053 0.23557
0.43326 0.66191 0.22895
0.45142 0.66340 0.22146
0.47095 0.66499 0.21307
0.49173 0.66667 0.20372
0.51360 0.66841 0.19337
0.53636 0.67018 0.18196
0.55981 0.67195 0.16936
0.58374 0.67370 0.15549
0.60797 0.67541 0.14028
0.63235 0.67707 0.12352
0.65678 0.67865 0.10485
0.68121 0.68013 0.08356
0.70567 0.68147 0.05809
0.73019 0.68264 0.02525
0.75483 0.68360 0.00000
0.77958 0.68428 0.00000
0.80439 0.68463 0.00000
0.82909 0.68456 0.00000
0.85339 0.68405 0.00000
0.87688 0.68309 0.00000
0.89903 0.68176 0.00000
0.91922 0.68022 0.00000
0.37020 0.68355 0.29047
0.37292 0.68381 0.28952
0.37604 0.68409 0.28843
0.38051 0.68451 0.28685
0.38647 0.68506 0.28472
0.39397 0.68576 0.28200
0.40305 0.68661 0.27863
0.41373 0.68761 0.27459
0.42597 0.68876 0.26983
0.43976 0.69005 0.26432
0.45503 0.69149 0.25801
0.47171 0.69305 0.25086
0.48969 0.69473 0.24283
0.50886 0.69650 0.23389
0.52907 0.69835 0.22396
0.55015 0.70024 0.21299
0.57193 0.70215 0.20092
0.59421 0.70406 0.18765
0.61684 0.70593 0.17306
0.63971 0.70774 0.15700
0.66278 0.70948 0.13928
0.68603 0.71112 0.11952
0.70948 0.71263 0.09698
0.73316 0.71396 0.07010
0.75710 0.71505 0.03446
0.78128 0.71581 0.00000
0.80560 0.71616 0.00000
0.82985 0.71603 0.00000
0.85373 0.71540 0.00000
0.87678 0.71431 0.00000
0.89841 0.71288 0.00000
0.91792 0.71136 0.00000
0.40309 0.71168 0.31941
0.40551 0.71194 0.31853
0.40828 0.71223 0.31752
0.41227 0.71266 0.31605
0.41758 0.71322 0.31407
0.42429 0.71394 0.31153
0.43244 0.71481 0.30839
0.44204 0.71584 0.30461
0.45310 0.71703 0.30016
0.46557 0.71837 0.29499
0.47943 0.71986 0.28906
0.49459 0.72150 0.28234
0.51098 0.72326 0.27477
0.52847 0.72513 0.26632
0.54694 0.72710 0.25694
0.56624 0.72913 0.24656
0.58619 0.73120 0.23509
0.60667 0.73328 0.22243
0.62758 0.73534 0.20851
0.64884 0.73736 0.19320
0.67043 0.73932 0.17632
0.69234 0.74118 0.15764
0.71461 0.74290 0.13680
0.73728 0.74443 0.11320
0.76034 0.74568 0.08550
0.78373 0.74653 0.05005
0.80732 0.74690 0.00424
0.83086 0.74672 0.00000
0.85401 0.74599 0.00000
0.87624 0.74479 0.00000
0.89687 0.74333 0.00000
0.91526 0.74186 0.00000
0.43826 0.73895 0.35053
0.44041 0.73921 0.34973
0.44288 0.73952 0.34881
0.44643 0.73995 0.34747
0.45117 0.74053 0.34567
0.45717 0.74127 0.34335
0.46446 0.74216 0.34049
0.47307 0.74323 0.33704
0.48300 0.74445 0.33297
0.49421 0.74584 0.32823
0.50668 0.74739 0.32278
0.52034 0.74909 0.31658
0.53511 0.75093 0.30960
0.55089 0.75289 0.30177
0.56757 0.75497 0.29306
0.58502 0.75713 0.28339
0.60315 0.75936 0.27271
0.62184 0.76163 0.26091
0.64100 0.76389 0.24786
0.66058 0.76613 0.23344
0.68059 0.76831 0.21753
0.70105 0.77039 0.20000
0.72201 0.77232 0.18068
0.74348 0.77402 0.15927
0.76546 0.77541 0.13530
0.78784 0.77636 0.10772
0.81042 0.77676 0.07402
0.83291 0.77655 0.02678
0.85490 0.77577 0.00000
0.87580 0.77455 0.00000
0.89493 0.77313 0.00000
0.91172 0.77178 0.00000
0.47637 0.76616 0.38481
0.47829 0.76642 0.38410
0.48048 0.76673 0.38329
0.48364 0.76718 0.38212
0.48787 0.76777 0.38053
0.49321 0.76852 0.37849
0.49972 0.76944 0.37596
0.50740 0.77052 0.37291
0.51625 0.77178 0.36930
0.52626 0.77320 0.36509
0.53739 0.77478 0.36024
0.54958 0.77653 0.35471
0.56277 0.77842 0.34847
0.57686 0.78045 0.34146
0.59179 0.78261 0.33363
0.60745 0.78488 0.32492
0.62375 0.78723 0.31525
0.64062 0.78964 0.30452
0.65801 0.79206 0.29262
0.67589 0.79447 0.27942
0.69428 0.79682 0.26480
0.71321 0.79906 0.24868
0.73272 0.80112 0.23094
0.75282 0.80293 0.21142
0.77347 0.80441 0.18991
0.79454 0.80544 0.16604
0.81578 0.80592 0.13919
0.83681 0.80577 0.10814
0.85713 0.80508 0.07043
0.87613 0.80403 0.01881
0.89321 0.80288 0.00000
0.90798 0.80195 0.00000
0.51847 0.79443 0.42387
0.52017 0.79470 0.42328
0.52211 0.79501 0.42260
0.52491 0.79545 0.42161
0.52865 0.79605 0.42028
0.53338 0.79680 0.41856
0.53913 0.79772 0.41644
0.54592 0.79881 0.41386
0.55375 0.80006 0.41081
0.56259 0.80148 0.40724
0.57242 0.80307 0.40313
0.58318 0.80482 0.39843
0.59483 0.80673 0.39310
0.60729 0.80878 0.38712
0.62051 0.81097 0.38042
0.63440 0.81327 0.37294
0.64892 0.81568 0.36459
0.66401 0.81815 0.35528
0.67965 0.82064 0.34487
0.69581 0.82311 0.33323
0.71253 0.82550 0.32025
0.72983 0.82776 0.30582
0.74773 0.82984 0.28984
0.76625 0.83167 0.27225
0.78532 0.83319 0.25299
0.80477 0.83430 0.23199
0.82430 0.83494 0.20917
0.84342 0.83505 0.18444
0.86155 0.83471 0.15806
0.87812 0.83418 0.13086
0.89265 0.83374 0.10455
0.90508 0.83373 0.08320
0.56508 0.82487 0.46954
0.56657 0.82513 0.46908
0.56827 0.82543 0.46855
0.57071 0.82587 0.46777
