provia conversion luts/provia_to_nostalgic neg_sRGB.cube
# sRGB
# github.com/abpy/FujifilmCameraProfiles
LUT_3D_SIZE 5
DOMAIN_MIN 0.000000 0.000000 0.000000
DOMAIN_MAX 0.903226 0.903226 0.903226
0.01590 0.01602 0.01456
0.29447 0.00056 0.00000
0.45508 0.00000 0.00000
0.64267 0.03014 0.00000
0.81733 0.10637 0.01238
0.00000 0.23776 0.00207
0.23680 0.22107 0.00000
0.43503 0.20803 0.00000
0.63754 0.21197 0.00000
0.81768 0.23327 0.00983
0.16262 0.41895 0.09639
0.26517 0.41980 0.06114
0.44433 0.42002 0.00000
0.64538 0.42305 0.00000
0.83018 0.43249 0.00000
0.31106 0.62376 0.23735
0.36486 0.62757 0.21955
0.50017 0.63729 0.16459
0.67717 0.64824 0.04731
0.85250 0.65218 0.00000
0.56508 0.82487 0.46954
0.58905 0.82912 0.46169
0.65412 0.84099 0.43530
0.75134 0.85727 0.37315
0.86889 0.86552 0.24885
0.00000 0.00000 0.34554
0.26055 0.00001 0.21335
0.44615 0.00987 0.12031
0.65241 0.03495 0.06571
0.82815 0.13078 0.04830
0.00000 0.23744 0.26875
0.24798 0.23931 0.23213
0.44566 0.22529 0.17044
0.64724 0.22111 0.11153
0.83024 0.24298 0.07174
0.13878 0.42849 0.27191
0.26204 0.43120 0.25414
0.45302 0.43286 0.22093
0.65770 0.43379 0.18044
0.84682 0.44072 0.12111
0.30473 0.63072 0.34537
0.36298 0.63460 0.33314
0.50377 0.64377 0.29961
0.68413 0.65378 0.24372
0.86190 0.65894 0.15945
0.56983 0.82945 0.53045
0.59453 0.83383 0.52485
0.66231 0.84582 0.50530
0.76382 0.86179 0.45488
0.88032 0.87169 0.34174
0.00000 0.00000 0.53902
0.23304 0.00000 0.47480
0.45893 0.02039 0.36248
0.65568 0.03704 0.29134
0.85861 0.08626 0.22877
0.00000 0.23822 0.49470
0.20581 0.23938 0.45703
0.44413 0.24120 0.39248
0.66096 0.23771 0.33522
0.86101 0.24289 0.27091
0.08507 0.44206 0.47918
0.25140 0.44692 0.46737
0.47191 0.45611 0.44557
0.68030 0.45688 0.40848
0.86947 0.45507 0.35159
0.30579 0.64228 0.50993
0.37085 0.64663 0.50539
0.52057 0.65670 0.49286
0.70484 0.66530 0.46583
0.88168 0.66766 0.41197
0.57146 0.83673 0.63186
0.59758 0.84115 0.63002
0.66969 0.85251 0.62206
0.77985 0.86769 0.59708
0.89906 0.87958 0.53110
0.01023 0.06941 0.72609
0.21745 0.07510 0.68761
0.45959 0.09504 0.60280
0.66358 0.09696 0.50773
0.86875 0.12890 0.44969
0.00000 0.26765 0.70687
0.14753 0.26491 0.67789
0.42870 0.26301 0.61487
0.66245 0.26388 0.54289
0.87265 0.27905 0.49227
0.00000 0.45665 0.68500
0.15925 0.45895 0.67018
0.42801 0.46775 0.63831
0.67690 0.47963 0.60329
0.88110 0.48586 0.56419
0.26652 0.65523 0.67406
0.34174 0.66024 0.67193
0.51085 0.67421 0.66774
0.71732 0.68979 0.65633
0.89765 0.68943 0.62195
0.56427 0.84362 0.74232
0.59250 0.84845 0.74346
0.67060 0.86137 0.74499
0.78896 0.87852 0.73897
0.91592 0.88946 0.70213
0.20221 0.19065 0.82028
0.25106 0.18912 0.80098
0.40361 0.18944 0.75285
0.63969 0.22325 0.70173
0.84033 0.25760 0.63674
0.07151 0.31835 0.84054
0.18547 0.31528 0.82495
0.38763 0.32165 0.78681
0.63517 0.34003 0.73145
0.84840 0.35922 0.67141
0.00000 0.48444 0.84572
0.12172 0.48683 0.83738
0.36406 0.49544 0.81682
0.62768 0.51121 0.78703
0.86321 0.53115 0.74777
0.13227 0.66915 0.84430
0.23410 0.67290 0.84301
0.42967 0.68392 0.84158
0.67027 0.70145 0.83873
0.89037 0.71557 0.81643
0.51513 0.84317 0.86560
0.54549 0.84848 0.86901
0.63221 0.86322 0.87840
0.77035 0.88622 0.88804
0.92637 0.90823 0.88185
