provia conversion luts/Provia to Nostalgic Neg DisplayP3.cube
# DisplayP3
# github.com/abpy/FujifilmCameraProfiles
LUT_3D_SIZE 8
DOMAIN_MIN 0.000000 0.000000 0.000000
DOMAIN_MAX 0.903226 0.903226 0.903226
0.01592 0.01601 0.01469
0.18523 0.01311 0.00000
0.31527 0.00996 0.00000
0.40655 0.01116 0.00000
0.50434 0.02305 0.00000
0.60752 0.05209 0.00323
0.70377 0.08964 0.03787
0.78650 0.13369 0.06761
0.00000 0.17229 0.00390
0.15290 0.14999 0.00182
0.28497 0.12822 0.00000
0.39032 0.12110 0.00000
0.49758 0.12460 0.00000
0.60573 0.13507 0.01337
0.70420 0.15307 0.04706
0.78826 0.18128 0.07701
0.01754 0.27283 0.01933
0.14220 0.26314 0.00926
0.26669 0.24928 0.00109
0.37891 0.23995 0.00000
0.49067 0.23830 0.00343
0.60316 0.24130 0.02746
0.70489 0.24938 0.06477
0.79281 0.26531 0.09632
0.13823 0.37131 0.06678
0.19005 0.36857 0.04966
0.27976 0.36463 0.02215
0.38318 0.35971 0.00722
0.49231 0.35647 0.01155
0.60387 0.35656 0.03726
0.70821 0.36055 0.07570
0.80146 0.36879 0.11497
0.21571 0.47132 0.11886
0.24688 0.47104 0.10731
0.31145 0.47150 0.08169
0.40075 0.47264 0.04943
0.50609 0.47419 0.03203
0.61564 0.47693 0.04203
0.71893 0.47993 0.07524
0.81283 0.48165 0.12135
0.30028 0.58298 0.19202
0.32160 0.58395 0.18469
0.36934 0.58674 0.16672
0.44176 0.59160 0.13754
0.53548 0.59751 0.10348
0.63785 0.60283 0.08019
0.73595 0.60492 0.08893
0.82816 0.60120 0.13084
0.41376 0.69929 0.29243
0.42780 0.70102 0.28753
0.46092 0.70531 0.27466
0.51427 0.71221 0.25077
0.58594 0.72055 0.21528
0.66810 0.72776 0.17598
0.75426 0.73046 0.15359
0.84118 0.72567 0.17171
0.56020 0.81411 0.42917
0.56978 0.81593 0.42707
0.59255 0.82028 0.42094
0.62894 0.82719 0.40789
0.67620 0.83577 0.38505
0.73079 0.84457 0.35341
0.79270 0.85021 0.32144
0.86014 0.85100 0.31404
0.00000 0.00340 0.22916
0.17812 0.00754 0.14759
0.30246 0.01367 0.07190
0.39657 0.01559 0.04831
0.50328 0.02258 0.04192
0.61660 0.04963 0.05677
0.71775 0.09079 0.09146
0.79409 0.13669 0.11720
0.00000 0.13881 0.17507
0.14276 0.13747 0.13770
0.27803 0.12920 0.09064
0.38268 0.12123 0.06472
0.49600 0.12486 0.05400
0.61399 0.13521 0.06946
0.71648 0.15439 0.10226
0.79519 0.18218 0.12539
0.00000 0.26301 0.16099
0.13348 0.26182 0.14290
0.26577 0.25570 0.11566
0.37725 0.24588 0.09268
0.48860 0.24219 0.08019
0.60767 0.24404 0.09056
0.71204 0.25135 0.11340
0.79975 0.26546 0.13810
0.10312 0.36747 0.17837
0.16917 0.36745 0.16287
0.27076 0.36768 0.13651
0.38009 0.36531 0.11362
0.49168 0.36219 0.10181
0.60665 0.36216 0.10213
0.71359 0.36575 0.11607
0.80854 0.37254 0.14503
0.19194 0.47070 0.20684
0.22802 0.47143 0.19566
0.29951 0.47384 0.17169
0.39445 0.47686 0.14243
0.50513 0.47950 0.12139
0.61910 0.48293 0.11273
0.72425 0.48616 0.11895
0.81846 0.48658 0.14586
0.28732 0.58519 0.26128
0.30981 0.58662 0.25388
0.35943 0.59038 0.23595
0.43418 0.59643 0.20656
0.53206 0.60343 0.17043
0.63917 0.60947 0.13949
0.73927 0.61206 0.12989
0.83408 0.60772 0.15129
0.40778 0.69965 0.34602
0.42166 0.70164 0.34087
0.45439 0.70653 0.32733
0.50783 0.71438 0.30212
0.58096 0.72409 0.26337
0.66467 0.73285 0.21607
0.75220 0.73697 0.17796
0.84270 0.73172 0.17861
0.55774 0.81173 0.46814
0.56706 0.81365 0.46589
0.58954 0.81836 0.45946
0.62624 0.82604 0.44584
0.67371 0.83556 0.42106
0.72792 0.84606 0.38433
0.78898 0.85318 0.33847
0.85749 0.85384 0.31229
0.00000 0.00000 0.36783
0.15233 0.00000 0.30955
0.28088 0.00713 0.21873
0.38757 0.01409 0.16131
0.50180 0.02192 0.13079
0.62259 0.04632 0.11119
0.72737 0.10272 0.11172
0.79665 0.16111 0.12753
0.00000 0.12877 0.32495
0.12830 0.13089 0.28890
0.27123 0.13454 0.23299
0.38470 0.13160 0.18596
0.49926 0.13054 0.15047
0.62154 0.13725 0.12478
0.72661 0.16668 0.12163
0.79677 0.19951 0.13505
0.00000 0.26592 0.30948
0.13545 0.26903 0.29252
0.27944 0.27164 0.26387
0.39213 0.26294 0.22736
0.49918 0.25406 0.19102
0.61738 0.25227 0.16060
0.72524 0.26242 0.14686
0.80233 0.27033 0.15031
0.07293 0.37404 0.30891
0.15950 0.37615 0.29724
0.27618 0.37993 0.27655
0.39250 0.37971 0.25286
0.50377 0.37520 0.22766
0.61921 0.37345 0.20204
0.72920 0.37596 0.18071
0.82031 0.37864 0.17359
0.16497 0.47860 0.32549
0.21009 0.48042 0.31629
0.29410 0.48463 0.29772
0.39863 0.48927 0.27559
0.51293 0.49210 0.25380
0.63007 0.49448 0.23243
0.73941 0.49711 0.21026
0.83438 0.49823 0.19535
0.27125 0.59240 0.36761
0.29662 0.59435 0.36057
0.35193 0.59912 0.34446
0.43322 0.60623 0.32091
0.53488 0.61373 0.29205
0.64457 0.61980 0.26017
0.74978 0.62300 0.23088
0.84598 0.62075 0.21010
0.39786 0.70080 0.43663
0.41289 0.70308 0.43152
0.44826 0.70864 0.41871
0.50498 0.71751 0.39638
0.58128 0.72865 0.36328
0.66832 0.73960 0.31854
0.75890 0.74677 0.26667
0.85038 0.74425 0.22675
0.55718 0.81221 0.54491
0.56691 0.81437 0.54266
0.59022 0.81965 0.53642
0.62854 0.82843 0.52387
0.67840 0.83955 0.50172
0.73469 0.85170 0.46588
0.79649 0.86072 0.40759
0.86270 0.86168 0.33918
0.00000 0.00000 0.47507
0.12607 0.00000 0.43964
0.27717 0.00152 0.37267
0.39653 0.01349 0.30130
0.50186 0.02256 0.25320
0.62372 0.02766 0.21844
0.73901 0.06727 0.18647
0.81319 0.15571 0.16446
0.00000 0.13291 0.45299
0.10112 0.13303 0.42535
0.26446 0.13563 0.37342
0.38803 0.13778 0.31654
0.49922 0.13682 0.27378
0.62558 0.13440 0.23711
0.74186 0.14646 0.20072
0.81512 0.19852 0.17395
0.00000 0.26600 0.43579
0.10248 0.26751 0.41879
0.25902 0.27047 0.38774
0.38978 0.27101 0.35269
0.50592 0.26624 0.31673
0.62844 0.26032 0.27850
0.74420 0.26064 0.23870
0.82126 0.27592 0.20234
0.02602 0.37996 0.43124
0.14288 0.38234 0.42136
0.27361 0.38818 0.40407
0.40415 0.39327 0.38491
0.52008 0.39187 0.35956
0.63531 0.38767 0.32783
0.74735 0.38500 0.29114
0.83697 0.38506 0.25188
0.14990 0.48799 0.43696
0.20149 0.49055 0.43057
0.29580 0.49669 0.41892
0.41094 0.50413 0.40594
0.52946 0.50798 0.38975
0.64564 0.50839 0.36652
0.75608 0.50799 0.33531
0.85102 0.50706 0.29473
0.26451 0.60033 0.46579
0.29223 0.60271 0.46118
0.35304 0.60831 0.45135
0.44085 0.61619 0.43803
0.54578 0.62346 0.42120
0.65664 0.62833 0.39844
0.76435 0.63093 0.36850
0.85944 0.62966 0.32523
0.39486 0.70591 0.52014
0.41112 0.70837 0.51690
0.44948 0.71436 0.50910
0.51010 0.72366 0.49617
0.58996 0.73457 0.47719
0.68176 0.74504 0.44953
0.77708 0.75270 0.40899
0.86635 0.75438 0.35397
0.55431 0.81633 0.61345
0.56561 0.81903 0.61264
0.59216 0.82541 0.61018
0.63363 0.83521 0.60432
0.68737 0.84720 0.59211
0.74918 0.85954 0.56806
0.81648 0.86949 0.52194
0.88191 0.87367 0.45008
0.00000 0.00654 0.59632
0.10927 0.00721 0.57456
0.27296 0.01239 0.52566
0.41361 0.02620 0.45926
0.51509 0.03616 0.38652
0.62503 0.03728 0.33628
0.74473 0.05449 0.29944
0.82834 0.13219 0.26183
0.00000 0.14524 0.58283
0.06155 0.14505 0.56252
0.25596 0.14630 0.51966
0.39788 0.14810 0.46099
0.50660 0.14615 0.39902
0.62621 0.14302 0.35475
0.74911 0.14579 0.31774
0.83177 0.18701 0.27737
0.00000 0.27321 0.55923
0.03513 0.27325 0.54393
0.23443 0.27369 0.51251
0.37743 0.27471 0.47323
0.50361 0.27472 0.43319
0.63168 0.27249 0.39710
0.75422 0.26986 0.36083
0.83829 0.28319 0.31689
0.00000 0.38562 0.54975
0.08786 0.38679 0.54000
0.24345 0.39048 0.52050
0.38426 0.39708 0.49820
0.51735 0.40243 0.47480
0.64282 0.40247 0.44701
0.75876 0.39951 0.41504
0.85002 0.40051 0.37365
0.11037 0.49709 0.54980
0.17553 0.49933 0.54390
0.28203 0.50511 0.53267
0.40762 0.51400 0.52083
0.53766 0.52204 0.50827
0.65839 0.52462 0.48834
0.76844 0.52243 0.46020
0.86226 0.51922 0.42092
0.25513 0.60787 0.55955
0.28468 0.61033 0.55641
0.35023 0.61637 0.55047
0.44564 0.62568 0.54389
0.55791 0.63561 0.53576
0.67211 0.64176 0.52089
0.77859 0.64214 0.49572
0.87205 0.63836 0.45741
0.39196 0.71105 0.59594
0.40927 0.71382 0.59441
0.45069 0.72057 0.59111
0.51633 0.73112 0.58622
0.60055 0.74322 0.57829
0.69527 0.75344 0.56382
0.79219 0.75961 0.53854
0.88136 0.76088 0.49796
0.54890 0.81890 0.66890
0.56099 0.82193 0.66915
0.58960 0.82910 0.66949
0.63373 0.83977 0.66866
0.68967 0.85192 0.66388
0.75580 0.86404 0.65157
0.82813 0.87471 0.62495
0.89584 0.88031 0.57615
0.01461 0.06525 0.69426
0.13315 0.06542 0.67722
0.25855 0.06740 0.63711
0.39947 0.08003 0.58255
0.52370 0.08457 0.52226
0.63186 0.07876 0.46093
0.74702 0.08504 0.41732
0.83612 0.14016 0.37933
0.00000 0.17704 0.69164
0.06678 0.17523 0.67577
0.23704 0.17221 0.63888
0.38846 0.17375 0.59024
0.51634 0.17022 0.53380
0.63108 0.16364 0.47610
0.75203 0.16512 0.43596
0.84079 0.19959 0.39769
0.00000 0.29171 0.67784
0.00000 0.29034 0.66556
0.21201 0.28810 0.63787
0.36439 0.28745 0.60027
0.50246 0.28753 0.55703
0.63401 0.28682 0.51407
0.75878 0.28739 0.47895
0.84866 0.30415 0.44126
0.00000 0.39758 0.66954
0.00235 0.39760 0.66081
0.21096 0.39871 0.64117
0.35959 0.40289 0.61471
0.50336 0.40969 0.58661
0.64159 0.41519 0.55860
0.76449 0.41765 0.53135
0.85911 0.42315 0.49709
0.01605 0.50799 0.66522
0.12549 0.50931 0.65893
0.24861 0.51301 0.64534
0.38139 0.52021 0.62880
0.52112 0.53013 0.61339
0.65723 0.53799 0.59640
0.77512 0.53924 0.57374
0.87059 0.53791 0.54266
0.23354 0.61621 0.65541
0.26508 0.61844 0.65271
0.33403 0.62417 0.64761
0.43392 0.63407 0.64259
0.55443 0.64691 0.63823
0.67916 0.65746 0.62968
0.78971 0.65886 0.61040
0.88262 0.65351 0.57931
0.38635 0.71741 0.67308
0.40359 0.72028 0.67253
0.44539 0.72737 0.67183
0.51365 0.73896 0.67171
0.60381 0.75330 0.67096
0.70453 0.76591 0.66539
0.80383 0.77217 0.64940
0.89196 0.77090 0.61830
0.54620 0.82257 0.72567
0.55828 0.82564 0.72647
0.58709 0.83288 0.72840
0.63241 0.84382 0.73097
0.69095 0.85682 0.73202
0.75995 0.87012 0.72817
0.83652 0.88163 0.71451
0.90700 0.88669 0.67951
0.14612 0.13612 0.74919
0.18342 0.13388 0.73713
0.25696 0.13005 0.70837
0.37270 0.13397 0.66889
0.50787 0.14524 0.62999
0.63148 0.15124 0.58065
0.74011 0.15596 0.53078
0.83317 0.18344 0.49490
0.08405 0.21682 0.75830
0.14086 0.21354 0.74683
0.23618 0.20721 0.71984
0.36515 0.20664 0.68373
0.50601 0.21310 0.64582
0.63290 0.21494 0.59533
0.74472 0.21569 0.54728
0.83946 0.23522 0.51255
0.00000 0.31644 0.77126
0.08644 0.31403 0.76214
0.21348 0.30996 0.74035
0.34972 0.30945 0.70870
0.49448 0.31426 0.67112
0.63148 0.31802 0.62590
0.75294 0.32044 0.58582
0.85070 0.33291 0.55307
0.00000 0.41409 0.77358
0.06602 0.41333 0.76641
0.20451 0.41267 0.74944
0.34024 0.41500 0.72438
0.48628 0.42191 0.69490
0.63154 0.43049 0.66318
0.76100 0.43770 0.63360
0.86207 0.44654 0.60408
0.00000 0.52030 0.76794
0.09559 0.52082 0.76258
0.21758 0.52264 0.75025
0.34950 0.52735 0.73338
0.49397 0.53584 0.71548
0.64075 0.54613 0.69667
0.77222 0.55394 0.67588
0.87491 0.55719 0.65002
0.19926 0.62580 0.75369
0.23107 0.62746 0.75129
0.30037 0.63189 0.74638
0.40148 0.64011 0.74077
0.52610 0.65189 0.73556
0.66144 0.66426 0.72828
0.78712 0.67156 0.71434
0.88845 0.67001 0.68975
0.37160 0.72372 0.75398
0.38826 0.72646 0.75398
0.42925 0.73334 0.75464
0.49719 0.74485 0.75705
0.58938 0.75977 0.76058
0.69712 0.77486 0.76137
0.80535 0.78476 0.75311
0.89980 0.78457 0.73042
0.53272 0.82240 0.78621
0.54499 0.82578 0.78749
0.57445 0.83377 0.79076
0.62110 0.84577 0.79609
0.68288 0.86029 0.80212
0.75825 0.87620 0.80574
0.83976 0.88994 0.80033
0.91527 0.89566 0.77749
0.21647 0.22001 0.80678
0.23327 0.21824 0.79955
0.26857 0.20974 0.78120
0.34104 0.19600 0.75052
0.45454 0.19969 0.72162
0.58790 0.21795 0.69106
0.70972 0.23909 0.65285
0.81185 0.26382 0.62424
0.19175 0.27563 0.81675
0.21039 0.27276 0.80987
0.25445 0.26516 0.79280
0.33789 0.25822 0.76659
0.45902 0.26275 0.73902
0.59763 0.27569 0.70532
0.71868 0.28858 0.66364
0.81973 0.30491 0.63419
0.15810 0.35638 0.83479
0.18357 0.35545 0.82935
0.23947 0.35573 0.81669
0.32950 0.35971 0.79769
0.45555 0.36602 0.77260
0.59940 0.37405 0.73710
0.72824 0.38209 0.69624
0.83396 0.39059 0.66350
0.15159 0.44319 0.84100
0.17675 0.44371 0.83717
0.23153 0.44635 0.82864
0.32036 0.45211 0.81630
0.44631 0.45956 0.79964
0.59506 0.46974 0.77533
0.73492 0.48278 0.74508
0.84766 0.49441 0.71347
0.14897 0.54160 0.84482
0.17555 0.54245 0.84211
0.23430 0.54477 0.83609
0.32674 0.54891 0.82823
0.45435 0.55632 0.82033
0.60430 0.56803 0.80947
0.74822 0.58139 0.79045
0.86331 0.59177 0.76336
0.20761 0.63882 0.84661
0.22882 0.64010 0.84516
0.27933 0.64349 0.84231
0.36397 0.64981 0.83987
0.48439 0.65954 0.83923
0.62770 0.67233 0.83750
0.76748 0.68529 0.82824
0.88171 0.69210 0.80533
0.34822 0.72960 0.84271
0.36139 0.73163 0.84286
0.39543 0.73689 0.84404
0.45727 0.74629 0.84827
0.54980 0.75981 0.85609
0.66622 0.77576 0.86297
0.79003 0.79025 0.86087
0.89899 0.79769 0.84474
0.50658 0.81756 0.85169
0.51791 0.82091 0.85293
0.54601 0.82905 0.85662
0.59267 0.84169 0.86408
0.65703 0.85730 0.87469
0.73870 0.87564 0.88563
0.83188 0.89475 0.89089
0.92320 0.90884 0.88458
