provia conversion luts/Provia to Bleach Bypass sRGB.cube
# sRGB
# github.com/abpy/FujifilmCameraProfiles
LUT_3D_SIZE 8
DOMAIN_MIN 0.000000 0.000000 0.000000
DOMAIN_MAX 0.903226 0.903226 0.903226
0.01677 0.01766 0.01572
0.07270 0.01831 0.01452
0.13508 0.03157 0.01701
0.21131 0.04751 0.02378
0.30459 0.06266 0.03701
0.39664 0.07856 0.06121
0.48248 0.09430 0.08986
0.56218 0.11826 0.12350
0.05837 0.10261 0.04358
0.10402 0.10801 0.04577
0.16032 0.11376 0.04769
0.23635 0.11923 0.05554
0.32604 0.12520 0.06753
0.41463 0.13381 0.08733
0.49945 0.14609 0.11347
0.57885 0.16738 0.14507
0.11451 0.18476 0.09520
0.14291 0.18808 0.09706
0.19458 0.19466 0.10039
0.26923 0.20287 0.10680
0.35772 0.21118 0.11799
0.44700 0.22235 0.13615
0.53443 0.23929 0.16235
0.61747 0.26501 0.19280
0.17883 0.29963 0.15506
0.20182 0.30212 0.15853
0.25083 0.30815 0.16700
0.32217 0.31780 0.17910
0.40691 0.33043 0.19325
0.49727 0.34778 0.21328
0.59117 0.37297 0.24187
0.68244 0.40596 0.26733
0.27756 0.44071 0.25126
0.29710 0.44382 0.25579
0.34119 0.45154 0.26682
0.40629 0.46449 0.28340
0.48628 0.48294 0.30245
0.57739 0.50765 0.32376
0.67419 0.53892 0.34830
0.76357 0.57234 0.36460
0.41143 0.60564 0.38124
0.42710 0.60913 0.38505
0.46372 0.61772 0.39430
0.52016 0.63201 0.40890
0.59208 0.65145 0.42585
0.67413 0.67484 0.44092
0.75776 0.69911 0.44891
0.83250 0.72146 0.44508
0.54398 0.76366 0.51065
0.55557 0.76619 0.51259
0.58352 0.77236 0.51733
0.62835 0.78239 0.52490
0.68688 0.79553 0.53360
0.75333 0.81031 0.53883
0.81965 0.82495 0.53569
0.87854 0.83790 0.51735
0.66437 0.88151 0.63350
0.67259 0.88290 0.63420
0.69280 0.88631 0.63601
0.72588 0.89181 0.63938
0.76931 0.89892 0.64428
0.81835 0.90653 0.64823
0.86741 0.91361 0.64201
0.91251 0.92020 0.61258
0.01529 0.01363 0.06009
0.07693 0.01804 0.07303
0.13592 0.02518 0.08010
0.21187 0.03654 0.08753
0.30910 0.05732 0.09832
0.40317 0.07786 0.11291
0.48762 0.09063 0.12468
0.56530 0.11245 0.14630
0.06426 0.10706 0.10396
0.11018 0.11100 0.11013
0.16558 0.11304 0.11519
0.24038 0.11726 0.12133
0.33151 0.12580 0.12928
0.42159 0.13613 0.13941
0.50526 0.14595 0.14946
0.58301 0.16499 0.16916
0.12072 0.19211 0.14884
0.14997 0.19541 0.15220
0.20271 0.20190 0.15846
0.27689 0.21018 0.16738
0.36553 0.21973 0.17858
0.45552 0.23061 0.19074
0.54274 0.24607 0.20547
0.62451 0.26899 0.22187
0.18821 0.30834 0.20727
0.21155 0.31091 0.21067
0.26089 0.31709 0.21883
0.33178 0.32712 0.23091
0.41647 0.34075 0.24548
0.50781 0.35902 0.26375
0.60237 0.38424 0.28636
0.69230 0.41562 0.30203
0.28871 0.45051 0.29749
0.30828 0.45371 0.30167
0.35232 0.46158 0.31171
0.41729 0.47484 0.32710
0.49732 0.49366 0.34519
0.58854 0.51867 0.36552
0.68460 0.54931 0.38638
0.77256 0.58134 0.39653
0.42054 0.61447 0.41892
0.43624 0.61797 0.42259
0.47284 0.62654 0.43140
0.52901 0.64064 0.44520
0.60035 0.65958 0.46113
0.68162 0.68203 0.47467
0.76443 0.70532 0.48063
0.83835 0.72682 0.47338
0.54943 0.76820 0.54093
0.56105 0.77070 0.54292
0.58895 0.77676 0.54768
0.63345 0.78654 0.55517
0.69135 0.79928 0.56365
0.75716 0.81351 0.56846
0.82302 0.82751 0.56458
0.88185 0.83997 0.54536
0.66926 0.88393 0.65999
0.67736 0.88528 0.66073
0.69727 0.88858 0.66263
0.72979 0.89389 0.66602
0.77248 0.90070 0.67087
0.82085 0.90795 0.67474
0.86953 0.91466 0.66856
0.91448 0.92077 0.64068
0.02698 0.01627 0.11133
0.07887 0.02288 0.11999
0.14135 0.03112 0.13085
0.21433 0.04596 0.14416
0.30881 0.07049 0.16194
0.40455 0.09145 0.17531
0.49248 0.10620 0.17888
0.57391 0.13163 0.18278
0.06962 0.11416 0.15020
0.11272 0.11609 0.15562
0.16926 0.11840 0.16297
0.24137 0.12455 0.17427
0.33186 0.13731 0.18973
0.42421 0.14871 0.20087
0.51149 0.16069 0.20489
0.59247 0.18172 0.20767
0.12514 0.20010 0.19583
0.15409 0.20293 0.19902
0.20587 0.20816 0.20520
0.28136 0.22075 0.22145
0.37053 0.23363 0.23894
0.46283 0.24625 0.25354
0.55320 0.26303 0.26487
0.63647 0.28461 0.26820
0.19691 0.31833 0.26251
0.22079 0.32124 0.26652
0.27106 0.32825 0.27582
0.34264 0.34047 0.29074
0.42845 0.35705 0.30939
0.52213 0.37767 0.33061
0.61814 0.40355 0.35024
0.70732 0.43298 0.35797
0.30222 0.46462 0.35819
0.32229 0.46820 0.36262
0.36730 0.47690 0.37299
0.43324 0.49125 0.38876
0.51408 0.51118 0.40820
0.60542 0.53656 0.42971
0.70010 0.56585 0.44753
0.78660 0.59595 0.45135
0.43169 0.62776 0.47484
0.44777 0.63134 0.47873
0.48510 0.64000 0.48787
0.54179 0.65391 0.50170
0.61280 0.67217 0.51770
0.69303 0.69334 0.53146
0.77474 0.71517 0.53657
0.84803 0.73547 0.52571
0.55664 0.77530 0.58947
0.56855 0.77780 0.59192
0.59690 0.78381 0.59765
0.64149 0.79330 0.60619
0.69872 0.80539 0.61548
0.76349 0.81874 0.62129
0.82875 0.83182 0.61773
0.88795 0.84367 0.59755
0.67627 0.88831 0.70394
0.68435 0.88962 0.70511
0.70405 0.89277 0.70789
0.73593 0.89777 0.71217
0.77757 0.90405 0.71723
0.82488 0.91072 0.72013
0.87305 0.91700 0.71395
0.91810 0.92280 0.69006
0.03740 0.02334 0.17418
0.08451 0.02991 0.17999
0.14847 0.03899 0.18777
0.22146 0.05617 0.19846
0.31328 0.08126 0.21478
0.40634 0.10002 0.22866
0.49456 0.11442 0.23766
0.57941 0.14128 0.24197
0.08245 0.12268 0.21586
0.11968 0.12371 0.21848
0.17662 0.12566 0.22216
0.24846 0.13384 0.23005
0.33661 0.14767 0.24362
0.42700 0.15887 0.25589
0.51532 0.17136 0.26533
0.59971 0.19350 0.26809
0.13409 0.20961 0.26116
0.16282 0.21287 0.26391
0.21719 0.22086 0.27020
0.29012 0.23279 0.28153
0.37723 0.24729 0.29784
0.46900 0.26143 0.31419
0.56136 0.27889 0.32822
0.64752 0.30092 0.33113
0.20686 0.32937 0.32351
0.23088 0.33282 0.32741
0.28198 0.34143 0.33712
0.35330 0.35500 0.35264
0.43949 0.37378 0.37383
0.53394 0.39621 0.39718
0.63127 0.42250 0.41768
0.72126 0.45090 0.42473
0.31349 0.47803 0.41558
0.33396 0.48199 0.42049
0.37989 0.49157 0.43208
0.44674 0.50693 0.44973
0.52787 0.52749 0.47150
0.61896 0.55289 0.49521
0.71304 0.58118 0.51430
0.79975 0.60986 0.51758
0.44020 0.63926 0.52705
0.45672 0.64292 0.53139
0.49493 0.65165 0.54148
0.55234 0.66538 0.55652
0.62319 0.68296 0.57396
0.70250 0.70310 0.58998
0.78373 0.72408 0.59827
0.85789 0.74351 0.58839
0.56132 0.78173 0.63336
0.57366 0.78426 0.63643
0.60280 0.79031 0.64352
0.64800 0.79966 0.65401
0.70522 0.81124 0.66574
0.76949 0.82385 0.67457
0.83473 0.83643 0.67407
0.89489 0.84820 0.65599
0.67955 0.89228 0.73988
0.68793 0.89362 0.74168
0.70808 0.89677 0.74581
0.74013 0.90158 0.75179
0.78150 0.90743 0.75809
0.82849 0.91379 0.76149
0.87677 0.92030 0.75682
0.92240 0.92657 0.73857
0.04979 0.03178 0.25696
0.09289 0.03811 0.26124
0.15718 0.05066 0.26734
0.23132 0.07026 0.27562
0.32144 0.09302 0.28753
0.41335 0.11049 0.29716
0.50194 0.12679 0.30410
0.58628 0.14916 0.30810
0.09406 0.13060 0.29529
0.12761 0.13215 0.29709
0.18502 0.13585 0.30002
0.25832 0.14550 0.30641
0.34576 0.15910 0.31650
0.43565 0.17150 0.32574
0.52448 0.18650 0.33420
0.60904 0.20670 0.33849
0.14427 0.22125 0.33671
0.17254 0.22481 0.33967
0.22854 0.23396 0.34675
0.30338 0.24769 0.35816
0.38974 0.26304 0.37254
0.48096 0.27952 0.38801
0.57359 0.29930 0.40310
0.66092 0.32225 0.41036
0.21941 0.34402 0.39502
0.24397 0.34814 0.39946
0.29648 0.35799 0.41016
0.36945 0.37335 0.42716
0.45461 0.39290 0.44874
0.54796 0.41676 0.47351
0.64476 0.44452 0.49720
0.73596 0.47421 0.50942
0.32592 0.49337 0.48055
0.34668 0.49750 0.48571
0.39324 0.50734 0.49793
0.46048 0.52281 0.51672
0.54110 0.54340 0.54045
0.63083 0.56855 0.56674
0.72406 0.59671 0.58989
0.81209 0.62503 0.59815
0.44912 0.65041 0.58288
0.46585 0.65402 0.58743
0.50446 0.66257 0.59808
0.56201 0.67577 0.61404
0.63214 0.69247 0.63298
0.71047 0.71189 0.65205
0.79141 0.73223 0.66508
0.86732 0.75107 0.66110
0.56647 0.78825 0.67909
0.57921 0.79075 0.68244
0.60921 0.79669 0.69027
0.65509 0.80574 0.70185
0.71192 0.81679 0.71492
0.77531 0.82886 0.72632
0.84066 0.84131 0.73044
0.90214 0.85296 0.71875
0.68390 0.89571 0.77218
0.69240 0.89702 0.77420
0.71267 0.90010 0.77885
0.74436 0.90471 0.78555
0.78503 0.91038 0.79302
0.83200 0.91699 0.79924
0.88096 0.92415 0.79931
0.92724 0.93054 0.78687
0.06341 0.04199 0.34518
0.10238 0.04910 0.34858
0.16551 0.06427 0.35486
0.24088 0.08404 0.36291
0.32996 0.10457 0.37314
0.42343 0.12354 0.38289
0.51557 0.14476 0.39177
0.60134 0.16811 0.39591
0.10453 0.13810 0.37610
0.13556 0.14084 0.37832
0.19302 0.14678 0.38276
0.26778 0.15732 0.39024
0.35567 0.17115 0.40056
0.44796 0.18694 0.41150
0.54005 0.20655 0.42247
0.62617 0.22958 0.42901
0.15451 0.23422 0.41352
0.18229 0.23788 0.41703
0.23911 0.24734 0.42552
0.31616 0.26240 0.43892
0.40466 0.28025 0.45550
0.49790 0.30025 0.47378
0.59199 0.32371 0.49247
0.68040 0.35136 0.50608
0.23238 0.36035 0.46912
0.25721 0.36480 0.47416
0.31115 0.37557 0.48632
0.38657 0.39250 0.50545
0.47377 0.41405 0.52960
0.56703 0.43957 0.55698
0.66239 0.46951 0.58560
0.75273 0.50242 0.60587
0.33871 0.51005 0.54903
0.35998 0.51433 0.55461
0.40792 0.52458 0.56795
0.47701 0.54065 0.58861
0.55796 0.56124 0.61420
0.64557 0.58589 0.64289
0.73592 0.61389 0.67089
0.82265 0.64283 0.68710
0.45775 0.66207 0.64161
0.47472 0.66566 0.64649
0.51391 0.67415 0.65799
0.57215 0.68717 0.67540
0.64206 0.70323 0.69619
0.71815 0.72100 0.71740
0.79845 0.74126 0.73671
0.87467 0.75920 0.74158
0.57096 0.79581 0.72925
0.58389 0.79825 0.73281
0.61434 0.80398 0.74117
0.66082 0.81265 0.75368
0.71790 0.82320 0.76828
0.78092 0.83475 0.78238
0.84633 0.84677 0.79186
0.90869 0.85744 0.78869
0.68646 0.89943 0.80923
0.69507 0.90068 0.81137
0.71566 0.90364 0.81641
0.74796 0.90817 0.82402
0.78914 0.91391 0.83302
0.83620 0.92060 0.84162
0.88540 0.92776 0.84614
0.93216 0.93390 0.84049
0.07581 0.05923 0.43431
0.11183 0.06618 0.43696
0.17414 0.08042 0.44264
0.25047 0.09836 0.45035
0.34023 0.11838 0.46133
0.43626 0.13930 0.47442
0.53161 0.16248 0.48756
0.61972 0.18983 0.49770
0.11613 0.14887 0.45630
0.14525 0.15209 0.45862
0.20197 0.15902 0.46373
0.27769 0.17045 0.47246
0.36744 0.18636 0.48527
0.46279 0.20493 0.50044
0.55779 0.22701 0.51634
0.64584 0.25366 0.52970
0.16678 0.25010 0.48955
0.19369 0.25375 0.49326
0.25049 0.26340 0.50227
0.32920 0.27956 0.51670
0.42031 0.29963 0.53560
0.51618 0.32205 0.55739
0.61202 0.34815 0.58124
0.70126 0.37853 0.60268
0.24506 0.37835 0.54009
0.26978 0.38281 0.54525
0.32432 0.39379 0.55778
0.40172 0.41154 0.57773
0.49130 0.43451 0.60350
0.58602 0.46163 0.63372
0.68112 0.49289 0.66665
0.77014 0.52660 0.69438
0.34940 0.52546 0.61140
0.37091 0.52974 0.61716
0.41975 0.54007 0.63106
0.49051 0.55649 0.65289
0.57300 0.57763 0.68047
0.66044 0.60235 0.71161
0.74874 0.62990 0.74349
0.83244 0.65837 0.76785
0.46430 0.67272 0.69463
0.48155 0.67633 0.69986
0.52148 0.68489 0.71228
0.58068 0.69800 0.73132
0.65132 0.71404 0.75444
0.72761 0.73174 0.77911
0.80528 0.75028 0.80216
0.87906 0.76726 0.81586
0.57440 0.80267 0.77475
0.58752 0.80509 0.77860
0.61835 0.81079 0.78768
0.66517 0.81939 0.80145
0.72246 0.82982 0.81797
0.78571 0.84128 0.83531
0.85012 0.85191 0.84951
0.91231 0.86195 0.85604
0.68678 0.90258 0.84457
0.69546 0.90382 0.84688
0.71620 0.90675 0.85233
0.74893 0.91129 0.86082
0.79115 0.91717 0.87153
0.83936 0.92398 0.88293
0.88883 0.93077 0.89165
0.93576 0.93660 0.89345
0.08442 0.07029 0.53479
0.11970 0.07558 0.53705
0.18188 0.08765 0.54069
0.25975 0.10757 0.54266
0.35173 0.13210 0.54992
0.45067 0.15545 0.56506
0.54790 0.18126 0.58111
0.63765 0.21089 0.59645
0.13018 0.15982 0.53862
0.15726 0.16327 0.54027
0.21239 0.17155 0.54434
0.28910 0.18670 0.55171
0.38148 0.20657 0.56592
0.47980 0.22749 0.58467
0.57626 0.25152 0.60411
0.66553 0.27898 0.62328
0.18088 0.27031 0.55591
0.20638 0.27428 0.55940
0.26218 0.28499 0.56862
0.34232 0.30364 0.58508
0.43664 0.32672 0.60713
0.53512 0.35145 0.63202
0.63235 0.37868 0.65932
0.72257 0.40814 0.68648
0.25836 0.39808 0.59969
0.28197 0.40266 0.60493
0.33539 0.41429 0.61815
0.41342 0.43362 0.64004
0.50501 0.45836 0.66793
0.60121 0.48643 0.69971
0.69749 0.51739 0.73460
0.78739 0.54908 0.76642
0.35543 0.53968 0.66360
0.37673 0.54395 0.66966
0.42565 0.55443 0.68442
0.49733 0.57118 0.70769
0.58076 0.59246 0.73676
0.66877 0.61661 0.76929
0.75796 0.64270 0.80312
0.84151 0.66823 0.83230
0.46558 0.68190 0.73990
0.48307 0.68555 0.74556
0.52353 0.69417 0.75897
0.58329 0.70717 0.77932
0.65409 0.72263 0.80370
0.73070 0.73927 0.82995
0.80895 0.75631 0.85606
0.88210 0.77222 0.87643
0.57233 0.80828 0.81362
0.58545 0.81066 0.81769
0.61622 0.81620 0.82725
0.66296 0.82448 0.84175
0.72053 0.83435 0.85933
0.78484 0.84495 0.87832
0.85103 0.85554 0.89641
0.91250 0.86523 0.90955
0.68191 0.90444 0.87409
0.69086 0.90570 0.87653
0.71234 0.90870 0.88233
0.74627 0.91335 0.89140
0.78991 0.91929 0.90294
0.83960 0.92614 0.91597
0.89064 0.93349 0.92870
0.93884 0.94062 0.93831
