provia conversion luts/Provia to Nostalgic Neg DisplayP3.cube
# DisplayP3
# github.com/abpy/FujifilmCameraProfiles
LUT_3D_SIZE 32
0.01592 0.01601 0.01469
0.05079 0.01446 0.00771
0.09053 0.01388 0.00255
0.13895 0.01419 0.00000
0.18523 0.01311 0.00000
0.22607 0.01117 0.00000
0.26049 0.01010 0.00000
0.28961 0.01013 0.00000
0.31527 0.00996 0.00000
0.33878 0.00984 0.00000
0.36130 0.00987 0.00000
0.38372 0.01025 0.00000
0.40655 0.01116 0.00000
0.42999 0.01271 0.00000
0.45415 0.01511 0.00000
0.47897 0.01852 0.00000
0.50434 0.02305 0.00000
0.53007 0.02875 0.00000
0.55599 0.03564 0.00000
0.58188 0.04366 0.00000
0.60752 0.05209 0.00323
0.63271 0.06086 0.01147
0.65724 0.07001 0.02025
0.68096 0.07960 0.02916
0.70377 0.08964 0.03787
0.72569 0.10012 0.04593
0.74673 0.11099 0.05348
0.76698 0.12219 0.06070
0.78650 0.13369 0.06761
0.80536 0.14544 0.07423
0.82361 0.15739 0.08055
0.84131 0.16950 0.08656
0.00681 0.05248 0.00991
0.04421 0.05073 0.00434
0.08901 0.04987 0.00217
0.13677 0.05039 0.00153
0.18198 0.05040 0.00202
0.22079 0.04967 0.00140
0.25379 0.04800 0.00047
0.28276 0.04548 0.00000
0.30878 0.04322 0.00000
0.33286 0.04135 0.00000
0.35615 0.03997 0.00000
0.37941 0.03934 0.00000
0.40299 0.03951 0.00000
0.42712 0.04053 0.00000
0.45187 0.04252 0.00000
0.47719 0.04549 0.00000
0.50296 0.04936 0.00000
0.52904 0.05402 0.00000
0.55523 0.05933 0.00000
0.58135 0.06520 0.00000
0.60719 0.07158 0.00517
0.63252 0.07850 0.01339
0.65717 0.08598 0.02211
0.68097 0.09406 0.03094
0.70386 0.10274 0.03954
0.72583 0.11201 0.04750
0.74693 0.12180 0.05508
0.76722 0.13205 0.06231
0.78679 0.14270 0.06923
0.80570 0.15370 0.07585
0.82399 0.16499 0.08218
0.84172 0.17653 0.08819
0.00000 0.09456 0.00685
0.03512 0.09270 0.00283
0.08303 0.09001 0.00188
0.13065 0.08715 0.00272
0.17489 0.08416 0.00349
0.21291 0.08101 0.00312
0.24599 0.07727 0.00231
0.27544 0.07383 0.00015
0.30201 0.07103 0.00000
0.32681 0.06869 0.00000
0.35096 0.06699 0.00000
0.37505 0.06604 0.00000
0.39940 0.06578 0.00000
0.42419 0.06626 0.00000
0.44952 0.06755 0.00000
0.47534 0.06963 0.00000
0.50152 0.07245 0.00000
0.52794 0.07593 0.00000
0.55442 0.07999 0.00000
0.58079 0.08458 0.00000
0.60682 0.08970 0.00726
0.63232 0.09536 0.01546
0.65708 0.10162 0.02413
0.68098 0.10853 0.03286
0.70395 0.11611 0.04133
0.72598 0.12434 0.04930
0.74714 0.13317 0.05690
0.76750 0.14254 0.06414
0.78713 0.15239 0.07106
0.80609 0.16266 0.07769
0.82443 0.17331 0.08403
0.84219 0.18425 0.09005
0.00000 0.13683 0.00495
0.02642 0.13344 0.00220
0.07528 0.12903 0.00178
0.12165 0.12366 0.00241
0.16439 0.11800 0.00294
0.20234 0.11230 0.00296
0.23609 0.10698 0.00234
0.26626 0.10270 0.00076
0.29366 0.09926 0.00000
0.31948 0.09652 0.00000
0.34470 0.09465 0.00000
0.36978 0.09353 0.00000
0.39500 0.09306 0.00000
0.42058 0.09327 0.00000
0.44660 0.09417 0.00000
0.47300 0.09571 0.00000
0.49968 0.09784 0.00000
0.52652 0.10049 0.00000
0.55337 0.10362 0.00000
0.58004 0.10719 0.00269
0.60633 0.11123 0.01004
0.63203 0.11578 0.01822
0.65696 0.12091 0.02681
0.68099 0.12669 0.03542
0.70406 0.13314 0.04381
0.72619 0.14028 0.05184
0.74744 0.14806 0.05946
0.76789 0.15644 0.06672
0.78761 0.16536 0.07365
0.80665 0.17477 0.08030
0.82506 0.18462 0.08665
0.84287 0.19484 0.09268
0.00000 0.17229 0.00390
0.01840 0.16779 0.00216
0.06649 0.16288 0.00163
0.11138 0.15674 0.00167
0.15290 0.14999 0.00182
0.19096 0.14329 0.00179
0.22542 0.13729 0.00135
0.25648 0.13229 0.00042
0.28497 0.12822 0.00000
0.31195 0.12513 0.00000
0.33823 0.12303 0.00000
0.36424 0.12172 0.00000
0.39032 0.12110 0.00000
0.41669 0.12114 0.00000
0.44339 0.12178 0.00000
0.47038 0.12295 0.00000
0.49758 0.12460 0.00000
0.52488 0.12666 0.00000
0.55212 0.12909 0.00000
0.57914 0.13188 0.00598
0.60573 0.13507 0.01337
0.63168 0.13870 0.02152
0.65681 0.14287 0.03001
0.68099 0.14764 0.03851
0.70420 0.15307 0.04706
0.72645 0.15918 0.05514
0.74783 0.16594 0.06278
0.76841 0.17332 0.07005
0.78826 0.18128 0.07701
0.80741 0.18977 0.08369
0.82591 0.19875 0.09007
0.84379 0.20815 0.09614
0.00000 0.20008 0.00470
0.01320 0.19596 0.00332
0.05873 0.19163 0.00251
0.10247 0.18612 0.00193
0.14314 0.17990 0.00150
0.18102 0.17355 0.00108
0.21584 0.16761 0.00057
0.24770 0.16236 0.00000
0.27724 0.15799 0.00000
0.30524 0.15464 0.00000
0.33240 0.15225 0.00000
0.35919 0.15068 0.00000
0.38599 0.14986 0.00000
0.41301 0.14969 0.00000
0.44028 0.15008 0.00000
0.46778 0.15095 0.00000
0.49544 0.15220 0.00000
0.52316 0.15380 0.00000
0.55080 0.15569 0.00323
0.57817 0.15787 0.00959
0.60507 0.16037 0.01701
0.63127 0.16327 0.02511
0.65661 0.16665 0.03348
0.68098 0.17058 0.04238
0.70434 0.17513 0.05101
0.72676 0.18033 0.05912
0.74831 0.18616 0.06678
0.76907 0.19261 0.07408
0.78908 0.19965 0.08109
0.80838 0.20724 0.08782
0.82699 0.21534 0.09427
0.84496 0.22390 0.10039
0.00000 0.22482 0.00745
0.01545 0.22148 0.00607
0.05768 0.21799 0.00495
0.09868 0.21352 0.00381
0.13745 0.20838 0.00272
0.17431 0.20294 0.00169
0.20889 0.19757 0.00075
0.24112 0.19261 0.00000
0.27134 0.18833 0.00000
0.30006 0.18488 0.00000
0.32784 0.18226 0.00000
0.35519 0.18044 0.00000
0.38250 0.17936 0.00000
0.40995 0.17892 0.00000
0.43760 0.17901 0.00000
0.46545 0.17954 0.00000
0.49346 0.18043 0.00000
0.52153 0.18161 0.00159
0.54951 0.18304 0.00678
0.57720 0.18472 0.01322
0.60438 0.18667 0.02064
0.63084 0.18897 0.02867
0.65639 0.19170 0.03753
0.68093 0.19494 0.04678
0.70449 0.19876 0.05546
0.72711 0.20318 0.06360
0.74889 0.20820 0.07131
0.76987 0.21382 0.07868
0.79009 0.22001 0.08578
0.80957 0.22675 0.09261
0.82834 0.23400 0.09917
0.84642 0.24174 0.10539
0.00000 0.24879 0.01209
0.02670 0.24624 0.01043
0.06425 0.24357 0.00893
0.10104 0.24012 0.00723
0.13705 0.23605 0.00540
0.17201 0.23161 0.00362
0.20553 0.22709 0.00204
0.23744 0.22277 0.00074
0.26778 0.21887 0.00000
0.29679 0.21553 0.00000
0.32491 0.21285 0.00000
0.35258 0.21083 0.00000
0.38013 0.20948 0.00000
0.40776 0.20872 0.00000
0.43557 0.20847 0.00000
0.46361 0.20865 0.00000
0.49183 0.20916 0.00078
0.52013 0.20995 0.00479
0.54836 0.21096 0.01009
0.57631 0.21220 0.01655
0.60373 0.21369 0.02395
0.63039 0.21549 0.03254
0.65613 0.21769 0.04212
0.68088 0.22037 0.05144
0.70466 0.22358 0.06015
0.72754 0.22735 0.06835
0.74959 0.23168 0.07616
0.77084 0.23656 0.08366
0.79132 0.24199 0.09092
0.81103 0.24794 0.09793
0.82998 0.25440 0.10466
0.84818 0.26134 0.11104
0.01754 0.27283 0.01933
0.05136 0.27091 0.01702
0.07994 0.26889 0.01477
0.11052 0.26625 0.01207
0.14220 0.26314 0.00926
0.17420 0.25972 0.00666
0.20590 0.25617 0.00447
0.23682 0.25265 0.00264
0.26669 0.24928 0.00109
0.29555 0.24623 0.00000
0.32368 0.24361 0.00000
0.35137 0.24151 0.00000
0.37891 0.23995 0.00000
0.40652 0.23891 0.00000
0.43432 0.23834 0.00000
0.46238 0.23816 0.00052
0.49067 0.23830 0.00343
0.51909 0.23871 0.00755
0.54747 0.23935 0.01286
0.57558 0.24020 0.01942
0.60316 0.24130 0.02746
0.62998 0.24269 0.03677
0.65590 0.24446 0.04668
0.68086 0.24667 0.05601
0.70489 0.24938 0.06477
0.72807 0.25259 0.07309
0.75044 0.25633 0.08108
0.77202 0.26057 0.08881
0.79281 0.26531 0.09632
0.81278 0.27055 0.10360
0.83193 0.27626 0.11060
0.85027 0.28245 0.11722
0.05486 0.29713 0.02962
0.07785 0.29569 0.02660
0.09887 0.29420 0.02357
0.12370 0.29227 0.01990
0.15112 0.29001 0.01598
0.18005 0.28751 0.01220
0.20959 0.28485 0.00879
0.23899 0.28206 0.00585
0.26785 0.27925 0.00345
0.29613 0.27657 0.00161
0.32391 0.27417 0.00033
0.35138 0.27212 0.00000
0.37873 0.27048 0.00000
0.40618 0.26925 0.00000
0.43385 0.26841 0.00066
0.46182 0.26792 0.00262
0.49007 0.26774 0.00559
0.51849 0.26782 0.00981
0.54691 0.26813 0.01545
0.57507 0.26866 0.02259
0.60274 0.26943 0.03117
0.62968 0.27050 0.04099
0.65576 0.27192 0.05084
0.68094 0.27375 0.06016
0.70527 0.27604 0.06903
0.72878 0.27879 0.07756
0.75151 0.28200 0.08583
0.77346 0.28567 0.09391
0.79458 0.28979 0.10180
0.81484 0.29436 0.10946
0.83421 0.29937 0.11682
0.85270 0.30482 0.12377
0.08665 0.32181 0.04204
0.10301 0.32077 0.03853
0.11930 0.31969 0.03488
0.13971 0.31829 0.03033
0.16326 0.31664 0.02525
0.18892 0.31480 0.02010
0.21579 0.31281 0.01523
0.24318 0.31068 0.01091
0.27068 0.30847 0.00732
0.29809 0.30630 0.00454
0.32532 0.30424 0.00255
0.35241 0.30237 0.00130
0.37950 0.30076 0.00079
0.40672 0.29946 0.00105
0.43420 0.29846 0.00217
0.46201 0.29776 0.00426
0.49013 0.29735 0.00751
0.51845 0.29718 0.01206
0.54679 0.29724 0.01804
0.57492 0.29753 0.02550
0.60260 0.29807 0.03437
0.62961 0.29889 0.04432
0.65584 0.30004 0.05408
0.68125 0.30158 0.06347
0.70587 0.30352 0.07256
0.72974 0.30586 0.08142
0.75285 0.30861 0.09013
0.77518 0.31175 0.09870
0.79666 0.31529 0.10711
0.81723 0.31922 0.11529
0.83684 0.32356 0.12315
0.85549 0.32829 0.13055
0.11467 0.34658 0.05469
0.12700 0.34580 0.05134
0.13987 0.34499 0.04766
0.15661 0.34396 0.04265
0.17661 0.34276 0.03649
0.19908 0.34144 0.03002
0.22329 0.34003 0.02379
0.24867 0.33853 0.01818
0.27472 0.33695 0.01337
0.30110 0.33529 0.00946
0.32762 0.33361 0.00647
0.35425 0.33200 0.00443
0.38102 0.33054 0.00334
0.40800 0.32929 0.00324
0.43528 0.32826 0.00416
0.46291 0.32749 0.00621
0.49087 0.32696 0.00948
0.51903 0.32666 0.01407
0.54725 0.32659 0.02008
0.57529 0.32674 0.02751
0.60292 0.32714 0.03634
0.62997 0.32780 0.04614
0.65631 0.32877 0.05582
0.68193 0.33008 0.06533
0.70682 0.33172 0.07471
0.73100 0.33372 0.08403
0.75445 0.33604 0.09329
0.77714 0.33869 0.10248
0.79897 0.34168 0.11156
0.81986 0.34500 0.12042
0.83972 0.34867 0.12895
0.85853 0.35269 0.13696
0.13823 0.37131 0.06678
0.14811 0.37074 0.06366
0.15868 0.37016 0.06023
0.17279 0.36942 0.05552
0.19005 0.36857 0.04966
0.20991 0.36767 0.04286
0.23182 0.36672 0.03548
0.25526 0.36572 0.02846
0.27976 0.36463 0.02215
0.30498 0.36343 0.01675
0.33068 0.36217 0.01240
0.35677 0.36091 0.00922
0.38318 0.35971 0.00722
0.40992 0.35863 0.00643
0.43704 0.35771 0.00687
0.46451 0.35699 0.00856
0.49231 0.35647 0.01155
0.52032 0.35617 0.01589
0.54839 0.35608 0.02161
0.57631 0.35620 0.02873
0.60387 0.35656 0.03726
0.63092 0.35715 0.04678
0.65735 0.35801 0.05637
0.68312 0.35914 0.06601
0.70821 0.36055 0.07570
0.73262 0.36222 0.08548
0.75635 0.36416 0.09532
0.77932 0.36634 0.10518
0.80146 0.36879 0.11497
0.82263 0.37152 0.12458
0.84273 0.37452 0.13384
0.86170 0.37783 0.14254
0.15913 0.39602 0.07914
0.16734 0.39561 0.07634
0.17629 0.39520 0.07324
0.18842 0.39468 0.06894
0.20355 0.39410 0.06350
0.22126 0.39351 0.05705
0.24114 0.39290 0.04979
0.26275 0.39228 0.04191
0.28572 0.39160 0.03388
0.30973 0.39086 0.02672
0.33455 0.39004 0.02075
0.36002 0.38917 0.01611
0.38604 0.38830 0.01286
0.41254 0.38749 0.01103
0.43949 0.38679 0.01063
0.46682 0.38624 0.01165
0.49449 0.38587 0.01405
0.52237 0.38567 0.01784
0.55030 0.38567 0.02300
0.57810 0.38586 0.02958
0.60559 0.38626 0.03761
0.63261 0.38685 0.04676
0.65907 0.38765 0.05620
0.68491 0.38866 0.06591
0.71011 0.38986 0.07587
0.73466 0.39124 0.08606
0.75855 0.39280 0.09644
0.78172 0.39453 0.10694
0.80408 0.39645 0.11745
0.82548 0.39858 0.12782
0.84579 0.40093 0.13786
0.86489 0.40351 0.14728
0.17830 0.42077 0.09170
0.18535 0.42049 0.08919
0.19312 0.42022 0.08637
0.20378 0.41988 0.08244
0.21724 0.41952 0.07741
0.23320 0.41916 0.07134
0.25135 0.41883 0.06439
0.27134 0.41852 0.05672
0.29287 0.41820 0.04855
0.31566 0.41784 0.04017
0.33952 0.41742 0.03231
0.36427 0.41694 0.02585
0.38979 0.41645 0.02097
0.41597 0.41599 0.01773
0.44270 0.41561 0.01615
0.46991 0.41533 0.01613
0.49746 0.41519 0.01761
0.52523 0.41520 0.02053
0.55304 0.41537 0.02488
0.58073 0.41571 0.03069
0.60813 0.41620 0.03804
0.63509 0.41685 0.04665
0.66151 0.41763 0.05581
0.68734 0.41854 0.06547
0.71254 0.41955 0.07558
0.73712 0.42065 0.08609
0.76106 0.42184 0.09692
0.78432 0.42312 0.10798
0.80681 0.42452 0.11916
0.82837 0.42604 0.13027
0.84882 0.42772 0.14107
0.86803 0.42959 0.15122
0.19699 0.44578 0.10466
0.20318 0.44560 0.10242
0.21005 0.44543 0.09991
0.21955 0.44524 0.09637
0.23165 0.44504 0.09179
0.24615 0.44488 0.08620
0.26278 0.44477 0.07969
0.28130 0.44472 0.07239
0.30144 0.44469 0.06446
0.32299 0.44466 0.05612
0.34579 0.44461 0.04769
0.36969 0.44453 0.03960
0.39460 0.44445 0.03275
0.42036 0.44438 0.02775
0.44684 0.44436 0.02457
0.47388 0.44442 0.02307
0.50131 0.44457 0.02319
0.52896 0.44485 0.02485
0.55666 0.44525 0.02805
0.58422 0.44577 0.03282
0.61149 0.44641 0.03926
0.63833 0.44714 0.04706
0.66464 0.44792 0.05573
0.69037 0.44875 0.06515
0.71549 0.44958 0.07524
0.74001 0.45040 0.08590
0.76391 0.45122 0.09706
0.78717 0.45205 0.10859
0.80969 0.45291 0.12036
0.83133 0.45383 0.13214
0.85187 0.45483 0.14365
0.87112 0.45599 0.15448
0.21571 0.47132 0.11886
0.22122 0.47123 0.11688
0.22736 0.47116 0.11463
0.23591 0.47108 0.11146
0.24688 0.47104 0.10731
0.26011 0.47105 0.10220
0.27543 0.47113 0.09617
0.29261 0.47128 0.08929
0.31145 0.47150 0.08169
0.33180 0.47177 0.07355
0.35354 0.47205 0.06519
0.37655 0.47234 0.05701
0.40075 0.47264 0.04943
0.42597 0.47296 0.04280
0.45207 0.47331 0.03745
0.47885 0.47371 0.03386
0.50609 0.47419 0.03203
0.53359 0.47475 0.03192
0.56115 0.47541 0.03353
0.58855 0.47614 0.03688
0.61564 0.47693 0.04203
0.64229 0.47774 0.04864
0.66841 0.47854 0.05648
0.69397 0.47928 0.06539
0.71893 0.47993 0.07524
0.74331 0.48049 0.08589
0.76712 0.48095 0.09723
0.79032 0.48133 0.10910
0.81283 0.48165 0.12135
0.83446 0.48195 0.13371
0.85499 0.48228 0.14584
0.87419 0.48273 0.15727
0.23493 0.49774 0.13465
0.23988 0.49772 0.13289
0.24541 0.49773 0.13089
0.25316 0.49776 0.12806
0.26316 0.49784 0.12433
0.27531 0.49799 0.11969
0.28946 0.49824 0.11417
0.30545 0.49859 0.10781
0.32311 0.49902 0.10070
0.34233 0.49953 0.09297
0.36301 0.50010 0.08486
0.38506 0.50070 0.07666
0.40841 0.50133 0.06870
0.43294 0.50200 0.06130
0.45851 0.50270 0.05479
0.48491 0.50343 0.04942
0.51188 0.50422 0.04544
0.53916 0.50507 0.04306
0.56648 0.50597 0.04249
0.59364 0.50690 0.04381
0.62048 0.50783 0.04702
0.64686 0.50872 0.05201
0.67273 0.50951 0.05864
0.69804 0.51016 0.06672
0.72280 0.51065 0.07606
0.74703 0.51095 0.08648
0.77072 0.51107 0.09781
0.79385 0.51101 0.10989
0.81629 0.51081 0.12249
0.83785 0.51050 0.13533
0.85827 0.51016 0.14797
0.87732 0.50996 0.15990
0.25511 0.52521 0.15214
0.25958 0.52527 0.15058
0.26461 0.52534 0.14881
0.27167 0.52546 0.14629
0.28082 0.52566 0.14295
0.29201 0.52594 0.13877
0.30511 0.52633 0.13376
0.32000 0.52683 0.12792
0.33655 0.52745 0.12130
0.35467 0.52816 0.11400
0.37426 0.52896 0.10618
0.39530 0.52982 0.09804
0.41772 0.53074 0.08987
0.44145 0.53171 0.08196
0.46634 0.53271 0.07456
0.49219 0.53375 0.06789
0.51871 0.53481 0.06220
0.54560 0.53591 0.05777
0.57257 0.53702 0.05489
0.59940 0.53812 0.05383
0.62589 0.53915 0.05477
0.65193 0.54008 0.05780
0.67746 0.54086 0.06283
0.70248 0.54143 0.06971
0.72702 0.54175 0.07821
0.75109 0.54182 0.08813
0.77469 0.54161 0.09926
0.79774 0.54114 0.11137
0.82010 0.54044 0.12419
0.84152 0.53956 0.13736
0.86173 0.53862 0.15038
0.88054 0.53784 0.16268
0.27674 0.55374 0.17122
0.28080 0.55385 0.16984
0.28537 0.55397 0.16826
0.29181 0.55417 0.16601
0.30020 0.55446 0.16301
0.31050 0.55485 0.15925
0.32262 0.55536 0.15470
0.33646 0.55600 0.14936
0.35192 0.55677 0.14327
0.36894 0.55766 0.13646
0.38745 0.55865 0.12903
0.40743 0.55974 0.12113
0.42884 0.56090 0.11295
0.45161 0.56212 0.10470
0.47562 0.56338 0.09657
0.50069 0.56467 0.08881
0.52654 0.56597 0.08165
0.55287 0.56727 0.07540
0.57935 0.56854 0.07041
0.60571 0.56975 0.06707
0.63173 0.57086 0.06573
0.65732 0.57182 0.06658
0.68245 0.57256 0.06969
0.70715 0.57304 0.07498
0.73146 0.57321 0.08229
0.75538 0.57306 0.09140
0.77889 0.57256 0.10206
0.80187 0.57173 0.11399
0.82412 0.57059 0.12684
0.84537 0.56921 0.14017
0.86533 0.56775 0.15341
0.88381 0.56649 0.16593
0.30028 0.58298 0.19202
0.30395 0.58313 0.19080
0.30809 0.58331 0.18939
0.31395 0.58357 0.18738
0.32160 0.58395 0.18469
0.33103 0.58444 0.18131
0.34217 0.58507 0.17719
0.35497 0.58584 0.17233
0.36934 0.58674 0.16672
0.38523 0.58779 0.16037
0.40262 0.58896 0.15333
0.42147 0.59023 0.14568
0.44176 0.59160 0.13754
0.46343 0.59303 0.12905
0.48641 0.59451 0.12040
0.51051 0.59601 0.11179
0.53548 0.59751 0.10348
0.56102 0.59897 0.09577
0.58678 0.60036 0.08903
0.61246 0.60166 0.08370
0.63785 0.60283 0.08019
0.66288 0.60379 0.07882
0.68755 0.60449 0.07979
0.71189 0.60488 0.08318
0.73595 0.60492 0.08893
0.75972 0.60458 0.09687
0.78313 0.60384 0.10674
0.80603 0.60270 0.11820
0.82816 0.60120 0.13084
0.84922 0.59942 0.14411
0.86890 0.59757 0.15738
0.88703 0.59597 0.16996
0.32581 0.61254 0.21462
0.32911 0.61273 0.21352
0.33284 0.61295 0.21226
0.33813 0.61329 0.21045
0.34507 0.61374 0.20802
0.35365 0.61433 0.20494
0.36385 0.61506 0.20118
0.37560 0.61595 0.19671
0.38887 0.61699 0.19150
0.40363 0.61817 0.18555
0.41985 0.61949 0.17886
0.43752 0.62093 0.17146
0.45662 0.62247 0.16343
0.47710 0.62409 0.15487
0.49889 0.62575 0.14592
0.52182 0.62744 0.13677
0.54566 0.62910 0.12765
0.57011 0.63070 0.11885
0.59487 0.63221 0.11075
0.61964 0.63360 0.10376
0.64424 0.63480 0.09831
0.66861 0.63577 0.09481
0.69273 0.63644 0.09359
0.71664 0.63676 0.09488
0.74039 0.63670 0.09875
0.76395 0.63622 0.10515
0.78722 0.63529 0.11385
0.81000 0.63392 0.12450
0.83199 0.63216 0.13661
0.85284 0.63011 0.14956
0.87225 0.62801 0.16265
0.89006 0.62620 0.17515
0.35331 0.64198 0.23891
0.35627 0.64221 0.23791
0.35962 0.64248 0.23677
0.36438 0.64287 0.23512
0.37064 0.64339 0.23291
0.37842 0.64407 0.23009
0.38769 0.64490 0.22663
0.39844 0.64589 0.22249
0.41063 0.64705 0.21764
0.42425 0.64836 0.21204
0.43928 0.64981 0.20569
0.45573 0.65140 0.19858
0.47357 0.65309 0.19075
0.49277 0.65486 0.18226
0.51321 0.65669 0.17323
0.53477 0.65853 0.16380
0.55724 0.66034 0.15419
0.58036 0.66209 0.14467
0.60387 0.66372 0.13556
0.62751 0.66520 0.12726
0.65114 0.66646 0.12019
0.67466 0.66746 0.11478
0.69809 0.66813 0.11146
0.72146 0.66844 0.11057
0.74478 0.66834 0.11235
0.76802 0.66778 0.11688
0.79104 0.66675 0.12403
0.81361 0.66524 0.13348
0.83541 0.66332 0.14472
0.85605 0.66114 0.15706
0.87521 0.65894 0.16977
0.89274 0.65707 0.18206
0.38269 0.67095 0.26484
0.38533 0.67122 0.26394
0.38834 0.67152 0.26290
0.39262 0.67195 0.26140
0.39826 0.67254 0.25938
0.40529 0.67329 0.25680
0.41371 0.67421 0.25362
0.42350 0.67529 0.24979
0.43465 0.67655 0.24528
0.44716 0.67797 0.24003
0.46102 0.67954 0.23404
0.47622 0.68124 0.22727
0.49275 0.68306 0.21973
0.51056 0.68497 0.21146
0.52956 0.68694 0.20254
0.54962 0.68893 0.19309
0.57055 0.69089 0.18328
0.59215 0.69278 0.17335
0.61420 0.69454 0.16359
0.63650 0.69613 0.15433
0.65892 0.69750 0.14598
0.68140 0.69858 0.13896
0.70394 0.69934 0.13373
0.72656 0.69971 0.13075
0.74927 0.69964 0.13037
0.77202 0.69909 0.13282
0.79465 0.69804 0.13811
0.81690 0.69649 0.14600
0.83841 0.69454 0.15601
0.85879 0.69235 0.16747
0.87768 0.69019 0.17958
0.89492 0.68843 0.19156
0.41376 0.69929 0.29243
0.41614 0.69958 0.29163
0.41884 0.69991 0.29070
0.42270 0.70038 0.28935
0.42780 0.70102 0.28753
0.43417 0.70183 0.28520
0.44181 0.70281 0.28231
0.45073 0.70397 0.27881
0.46092 0.70531 0.27466
0.47238 0.70682 0.26982
0.48509 0.70848 0.26424
0.49906 0.71028 0.25789
0.51427 0.71221 0.25077
0.53066 0.71424 0.24287
0.54816 0.71633 0.23426
0.56664 0.71845 0.22502
0.58594 0.72055 0.21528
0.60590 0.72259 0.20524
0.62633 0.72450 0.19514
0.64709 0.72624 0.18527
0.66810 0.72776 0.17598
0.68930 0.72900 0.16771
0.71072 0.72990 0.16090
0.73237 0.73041 0.15604
0.75426 0.73046 0.15359
0.77631 0.73001 0.15390
0.79835 0.72902 0.15714
0.82010 0.72754 0.16321
0.84118 0.72567 0.17171
0.86116 0.72361 0.18201
0.87968 0.72166 0.19334
0.89655 0.72015 0.20491
0.44647 0.72711 0.32185
0.44862 0.72742 0.32115
0.45107 0.72777 0.32034
0.45457 0.72827 0.31917
0.45920 0.72895 0.31757
0.46500 0.72980 0.31552
0.47197 0.73083 0.31296
0.48012 0.73205 0.30984
0.48944 0.73344 0.30613
0.49992 0.73501 0.30176
0.51156 0.73674 0.29669
0.52435 0.73862 0.29089
0.53827 0.74063 0.28432
0.55327 0.74275 0.27698
0.56925 0.74494 0.26887
0.58613 0.74717 0.26007
0.60375 0.74939 0.25066
0.62198 0.75157 0.24080
0.64069 0.75364 0.23068
0.65979 0.75556 0.22056
0.67922 0.75726 0.21076
0.69897 0.75870 0.20165
0.71905 0.75981 0.19365
0.73951 0.76051 0.18727
0.76033 0.76075 0.18301
0.78143 0.76046 0.18132
0.80264 0.75963 0.18250
0.82365 0.75832 0.18659
0.84407 0.75666 0.19337
0.86344 0.75490 0.20230
0.88140 0.75331 0.21269
0.89777 0.75222 0.22377
0.48111 0.75489 0.35362
0.48308 0.75521 0.35304
0.48531 0.75557 0.35237
0.48851 0.75610 0.35139
0.49274 0.75679 0.35005
0.49805 0.75767 0.34832
0.50443 0.75874 0.34614
0.51189 0.75998 0.34347
0.52042 0.76141 0.34026
0.53001 0.76301 0.33646
0.54066 0.76478 0.33202
0.55234 0.76670 0.32689
0.56503 0.76875 0.32103
0.57866 0.77091 0.31440
0.59316 0.77316 0.30701
0.60844 0.77546 0.29888
0.62437 0.77776 0.29008
0.64086 0.78004 0.28072
0.65782 0.78225 0.27097
0.67518 0.78433 0.26103
0.69293 0.78623 0.25117
0.71108 0.78787 0.24170
0.72967 0.78920 0.23301
0.74872 0.79012 0.22557
0.76824 0.79058 0.21989
0.78814 0.79051 0.21647
0.80824 0.78993 0.21572
0.82823 0.78892 0.21788
0.84769 0.78764 0.22287
0.86617 0.78634 0.23034
0.88333 0.78530 0.23969
0.89903 0.78480 0.25024
0.51861 0.78351 0.38886
0.52041 0.78384 0.38841
0.52246 0.78420 0.38788
0.52538 0.78473 0.38710
0.52925 0.78543 0.38604
0.53409 0.78631 0.38465
0.53992 0.78736 0.38289
0.54673 0.78860 0.38072
0.55452 0.79002 0.37808
0.56326 0.79161 0.37492
0.57295 0.79336 0.37119
0.58356 0.79526 0.36683
0.59505 0.79729 0.36181
0.60735 0.79944 0.35606
0.62039 0.80167 0.34959
0.63409 0.80396 0.34238
0.64835 0.80628 0.33449
0.66311 0.80860 0.32600
0.67830 0.81088 0.31704
0.69391 0.81307 0.30775
0.70993 0.81511 0.29833
0.72639 0.81692 0.28904
0.74334 0.81842 0.28019
0.76081 0.81955 0.27221
0.77880 0.82023 0.26558
0.79724 0.82044 0.26086
0.81595 0.82021 0.25854
0.83460 0.81964 0.25901
0.85279 0.81892 0.26237
0.87007 0.81829 0.26845
0.88616 0.81802 0.27680
0.90100 0.81828 0.28679
0.56020 0.81411 0.42917
0.56182 0.81442 0.42884
0.56366 0.81477 0.42844
0.56629 0.81526 0.42787
