provia conversion luts/Provia to Bleach Bypass sRGB.cube
# sRGB
# github.com/abpy/FujifilmCameraProfiles
LUT_3D_SIZE 32
0.01677 0.01766 0.01572
0.03015 0.01767 0.01649
0.04311 0.01662 0.01552
0.05799 0.01673 0.01465
0.07270 0.01831 0.01452
0.08778 0.02085 0.01465
0.10318 0.02424 0.01515
0.11898 0.02789 0.01610
0.13508 0.03157 0.01701
0.15181 0.03507 0.01816
0.17004 0.03925 0.01977
0.18994 0.04357 0.02161
0.21131 0.04751 0.02378
0.23392 0.05172 0.02635
0.25714 0.05554 0.02917
0.28075 0.05890 0.03265
0.30459 0.06266 0.03701
0.32818 0.06665 0.04229
0.35134 0.07043 0.04817
0.37418 0.07446 0.05461
0.39664 0.07856 0.06121
0.41871 0.08237 0.06810
0.44041 0.08628 0.07533
0.46164 0.09018 0.08246
0.48248 0.09430 0.08986
0.50298 0.09910 0.09767
0.52303 0.10451 0.10572
0.54275 0.11087 0.11437
0.56218 0.11826 0.12350
0.58132 0.12676 0.13325
0.60019 0.13651 0.14355
0.61882 0.14753 0.15435
0.02353 0.04074 0.02110
0.03729 0.04149 0.02184
0.05129 0.04238 0.02188
0.06638 0.04380 0.02206
0.08150 0.04596 0.02220
0.09639 0.04781 0.02229
0.11119 0.04952 0.02261
0.12623 0.05179 0.02302
0.14154 0.05359 0.02343
0.15791 0.05576 0.02432
0.17599 0.05880 0.02561
0.19565 0.06141 0.02705
0.21687 0.06422 0.02901
0.23925 0.06750 0.03165
0.26211 0.07015 0.03464
0.28543 0.07275 0.03820
0.30900 0.07601 0.04270
0.33225 0.07931 0.04776
0.35513 0.08249 0.05342
0.37776 0.08609 0.05964
0.40003 0.08969 0.06597
0.42196 0.09307 0.07270
0.44356 0.09667 0.07977
0.46469 0.10025 0.08670
0.48548 0.10416 0.09400
0.50593 0.10877 0.10169
0.52593 0.11395 0.10963
0.54563 0.12010 0.11819
0.56503 0.12724 0.12720
0.58414 0.13549 0.13684
0.60298 0.14497 0.14700
0.62157 0.15572 0.15764
0.02933 0.06239 0.02578
0.04551 0.06392 0.02702
0.05993 0.06526 0.02769
0.07439 0.06682 0.02800
0.08878 0.06837 0.02812
0.10311 0.06936 0.02837
0.11752 0.07074 0.02864
0.13212 0.07200 0.02885
0.14722 0.07277 0.02928
0.16365 0.07452 0.03016
0.18168 0.07652 0.03131
0.20126 0.07802 0.03283
0.22244 0.08028 0.03520
0.24459 0.08273 0.03812
0.26715 0.08446 0.04111
0.29026 0.08659 0.04462
0.31358 0.08949 0.04895
0.33652 0.09213 0.05374
0.35916 0.09484 0.05917
0.38160 0.09813 0.06515
0.40369 0.10124 0.07122
0.42551 0.10429 0.07779
0.44702 0.10765 0.08469
0.46807 0.11095 0.09142
0.48883 0.11471 0.09864
0.50924 0.11916 0.10621
0.52920 0.12415 0.11404
0.54889 0.13014 0.12251
0.56825 0.13706 0.13139
0.58735 0.14510 0.14092
0.60615 0.15433 0.15091
0.62470 0.16482 0.16137
0.04203 0.08308 0.03299
0.05717 0.08448 0.03404
0.06947 0.08584 0.03465
0.08265 0.08736 0.03507
0.09619 0.08881 0.03537
0.10995 0.09024 0.03563
0.12394 0.09168 0.03586
0.13836 0.09256 0.03630
0.15361 0.09350 0.03709
0.17018 0.09511 0.03820
0.18827 0.09622 0.03962
0.20799 0.09733 0.04171
0.22918 0.09931 0.04453
0.25105 0.10079 0.04721
0.27342 0.10190 0.04987
0.29638 0.10384 0.05324
0.31941 0.10631 0.05734
0.34202 0.10826 0.06181
0.36444 0.11062 0.06698
0.38668 0.11359 0.07262
0.40861 0.11617 0.07838
0.43033 0.11895 0.08482
0.45174 0.12208 0.09147
0.47272 0.12512 0.09799
0.49348 0.12880 0.10514
0.51387 0.13310 0.11254
0.53380 0.13793 0.12025
0.55349 0.14378 0.12860
0.57283 0.15048 0.13732
0.59192 0.15831 0.14670
0.61068 0.16726 0.15645
0.62920 0.17746 0.16665
0.05837 0.10261 0.04358
0.06967 0.10377 0.04440
0.07985 0.10495 0.04498
0.09152 0.10640 0.04545
0.10402 0.10801 0.04577
0.11707 0.10963 0.04601
0.13066 0.11108 0.04633
0.14498 0.11235 0.04687
0.16032 0.11376 0.04769
0.17701 0.11517 0.04887
0.19536 0.11627 0.05072
0.21528 0.11764 0.05303
0.23635 0.11923 0.05554
0.25808 0.12019 0.05786
0.28045 0.12134 0.06039
0.30329 0.12329 0.06370
0.32604 0.12520 0.06753
0.34844 0.12675 0.07170
0.37071 0.12901 0.07655
0.39280 0.13161 0.08179
0.41463 0.13381 0.08733
0.43630 0.13651 0.09363
0.45765 0.13943 0.09999
0.47863 0.14235 0.10638
0.49945 0.14609 0.11347
0.51981 0.15028 0.12069
0.53978 0.15507 0.12833
0.55949 0.16084 0.13653
0.57885 0.16738 0.14507
0.59796 0.17507 0.15426
0.61669 0.18377 0.16369
0.63519 0.19370 0.17358
0.07348 0.12164 0.05653
0.08229 0.12260 0.05712
0.09078 0.12362 0.05757
0.10103 0.12493 0.05797
0.11250 0.12645 0.05828
0.12484 0.12805 0.05856
0.13802 0.12968 0.05891
0.15218 0.13134 0.05940
0.16751 0.13301 0.06019
0.18434 0.13459 0.06143
0.20284 0.13611 0.06317
0.22271 0.13764 0.06519
0.24364 0.13898 0.06733
0.26541 0.14018 0.06953
0.28785 0.14174 0.07216
0.31057 0.14358 0.07539
0.33313 0.14509 0.07896
0.35548 0.14674 0.08290
0.37769 0.14902 0.08740
0.39970 0.15128 0.09227
0.42155 0.15348 0.09776
0.44323 0.15626 0.10390
0.46458 0.15907 0.11001
0.48569 0.16215 0.11641
0.50660 0.16607 0.12345
0.52701 0.17027 0.13056
0.54709 0.17520 0.13818
0.56687 0.18097 0.14620
0.58631 0.18751 0.15461
0.60550 0.19514 0.16356
0.62423 0.20366 0.17259
0.64275 0.21339 0.18211
0.08746 0.14111 0.06989
0.09472 0.14192 0.07032
0.10202 0.14279 0.07069
0.11119 0.14396 0.07106
0.12179 0.14537 0.07139
0.13351 0.14696 0.07172
0.14629 0.14867 0.07210
0.16021 0.15045 0.07266
0.17550 0.15226 0.07350
0.19234 0.15405 0.07460
0.21069 0.15577 0.07598
0.23040 0.15740 0.07765
0.25128 0.15898 0.07962
0.27313 0.16074 0.08198
0.29555 0.16256 0.08473
0.31815 0.16420 0.08784
0.34066 0.16578 0.09123
0.36302 0.16777 0.09497
0.38523 0.17004 0.09917
0.40728 0.17224 0.10389
0.42923 0.17477 0.10940
0.45098 0.17767 0.11535
0.47246 0.18064 0.12136
0.49377 0.18415 0.12789
0.51482 0.18830 0.13490
0.53539 0.19273 0.14203
0.55566 0.19797 0.14965
0.57559 0.20388 0.15753
0.59523 0.21060 0.16582
0.61453 0.21826 0.17443
0.63335 0.22673 0.18303
0.65195 0.23636 0.19214
0.10106 0.16194 0.08259
0.10721 0.16262 0.08295
0.11360 0.16337 0.08329
0.12190 0.16439 0.08372
0.13180 0.16567 0.08420
0.14304 0.16716 0.08471
0.15550 0.16882 0.08530
0.16925 0.17060 0.08607
0.18444 0.17248 0.08688
0.20114 0.17437 0.08784
0.21932 0.17626 0.08911
0.23890 0.17817 0.09072
0.25974 0.18017 0.09278
0.28150 0.18216 0.09519
0.30379 0.18397 0.09789
0.32628 0.18563 0.10085
0.34876 0.18759 0.10411
0.37116 0.18991 0.10779
0.39343 0.19223 0.11188
0.41560 0.19470 0.11667
0.43767 0.19761 0.12214
0.45955 0.20073 0.12794
0.48126 0.20413 0.13405
0.50282 0.20817 0.14077
0.52407 0.21264 0.14781
0.54491 0.21756 0.15506
0.56546 0.22321 0.16268
0.58567 0.22943 0.17045
0.60560 0.23646 0.17857
0.62508 0.24425 0.18673
0.64408 0.25280 0.19488
0.66286 0.26246 0.20357
0.11451 0.18476 0.09520
0.11998 0.18535 0.09558
0.12580 0.18601 0.09598
0.13351 0.18692 0.09647
0.14291 0.18808 0.09706
0.15377 0.18947 0.09774
0.16598 0.19105 0.09853
0.17956 0.19279 0.09941
0.19458 0.19466 0.10039
0.21108 0.19662 0.10157
0.22910 0.19866 0.10303
0.24855 0.20077 0.10478
0.26923 0.20287 0.10680
0.29080 0.20487 0.10916
0.31291 0.20677 0.11178
0.33527 0.20877 0.11466
0.35772 0.21118 0.11799
0.38014 0.21371 0.12169
0.40249 0.21620 0.12584
0.42479 0.21907 0.13068
0.44700 0.22235 0.13615
0.46907 0.22580 0.14193
0.49106 0.22981 0.14829
0.51290 0.23438 0.15522
0.53443 0.23929 0.16235
0.55566 0.24482 0.16977
0.57657 0.25092 0.17733
0.59718 0.25760 0.18498
0.61747 0.26501 0.19280
0.63724 0.27301 0.20042
0.65653 0.28178 0.20806
0.67558 0.29156 0.21633
0.12879 0.20999 0.10826
0.13372 0.21051 0.10864
0.13906 0.21110 0.10905
0.14626 0.21192 0.10962
0.15520 0.21297 0.11035
0.16570 0.21425 0.11125
0.17767 0.21573 0.11230
0.19108 0.21741 0.11342
0.20594 0.21924 0.11468
0.22232 0.22122 0.11625
0.24023 0.22332 0.11799
0.25954 0.22549 0.11981
0.28002 0.22765 0.12198
0.30136 0.22981 0.12445
0.32325 0.23204 0.12708
0.34545 0.23449 0.13006
0.36781 0.23715 0.13342
0.39022 0.23981 0.13714
0.41264 0.24263 0.14140
0.43506 0.24590 0.14641
0.45742 0.24951 0.15190
0.47973 0.25346 0.15789
0.50201 0.25805 0.16447
0.52418 0.26312 0.17159
0.54611 0.26860 0.17892
0.56779 0.27470 0.18639
0.58917 0.28128 0.19379
0.61029 0.28847 0.20125
0.63100 0.29625 0.20861
0.65115 0.30455 0.21559
0.67080 0.31359 0.22264
0.69021 0.32361 0.23054
0.14385 0.23776 0.12209
0.14841 0.23823 0.12252
0.15341 0.23875 0.12300
0.16024 0.23949 0.12368
0.16884 0.24046 0.12455
0.17909 0.24166 0.12563
0.19088 0.24307 0.12690
0.20417 0.24469 0.12841
0.21897 0.24650 0.13017
0.23529 0.24849 0.13213
0.25308 0.25063 0.13423
0.27218 0.25288 0.13657
0.29238 0.25522 0.13914
0.31341 0.25764 0.14175
0.33502 0.26020 0.14444
0.35702 0.26290 0.14744
0.37926 0.26570 0.15085
0.40164 0.26861 0.15472
0.42408 0.27182 0.15917
0.44658 0.27548 0.16425
0.46911 0.27948 0.16981
0.49169 0.28397 0.17595
0.51433 0.28910 0.18293
0.53691 0.29466 0.19028
0.55934 0.30072 0.19776
0.58154 0.30733 0.20513
0.60349 0.31441 0.21232
0.62516 0.32209 0.21946
0.64635 0.33023 0.22618
0.66692 0.33887 0.23245
0.68695 0.34820 0.23884
0.70670 0.35849 0.24639
0.16036 0.26779 0.13736
0.16463 0.26822 0.13785
0.16936 0.26871 0.13841
0.17590 0.26941 0.13922
0.18423 0.27033 0.14030
0.19427 0.27148 0.14169
0.20592 0.27286 0.14339
0.21913 0.27447 0.14541
0.23388 0.27629 0.14762
0.25009 0.27831 0.14998
0.26768 0.28053 0.15262
0.28652 0.28293 0.15550
0.30639 0.28544 0.15829
0.32707 0.28807 0.16095
0.34838 0.29086 0.16383
0.37016 0.29378 0.16709
0.39224 0.29685 0.17074
0.41453 0.30015 0.17481
0.43699 0.30381 0.17942
0.45958 0.30787 0.18457
0.48232 0.31236 0.19029
0.50523 0.31739 0.19679
0.52827 0.32295 0.20391
0.55134 0.32900 0.21137
0.57430 0.33559 0.21879
0.59712 0.34269 0.22602
0.61971 0.35030 0.23308
0.64194 0.35841 0.23979
0.66357 0.36690 0.24576
0.68451 0.37586 0.25125
0.70480 0.38541 0.25688
0.72484 0.39593 0.26413
0.17883 0.29963 0.15506
0.18288 0.30005 0.15564
0.18741 0.30053 0.15630
0.19371 0.30121 0.15725
0.20182 0.30212 0.15853
0.21166 0.30326 0.16016
0.22316 0.30464 0.16212
0.23625 0.30627 0.16440
0.25083 0.30815 0.16700
0.26684 0.31026 0.16988
0.28417 0.31259 0.17294
0.30267 0.31510 0.17602
0.32217 0.31780 0.17910
0.34251 0.32069 0.18233
0.36352 0.32375 0.18578
0.38502 0.32698 0.18940
0.40691 0.33043 0.19325
0.42910 0.33420 0.19749
0.45156 0.33832 0.20219
0.47428 0.34282 0.20741
0.49727 0.34778 0.21328
0.52054 0.35326 0.21988
0.54403 0.35928 0.22704
0.56760 0.36585 0.23444
0.59117 0.37297 0.24187
0.61464 0.38060 0.24916
0.63782 0.38870 0.25609
0.66047 0.39716 0.26209
0.68244 0.40596 0.26733
0.70356 0.41513 0.27203
0.72396 0.42482 0.27699
0.74415 0.43541 0.28381
0.19965 0.33289 0.17517
0.20351 0.33331 0.17582
0.20785 0.33380 0.17656
0.21392 0.33450 0.17764
0.22179 0.33543 0.17908
0.23141 0.33662 0.18091
0.24269 0.33806 0.18315
0.25555 0.33978 0.18579
0.26990 0.34176 0.18879
0.28564 0.34398 0.19197
0.30264 0.34642 0.19521
0.32078 0.34910 0.19862
0.33991 0.35205 0.20227
0.35989 0.35523 0.20613
0.38054 0.35860 0.20995
0.40175 0.36219 0.21383
0.42344 0.36609 0.21797
0.44554 0.37032 0.22239
0.46805 0.37488 0.22718
0.49093 0.37983 0.23247
0.51421 0.38527 0.23843
0.53786 0.39125 0.24506
0.56179 0.39780 0.25217
0.58586 0.40491 0.25955
0.60996 0.41253 0.26690
0.63390 0.42063 0.27402
0.65746 0.42910 0.28048
0.68040 0.43787 0.28606
0.70249 0.44687 0.29076
0.72357 0.45610 0.29473
0.74386 0.46572 0.29894
0.76398 0.47614 0.30515
0.22298 0.36740 0.19793
0.22667 0.36785 0.19864
0.23082 0.36836 0.19946
0.23666 0.36910 0.20063
0.24427 0.37009 0.20219
0.25360 0.37135 0.20417
0.26460 0.37287 0.20655
0.27718 0.37468 0.20932
0.29123 0.37676 0.21241
0.30664 0.37912 0.21579
0.32329 0.38177 0.21947
0.34105 0.38471 0.22340
0.35978 0.38791 0.22747
0.37935 0.39136 0.23161
0.39964 0.39509 0.23585
0.42059 0.39913 0.24024
0.44211 0.40349 0.24472
0.46416 0.40814 0.24929
0.48671 0.41317 0.25415
0.50976 0.41863 0.25952
0.53329 0.42460 0.26548
0.55724 0.43110 0.27199
0.58149 0.43814 0.27892
0.60592 0.44571 0.28608
0.63036 0.45378 0.29326
0.65458 0.46225 0.30012
0.67828 0.47097 0.30623
0.70120 0.47986 0.31140
0.72310 0.48885 0.31549
0.74388 0.49790 0.31865
0.76387 0.50724 0.32210
0.78365 0.51716 0.32739
0.24893 0.40323 0.22325
0.25244 0.40371 0.22399
0.25641 0.40427 0.22484
0.26202 0.40506 0.22605
0.26935 0.40612 0.22768
0.27839 0.40746 0.22972
0.28907 0.40910 0.23220
0.30131 0.41105 0.23511
0.31500 0.41331 0.23845
0.33004 0.41589 0.24218
0.34629 0.41877 0.24620
0.36361 0.42192 0.25031
0.38189 0.42537 0.25456
0.40106 0.42915 0.25903
0.42102 0.43326 0.26367
0.44172 0.43771 0.26836
0.46306 0.44246 0.27296
0.48504 0.44757 0.27769
0.50761 0.45308 0.28273
0.53076 0.45906 0.28816
0.55443 0.46551 0.29403
0.57854 0.47247 0.30033
0.60295 0.47992 0.30698
0.62751 0.48786 0.31385
0.65200 0.49619 0.32068
0.67613 0.50477 0.32704
0.69959 0.51347 0.33254
0.72215 0.52221 0.33703
0.74360 0.53093 0.34037
0.76395 0.53964 0.34293
0.78343 0.54842 0.34537
0.80267 0.55757 0.34946
0.27756 0.44071 0.25126
0.28090 0.44123 0.25202
0.28469 0.44183 0.25289
0.29006 0.44268 0.25413
0.29710 0.44382 0.25579
0.30579 0.44527 0.25789
0.31610 0.44703 0.26044
0.32793 0.44912 0.26342
0.34119 0.45154 0.26682
0.35577 0.45428 0.27056
0.37155 0.45734 0.27458
0.38842 0.46074 0.27888
0.40629 0.46449 0.28340
0.42508 0.46858 0.28806
0.44471 0.47301 0.29278
0.46512 0.47779 0.29756
0.48628 0.48294 0.30245
0.50814 0.48849 0.30751
0.53065 0.49445 0.31271
0.55376 0.50082 0.31809
0.57739 0.50765 0.32376
0.60141 0.51492 0.32974
0.62569 0.52261 0.33594
0.65003 0.53064 0.34222
0.67419 0.53892 0.34830
0.69786 0.54732 0.35382
0.72080 0.55575 0.35851
0.74276 0.56411 0.36215
0.76357 0.57234 0.36460
0.78326 0.58042 0.36614
0.80216 0.58850 0.36765
0.82077 0.59676 0.37051
0.30856 0.47995 0.28157
0.31174 0.48050 0.28232
0.31534 0.48113 0.28318
0.32046 0.48204 0.28442
0.32718 0.48325 0.28607
0.33551 0.48478 0.28814
0.34540 0.48664 0.29066
0.35679 0.48885 0.29360
0.36959 0.49141 0.29696
0.38369 0.49432 0.30073
0.39901 0.49759 0.30486
0.41544 0.50123 0.30927
0.43286 0.50519 0.31374
0.45122 0.50951 0.31835
0.47048 0.51420 0.32313
0.49058 0.51928 0.32809
0.51146 0.52474 0.33318
0.53308 0.53058 0.33830
0.55536 0.53679 0.34343
0.57822 0.54341 0.34869
0.60156 0.55042 0.35409
0.62522 0.55776 0.35956
0.64905 0.56540 0.36506
0.67283 0.57324 0.37043
0.69633 0.58120 0.37545
0.71929 0.58919 0.37987
0.74146 0.59710 0.38345
0.76261 0.60483 0.38590
0.78263 0.61235 0.38718
0.80162 0.61971 0.38769
0.81986 0.62700 0.38821
0.83777 0.63434 0.38976
0.34161 0.52084 0.31375
0.34462 0.52142 0.31448
0.34803 0.52207 0.31532
0.35289 0.52302 0.31652
0.35928 0.52428 0.31811
0.36722 0.52588 0.32013
0.37668 0.52782 0.32256
0.38759 0.53012 0.32542
0.39989 0.53278 0.32868
0.41348 0.53581 0.33232
0.42827 0.53921 0.33628
0.44418 0.54297 0.34051
0.46112 0.54711 0.34500
0.47905 0.55161 0.34971
0.49788 0.55648 0.35456
0.51756 0.56170 0.35946
0.53803 0.56728 0.36439
0.55923 0.57322 0.36937
0.58108 0.57952 0.37440
0.60347 0.58616 0.37942
0.62624 0.59307 0.38430
0.64926 0.60021 0.38901
0.67235 0.60753 0.39354
0.69531 0.61494 0.39775
0.71792 0.62236 0.40148
0.73995 0.62970 0.40453
0.76116 0.63688 0.40669
0.78140 0.64386 0.40780
0.80060 0.65063 0.40794
0.81883 0.65723 0.40740
0.83635 0.66373 0.40683
0.85355 0.67024 0.40713
0.37613 0.56297 0.34718
0.37897 0.56356 0.34787
0.38219 0.56423 0.34866
0.38678 0.56519 0.34979
0.39283 0.56647 0.35130
0.40036 0.56810 0.35320
0.40935 0.57008 0.35549
0.41975 0.57242 0.35819
0.43151 0.57513 0.36128
0.44454 0.57822 0.36475
0.45877 0.58168 0.36859
0.47413 0.58552 0.37276
0.49053 0.58973 0.37720
0.50791 0.59426 0.38172
0.52617 0.59910 0.38625
0.54529 0.60428 0.39086
0.56519 0.60980 0.39555
0.58579 0.61565 0.40023
0.60698 0.62179 0.40484
0.62864 0.62818 0.40924
0.65064 0.63478 0.41338
0.67281 0.64151 0.41723
0.69498 0.64830 0.42068
0.71694 0.65508 0.42361
0.73850 0.66179 0.42594
0.75948 0.66836 0.42753
0.77967 0.67477 0.42827
0.79896 0.68099 0.42811
0.81729 0.68703 0.42711
0.83472 0.69290 0.42550
0.85146 0.69866 0.42381
0.86789 0.70438 0.42276
0.41143 0.60564 0.38124
0.41409 0.60623 0.38188
0.41711 0.60689 0.38261
0.42142 0.60785 0.38366
0.42710 0.60913 0.38505
0.43420 0.61074 0.38680
0.44270 0.61271 0.38893
0.45255 0.61503 0.39143
0.46372 0.61772 0.39430
0.47613 0.62077 0.39752
0.48973 0.62417 0.40107
0.50443 0.62793 0.40488
0.52016 0.63201 0.40890
0.53687 0.63642 0.41308
0.55448 0.64115 0.41737
0.57291 0.64617 0.42166
0.59208 0.65145 0.42585
0.61189 0.65699 0.42992
0.63226 0.66277 0.43384
0.65306 0.66874 0.43754
0.67413 0.67484 0.44092
0.69531 0.68098 0.44382
0.71642 0.68710 0.44616
0.73729 0.69315 0.44789
0.75776 0.69911 0.44891
0.77764 0.70493 0.44916
0.79679 0.71061 0.44861
0.81510 0.71612 0.44723
0.83250 0.72146 0.44508
0.84906 0.72664 0.44238
0.86497 0.73170 0.43955
0.88062 0.73672 0.43716
0.44660 0.64797 0.41521
0.44907 0.64853 0.41578
0.45188 0.64918 0.41643
0.45590 0.65010 0.41736
0.46121 0.65133 0.41860
0.46785 0.65289 0.42016
0.47582 0.65478 0.42205
0.48509 0.65701 0.42426
0.49562 0.65958 0.42680
0.50736 0.66249 0.42965
0.52025 0.66573 0.43279
0.53423 0.66930 0.43619
0.54923 0.67318 0.43981
0.56518 0.67735 0.44356
0.58200 0.68178 0.44731
0.59962 0.68645 0.45099
0.61795 0.69136 0.45460
0.63690 0.69648 0.45807
0.65635 0.70176 0.46130
0.67617 0.70717 0.46422
0.69621 0.71263 0.46674
0.71633 0.71810 0.46878
0.73635 0.72354 0.47021
0.75613 0.72890 0.47091
0.77549 0.73416 0.47082
0.79429 0.73930 0.46994
0.81237 0.74431 0.46822
0.82964 0.74916 0.46566
0.84605 0.75385 0.46236
0.86170 0.75837 0.45854
0.87683 0.76279 0.45457
0.89179 0.76719 0.45086
0.48071 0.68898 0.44830
0.48300 0.68951 0.44879
0.48560 0.69011 0.44934
0.48932 0.69097 0.45013
0.49425 0.69212 0.45119
0.50043 0.69357 0.45252
0.50786 0.69533 0.45413
0.51653 0.69740 0.45602
0.52641 0.69978 0.45818
0.53745 0.70248 0.46061
0.54961 0.70547 0.46329
0.56282 0.70875 0.46619
0.57703 0.71231 0.46925
0.59217 0.71613 0.47244
0.60817 0.72018 0.47570
0.62494 0.72446 0.47892
0.64239 0.72891 0.48196
0.66041 0.73351 0.48476
0.67889 0.73822 0.48730
0.69770 0.74302 0.48951
0.71670 0.74785 0.49132
0.73576 0.75269 0.49260
0.75470 0.75749 0.49324
0.77339 0.76223 0.49314
0.79165 0.76687 0.49220
0.80934 0.77139 0.49034
0.82633 0.77579 0.48759
0.84256 0.78003 0.48397
0.85803 0.78411 0.47961
0.87286 0.78805 0.47473
0.88731 0.79191 0.46962
0.90163 0.79572 0.46455
0.51316 0.72775 0.48006
0.51527 0.72823 0.48046
0.51767 0.72877 0.48092
0.52112 0.72956 0.48157
0.52569 0.73060 0.48245
0.53143 0.73191 0.48355
0.53834 0.73351 0.48488
0.54643 0.73538 0.48645
0.55567 0.73754 0.48824
0.56603 0.73997 0.49027
0.57747 0.74267 0.49250
0.58992 0.74562 0.49492
0.60335 0.74883 0.49750
0.61768 0.75226 0.50018
0.63284 0.75589 0.50289
0.64874 0.75970 0.50554
0.66529 0.76366 0.50806
0.68238 0.76775 0.51036
0.69989 0.77192 0.51234
0.71770 0.77615 0.51395
0.73567 0.78041 0.51513
0.75367 0.78468 0.51581
0.77155 0.78891 0.51586
0.78913 0.79308 0.51515
0.80629 0.79715 0.51355
0.82289 0.80112 0.51101
0.83885 0.80495 0.50748
0.85413 0.80863 0.50299
0.86876 0.81217 0.49769
0.88287 0.81559 0.49178
0.89669 0.81891 0.48546
0.91043 0.82211 0.47893
0.54398 0.76366 0.51065
0.54592 0.76408 0.51098
0.54815 0.76457 0.51135
0.55133 0.76526 0.51188
0.55557 0.76619 0.51259
0.56090 0.76736 0.51349
0.56734 0.76878 0.51458
0.57488 0.77045 0.51586
0.58352 0.77236 0.51733
0.59323 0.77453 0.51898
0.60397 0.77692 0.52081
0.61570 0.77955 0.52279
0.62835 0.78239 0.52490
0.64188 0.78543 0.52711
0.65620 0.78865 0.52935
0.67124 0.79203 0.53155
0.68688 0.79553 0.53360
0.70304 0.79914 0.53541
0.71958 0.80282 0.53693
0.73639 0.80655 0.53810
0.75333 0.81031 0.53883
0.77027 0.81405 0.53904
0.78705 0.81775 0.53867
0.80355 0.82139 0.53760
0.81965 0.82495 0.53569
0.83525 0.82839 0.53272
0.85026 0.83169 0.52864
0.86468 0.83486 0.52348
0.87854 0.83790 0.51735
0.89201 0.84082 0.51044
0.90525 0.84361 0.50292
0.91844 0.84623 0.49492
0.57373 0.79652 0.54067
0.57553 0.79690 0.54093
0.57759 0.79732 0.54123
0.58054 0.79794 0.54166
0.58446 0.79875 0.54223
0.58941 0.79978 0.54294
0.59539 0.80103 0.54381
0.60242 0.80250 0.54484
0.61048 0.80419 0.54601
0.61956 0.80610 0.54734
0.62962 0.80822 0.54882
0.64063 0.81053 0.55042
0.65252 0.81304 0.55213
0.66524 0.81571 0.55391
0.67872 0.81855 0.55572
0.69287 0.82152 0.55749
0.70760 0.82461 0.55916
0.72280 0.82779 0.56063
0.73835 0.83103 0.56182
0.75413 0.83429 0.56264
0.77001 0.83756 0.56307
0.78587 0.84081 0.56304
0.80157 0.84402 0.56249
0.81703 0.84716 0.56127
0.83213 0.85021 0.55921
0.84677 0.85315 0.55609
0.86089 0.85598 0.55169
0.87450 0.85869 0.54602
0.88767 0.86126 0.53919
0.90051 0.86370 0.53139
0.91321 0.86599 0.52275
0.92583 0.86811 0.51336
0.60330 0.82664 0.57082
0.60495 0.82697 0.57102
0.60684 0.82734 0.57125
0.60956 0.82788 0.57158
0.61318 0.82859 0.57203
0.61775 0.82949 0.57259
0.62329 0.83058 0.57327
0.62981 0.83187 0.57407
0.63730 0.83335 0.57500
0.64575 0.83502 0.57606
0.65513 0.83687 0.57723
0.66540 0.83889 0.57851
0.67651 0.84108 0.57989
0.68840 0.84341 0.58132
0.70100 0.84589 0.58278
0.71422 0.84848 0.58422
0.72798 0.85117 0.58557
0.74217 0.85393 0.58676
0.75667 0.85674 0.58773
0.77137 0.85956 0.58842
0.78616 0.86236 0.58876
0.80092 0.86513 0.58869
0.81556 0.86785 0.58811
0.82997 0.87050 0.58687
0.84406 0.87307 0.58476
0.85776 0.87557 0.58153
0.87103 0.87796 0.57693
0.88388 0.88025 0.57081
0.89635 0.88241 0.56329
0.90856 0.88445 0.55455
0.92064 0.88637 0.54478
0.93261 0.88820 0.53411
0.63343 0.85470 0.60169
0.63494 0.85498 0.60184
0.63667 0.85530 0.60202
0.63916 0.85575 0.60227
0.64248 0.85637 0.60261
0.64667 0.85714 0.60304
0.65176 0.85808 0.60356
0.65776 0.85919 0.60419
0.66467 0.86046 0.60491
0.67247 0.86189 0.60574
0.68113 0.86348 0.60667
0.69062 0.86521 0.60770
0.70089 0.86709 0.60881
0.71189 0.86909 0.60999
0.72354 0.87121 0.61122
0.73577 0.87342 0.61246
0.74848 0.87571 0.61366
0.76159 0.87806 0.61477
0.77498 0.88042 0.61573
0.78855 0.88279 0.61647
0.80221 0.88512 0.61690
0.81584 0.88742 0.61691
0.82937 0.88966 0.61634
0.84270 0.89185 0.61499
0.85577 0.89398 0.61262
0.86852 0.89606 0.60898
0.88091 0.89806 0.60383
0.89294 0.89999 0.59697
0.90465 0.90184 0.58847
0.91613 0.90366 0.57859
0.92745 0.90548 0.56759
0.93860 0.90731 0.55577
0.66437 0.88151 0.63350
0.66574 0.88174 0.63362
0.66731 0.88201 0.63375
0.66957 0.88239 0.63394
