provia conversion luts/Provia to Bleach Bypass sRGB.cube
# sRGB
# github.com/abpy/FujifilmCameraProfiles
LUT_3D_SIZE 5
DOMAIN_MIN 0.000000 0.000000 0.000000
DOMAIN_MAX 0.903226 0.903226 0.903226
0.01677 0.01766 0.01572
0.11898 0.02789 0.01610
0.25714 0.05554 0.02917
0.41871 0.08237 0.06810
0.56218 0.11826 0.12350
0.10106 0.16194 0.08259
0.16925 0.17060 0.08607
0.30379 0.18397 0.09789
0.45955 0.20073 0.12794
0.60560 0.23646 0.17857
0.22298 0.36740 0.19793
0.27718 0.37468 0.20932
0.39964 0.39509 0.23585
0.55724 0.43110 0.27199
0.72310 0.48885 0.31549
0.44660 0.64797 0.41521
0.48509 0.65701 0.42426
0.58200 0.68178 0.44731
0.71633 0.71810 0.46878
0.84605 0.75385 0.46236
0.66437 0.88151 0.63350
0.68650 0.88525 0.63543
0.74655 0.89522 0.64170
0.83081 0.90836 0.64819
0.91251 0.92020 0.61258
0.02457 0.01560 0.09820
0.12473 0.02732 0.11651
0.25960 0.05508 0.13994
0.42720 0.09224 0.16190
0.57103 0.12397 0.17011
0.10935 0.17446 0.17026
0.18012 0.18211 0.17979
0.31306 0.19885 0.20384
0.47282 0.21799 0.22548
0.61970 0.24881 0.23659
0.24272 0.38572 0.29282
0.29811 0.39395 0.30368
0.42113 0.41717 0.33017
0.58157 0.45704 0.36691
0.74413 0.51136 0.39115
0.46222 0.66480 0.49108
0.50129 0.67378 0.50016
0.59781 0.69744 0.52205
0.72971 0.73084 0.54164
0.85734 0.76365 0.52819
0.67474 0.88717 0.69293
0.69637 0.89067 0.69565
0.75438 0.89982 0.70276
0.83606 0.91161 0.70823
0.91711 0.92210 0.67714
0.04458 0.02700 0.21373
0.13574 0.04093 0.22358
0.27013 0.07476 0.24128
0.43152 0.10812 0.26222
0.58158 0.14273 0.27292
0.12514 0.19095 0.28693
0.19496 0.19926 0.29307
0.32669 0.22045 0.31073
0.48400 0.24410 0.33442
0.63803 0.27704 0.34803
0.26248 0.40833 0.39919
0.31949 0.41876 0.41169
0.44453 0.44651 0.44395
0.60555 0.48946 0.48804
0.76890 0.54136 0.51332
0.47537 0.68262 0.58043
0.51616 0.69160 0.59131
0.61420 0.71414 0.61692
0.74388 0.74488 0.64377
0.87320 0.77561 0.63843
0.68126 0.89395 0.75534
0.70376 0.89749 0.76042
0.76158 0.90596 0.77182
0.84237 0.91706 0.78035
0.92476 0.92863 0.76215
0.06656 0.04633 0.36765
0.15074 0.06425 0.37558
0.28654 0.09774 0.39001
0.44976 0.13228 0.40816
0.60585 0.17350 0.42103
0.14258 0.21230 0.42279
0.21148 0.22118 0.43112
0.34865 0.24592 0.45286
0.51126 0.27909 0.48199
0.66968 0.32347 0.50843
0.28593 0.43820 0.52392
0.34532 0.45002 0.53875
0.47580 0.48061 0.57651
0.63400 0.52550 0.62813
0.79276 0.58140 0.67339
0.48847 0.70064 0.67810
0.53023 0.70940 0.69039
0.62931 0.73074 0.71995
0.75662 0.75962 0.75599
0.88596 0.78739 0.77266
0.68619 0.90025 0.81837
0.70919 0.90356 0.82415
0.76804 0.91178 0.83829
0.84947 0.92330 0.85442
0.93324 0.93464 0.85423
0.08442 0.07029 0.53479
0.16467 0.08398 0.53986
0.30422 0.11989 0.54488
0.47537 0.16148 0.56895
0.63765 0.21089 0.59645
0.16636 0.24212 0.54864
0.23114 0.25233 0.55695
0.37308 0.28365 0.58382
0.54422 0.32418 0.62364
0.70649 0.37246 0.66772
0.30451 0.46825 0.62919
0.36304 0.48031 0.64500
0.49734 0.51299 0.68673
0.65872 0.55952 0.74398
0.81629 0.61161 0.80242
0.49272 0.71593 0.75935
0.53558 0.72478 0.77338
0.63633 0.74575 0.80716
0.76358 0.77158 0.84944
0.89057 0.79691 0.88551
0.68191 0.90444 0.87409
0.70572 0.90778 0.88055
0.76708 0.91618 0.89691
0.85243 0.92795 0.91927
0.93884 0.94062 0.93831
