provia conversion luts/Provia to Classic Neg sRGB.cube
# sRGB
# github.com/abpy/FujifilmCameraProfiles
LUT_3D_SIZE 8
DOMAIN_MIN 0.000000 0.000000 0.000000
DOMAIN_MAX 0.903226 0.903226 0.903226
0.00923 0.01141 0.00931
0.08403 0.01063 0.00000
0.17652 0.01676 0.00000
0.28674 0.02587 0.00000
0.43102 0.04594 0.00000
0.58683 0.07292 0.00000
0.72562 0.08742 0.00000
0.82698 0.09835 0.00000
0.00000 0.10144 0.02807
0.08128 0.10623 0.02189
0.17681 0.11007 0.01703
0.28940 0.11751 0.01118
0.43633 0.13081 0.00000
0.59529 0.14507 0.00000
0.73371 0.15128 0.00000
0.83261 0.15399 0.00000
0.00000 0.19894 0.07554
0.08222 0.20198 0.06784
0.18009 0.20737 0.05619
0.29569 0.21595 0.04256
0.44493 0.22930 0.02674
0.60945 0.24251 0.00752
0.74927 0.24898 0.00000
0.84511 0.24660 0.00000
0.00000 0.31479 0.13456
0.07186 0.31676 0.12920
0.18385 0.32154 0.11984
0.30983 0.33016 0.10641
0.46352 0.34344 0.08850
0.62932 0.35823 0.07057
0.76985 0.36832 0.06178
0.86392 0.36613 0.06454
0.00000 0.45517 0.22110
0.02410 0.45741 0.21803
0.18828 0.46313 0.21150
0.33368 0.47334 0.20059
0.49551 0.48812 0.18407
0.66052 0.50421 0.16607
0.79566 0.51538 0.15665
0.88489 0.51381 0.16097
0.00000 0.60798 0.32116
0.00000 0.61063 0.31836
0.20357 0.61744 0.31167
0.36730 0.62935 0.30069
0.53596 0.64532 0.28492
0.69594 0.66139 0.26811
0.82013 0.67127 0.25732
0.90147 0.67024 0.26020
0.00000 0.73911 0.40296
0.01373 0.74185 0.39996
0.23580 0.74882 0.39260
0.40401 0.76074 0.38084
0.57187 0.77643 0.36641
0.72497 0.79215 0.35307
0.83994 0.80321 0.34853
0.91348 0.80595 0.35672
0.00000 0.83880 0.47025
0.00000 0.84138 0.46753
0.20706 0.84800 0.46067
0.39080 0.85952 0.44931
0.56448 0.87515 0.43545
0.72390 0.89155 0.42399
0.84511 0.90385 0.42305
0.91909 0.90966 0.43198
0.01634 0.01097 0.06880
0.09978 0.01243 0.05028
0.19207 0.01527 0.03884
0.30659 0.02103 0.02766
0.45543 0.04151 0.01749
0.61062 0.07222 0.00339
0.74377 0.08994 0.00000
0.83706 0.10324 0.00000
0.01527 0.11084 0.12105
0.10160 0.11447 0.10765
0.19535 0.11460 0.08877
0.30969 0.11942 0.07024
0.45774 0.13320 0.05269
0.61573 0.14817 0.03129
0.74959 0.15578 0.00557
0.84165 0.15822 0.00000
0.01845 0.21036 0.16881
0.09960 0.21323 0.16066
0.19645 0.21793 0.14592
0.31328 0.22553 0.12787
0.46249 0.23837 0.10851
0.62496 0.25081 0.08797
0.76149 0.25682 0.06816
0.85297 0.25124 0.05694
0.00000 0.32666 0.22037
0.09126 0.32870 0.21478
0.19958 0.33360 0.20384
0.32569 0.34237 0.18826
0.47875 0.35576 0.16926
0.64238 0.37022 0.15094
0.78022 0.37897 0.13959
0.87161 0.37345 0.13605
0.00000 0.46636 0.29115
0.06349 0.46872 0.28782
0.20624 0.47469 0.28032
0.34934 0.48521 0.26832
0.50938 0.50005 0.25117
0.67184 0.51588 0.23348
0.80455 0.52600 0.22297
0.89188 0.52207 0.22356
0.00000 0.61638 0.37643
0.03961 0.61911 0.37363
0.22314 0.62604 0.36687
0.38150 0.63797 0.35592
0.54697 0.65369 0.34077
0.70431 0.66926 0.32443
0.82726 0.67871 0.31401
0.90752 0.67659 0.31619
0.00000 0.74363 0.44943
0.07479 0.74641 0.44654
0.25226 0.75344 0.43946
0.41437 0.76538 0.42827
0.57915 0.78102 0.41479
0.73095 0.79666 0.40225
0.84610 0.80752 0.39778
0.91951 0.80961 0.40681
0.00000 0.84134 0.51079
0.00000 0.84389 0.50822
0.21675 0.85043 0.50176
0.39429 0.86180 0.49104
0.56611 0.87730 0.47784
0.72587 0.89363 0.46699
0.84827 0.90575 0.46653
0.92302 0.91087 0.47661
0.04174 0.01835 0.14764
0.11388 0.01988 0.13270
0.20559 0.02322 0.11518
0.31976 0.03187 0.09780
0.46754 0.05581 0.08031
0.62447 0.08049 0.06121
0.75462 0.10012 0.04712
0.84266 0.11903 0.04925
0.02547 0.12372 0.19887
0.11132 0.12457 0.18573
0.20780 0.12564 0.16592
0.32399 0.13090 0.14335
0.47198 0.14477 0.12068
0.62916 0.15711 0.09812
0.75939 0.16642 0.08298
0.84727 0.16946 0.07977
0.03199 0.22217 0.24557
0.11079 0.22486 0.23893
0.20823 0.22955 0.22608
0.32902 0.23939 0.21044
0.47859 0.25277 0.18927
0.63791 0.26461 0.16658
0.77077 0.27022 0.14966
0.85986 0.26023 0.14028
0.02393 0.34004 0.30696
0.10985 0.34245 0.30314
0.21665 0.34817 0.29461
0.34444 0.35877 0.28163
0.49704 0.37398 0.26427
0.65701 0.38908 0.24602
0.79084 0.39604 0.23184
0.88028 0.38529 0.22361
0.00000 0.48180 0.38371
0.11009 0.48454 0.38091
0.23469 0.49132 0.37405
0.37407 0.50284 0.36266
0.53017 0.51844 0.34737
0.68676 0.53419 0.33173
0.81516 0.54247 0.32063
0.90098 0.53432 0.31680
0.00000 0.62918 0.46447
0.12276 0.63206 0.46195
0.25889 0.63922 0.45567
0.40662 0.65119 0.44534
0.56448 0.66667 0.43173
0.71589 0.68174 0.41755
0.83635 0.69029 0.40796
0.91612 0.68605 0.40820
0.03339 0.75166 0.53304
0.14924 0.75449 0.53051
0.28465 0.76160 0.52428
0.43363 0.77352 0.51428
0.58999 0.78895 0.50213
0.73757 0.80440 0.49096
0.85340 0.81482 0.48624
0.92811 0.81591 0.49355
0.00000 0.84706 0.58878
0.07283 0.84956 0.58653
0.25067 0.85594 0.58079
0.41029 0.86697 0.57114
0.57376 0.88198 0.55895
0.73041 0.89792 0.54837
0.85298 0.90967 0.54680
0.92856 0.91400 0.55515
0.06965 0.03094 0.24219
0.13119 0.03360 0.23102
0.22212 0.03562 0.21046
0.33591 0.04901 0.19147
0.48221 0.07397 0.17275
0.63643 0.09090 0.15110
0.76331 0.10089 0.13480
0.84943 0.11429 0.13603
0.05581 0.13935 0.29129
0.12850 0.13855 0.27956
0.22418 0.13820 0.25883
0.34118 0.14524 0.23605
0.48810 0.15910 0.21217
0.64215 0.16794 0.18617
0.76894 0.17191 0.16805
0.85480 0.17045 0.16435
0.05993 0.23583 0.33720
0.12917 0.23818 0.33068
0.22670 0.24415 0.31821
0.34707 0.25430 0.30157
0.49572 0.26818 0.28081
0.65197 0.27916 0.25739
0.78145 0.28205 0.23891
0.86854 0.26860 0.22857
0.06185 0.35387 0.39716
0.13279 0.35657 0.39344
0.23626 0.36328 0.38558
0.36207 0.37431 0.37382
0.51442 0.39101 0.35894
0.67160 0.40670 0.34242
0.80172 0.41200 0.32818
0.88918 0.39714 0.31762
0.07496 0.49675 0.47503
0.15056 0.49970 0.47248
0.26335 0.50692 0.46629
0.39855 0.51899 0.45612
0.55031 0.53500 0.44288
0.70142 0.55066 0.42950
0.82538 0.55742 0.41913
0.90954 0.54633 0.41274
0.11629 0.64144 0.55663
0.18497 0.64440 0.55432
0.29803 0.65171 0.54850
0.43501 0.66370 0.53877
0.58429 0.67898 0.52618
0.72843 0.69360 0.51348
0.84506 0.70125 0.50481
0.92412 0.69559 0.50245
0.15466 0.76079 0.62674
0.21607 0.76368 0.62448
0.32506 0.77088 0.61879
0.45975 0.78277 0.60943
0.60511 0.79789 0.59787
0.74440 0.81274 0.58693
0.85784 0.82249 0.58081
0.93363 0.82326 0.58278
0.12637 0.85479 0.68117
0.19585 0.85728 0.67901
0.31030 0.86360 0.67350
0.44702 0.87430 0.66416
0.59451 0.88850 0.65212
0.73907 0.90350 0.64074
0.85758 0.91494 0.63534
0.93331 0.91929 0.63745
0.09453 0.05183 0.35469
0.15122 0.05374 0.34439
0.24202 0.05777 0.32276
0.35618 0.07412 0.30161
0.50090 0.09626 0.28070
0.65213 0.10992 0.25737
0.77604 0.11568 0.23995
0.85931 0.11462 0.23614
0.08529 0.15580 0.39854
0.14896 0.15530 0.38794
0.24420 0.15593 0.36720
0.36277 0.16401 0.34400
0.50871 0.17701 0.31914
0.65943 0.18508 0.29251
0.78270 0.18679 0.27333
0.86538 0.17690 0.26533
0.09248 0.25464 0.44444
0.15366 0.25692 0.43827
0.25074 0.26351 0.42599
0.37318 0.27489 0.40929
0.52027 0.28822 0.38763
0.67179 0.29844 0.36402
0.79638 0.29922 0.34494
0.87986 0.28194 0.33155
0.10464 0.37417 0.50508
0.16543 0.37736 0.50138
0.26629 0.38516 0.49317
0.39324 0.39760 0.48081
0.54118 0.41301 0.46483
0.69212 0.42692 0.44808
0.81667 0.43017 0.43340
0.90047 0.41348 0.42119
0.13298 0.51564 0.58003
0.19272 0.51871 0.57698
0.29718 0.52610 0.56959
0.42845 0.53786 0.55780
0.57645 0.55298 0.54354
0.72179 0.56772 0.53050
0.83986 0.57321 0.52008
0.92025 0.56106 0.51213
0.18332 0.65520 0.65522
0.23635 0.65822 0.65256
0.33703 0.66559 0.64602
0.46671 0.67746 0.63545
0.60980 0.69230 0.62240
0.74738 0.70638 0.60990
0.85814 0.71318 0.60075
0.93399 0.70735 0.59670
0.22251 0.77117 0.72353
0.26979 0.77409 0.72121
0.36428 0.78131 0.71538
0.48906 0.79306 0.70562
0.62687 0.80773 0.69311
0.75908 0.82180 0.68077
0.86664 0.83078 0.67253
0.94012 0.83150 0.67071
0.21393 0.86201 0.77810
0.26268 0.86455 0.77580
0.35924 0.87096 0.76989
0.48633 0.88179 0.75967
0.62560 0.89584 0.74623
0.75722 0.91002 0.73302
0.86508 0.92073 0.72402
0.93881 0.92494 0.72080
0.12200 0.07606 0.47050
0.17427 0.07904 0.46161
0.26463 0.08643 0.44177
0.38039 0.10111 0.41775
0.52304 0.11972 0.39364
0.67157 0.13411 0.37000
0.79248 0.14090 0.35341
0.87191 0.13086 0.34505
0.11127 0.17408 0.51063
0.17043 0.17486 0.50151
0.26690 0.17733 0.48178
0.38770 0.18526 0.45728
0.53265 0.19744 0.43094
0.68037 0.20739 0.40524
0.79976 0.20943 0.38644
0.87827 0.19485 0.37460
0.12308 0.27762 0.55805
0.18048 0.27989 0.55219
0.27825 0.28639 0.53968
0.40287 0.29801 0.52195
0.54847 0.31196 0.49990
0.69517 0.32264 0.47678
0.81393 0.32230 0.45707
0.89287 0.30362 0.44093
0.14719 0.39918 0.61978
0.20197 0.40255 0.61599
0.30070 0.41085 0.60721
0.42720 0.42398 0.59360
0.57170 0.43939 0.57630
0.71557 0.45172 0.55814
0.83300 0.45286 0.54189
0.91276 0.43548 0.52748
0.18423 0.53827 0.69019
0.23573 0.54151 0.68673
0.33366 0.54931 0.67840
0.46093 0.56151 0.66530
0.60365 0.57598 0.64938
0.74305 0.58851 0.63410
0.85534 0.59194 0.62157
0.93163 0.57872 0.61120
0.23994 0.67172 0.75595
0.28465 0.67482 0.75297
0.37595 0.68234 0.74569
0.49901 0.69422 0.73402
0.63716 0.70843 0.71961
0.76900 0.72077 0.70525
0.87441 0.72729 0.69522
0.94455 0.72169 0.68896
0.27953 0.78346 0.81808
0.31916 0.78637 0.81553
0.40341 0.79347 0.80915
0.51974 0.80479 0.79864
0.65090 0.81858 0.78515
0.77745 0.83155 0.77135
0.87963 0.84005 0.76122
0.94845 0.84083 0.75648
0.26391 0.86976 0.87014
0.30404 0.87220 0.86778
0.38923 0.87834 0.86176
0.50761 0.88867 0.85136
0.64247 0.90220 0.83724
0.77243 0.91595 0.82217
0.87594 0.92615 0.81043
0.94589 0.93020 0.80380
0.15141 0.10936 0.58599
0.19986 0.11282 0.57801
0.29059 0.12021 0.55855
0.40937 0.13162 0.53157
0.55106 0.14736 0.50503
0.69527 0.16179 0.48181
0.81113 0.16658 0.46399
0.88577 0.15333 0.45148
0.13962 0.19858 0.62080
0.19534 0.20004 0.61240
0.29298 0.20325 0.59282
0.41651 0.21053 0.56656
0.56041 0.22260 0.53959
0.70383 0.23341 0.51488
0.81788 0.23445 0.49505
0.89175 0.21778 0.47924
0.15382 0.30605 0.66887
0.20920 0.30817 0.66277
0.30797 0.31402 0.64879
0.43344 0.32466 0.62835
0.57672 0.33832 0.60480
0.71787 0.34879 0.58097
0.83026 0.34791 0.55990
0.90508 0.32881 0.54088
0.18686 0.42760 0.72622
0.23774 0.43064 0.72176
0.33404 0.43816 0.71111
0.45863 0.45037 0.69464
0.59881 0.46514 0.67491
0.73558 0.47692 0.65520
0.84666 0.47746 0.63716
0.92312 0.46049 0.62077
0.22979 0.56165 0.78655
0.27582 0.56473 0.78264
0.36793 0.57219 0.77324
0.49027 0.58393 0.75873
0.62693 0.59788 0.74153
0.75905 0.60955 0.72472
0.86642 0.61229 0.71042
0.94030 0.59932 0.69797
0.28722 0.68902 0.84499
0.32699 0.69208 0.84182
0.41143 0.69950 0.83405
0.52789 0.71111 0.82153
0.65889 0.72476 0.80597
0.78423 0.73662 0.79056
0.88425 0.74198 0.77825
0.95164 0.73706 0.76962
0.33675 0.79653 0.90039
0.37139 0.79939 0.89767
0.44770 0.80635 0.89089
0.55594 0.81725 0.87965
0.67892 0.83020 0.86524
0.79723 0.84211 0.85048
0.89103 0.84903 0.83805
0.95538 0.85043 0.83118
0.34119 0.87980 0.94179
0.37414 0.88224 0.93950
0.44771 0.88827 0.93375
0.55342 0.89802 0.92416
0.67439 0.91012 0.91156
0.79177 0.92219 0.89782
0.88707 0.93146 0.88564
0.95231 0.93566 0.87716
0.21388 0.15632 0.70894
0.25614 0.15876 0.70097
0.34224 0.16364 0.67930
0.45687 0.17008 0.64256
0.59154 0.18110 0.60735
0.72614 0.19202 0.58210
0.83029 0.19428 0.56202
0.89876 0.18102 0.54587
0.18390 0.23389 0.72699
0.23376 0.23534 0.71818
0.32937 0.23892 0.69703
0.45406 0.24658 0.66640
0.59676 0.25888 0.63713
0.73271 0.26827 0.61200
0.83626 0.26790 0.59041
0.90482 0.25164 0.57194
0.17947 0.34177 0.76288
0.23419 0.34425 0.75652
0.33635 0.35164 0.74226
0.46841 0.36592 0.72236
0.61327 0.38197 0.69893
0.74692 0.39227 0.67436
0.84923 0.39130 0.65227
0.91860 0.37328 0.63205
0.22860 0.46188 0.81401
0.27669 0.46552 0.80968
0.37284 0.47505 0.79958
0.50031 0.49072 0.78401
0.63900 0.50763 0.76416
0.76693 0.51990 0.74401
0.86678 0.52198 0.72635
0.93592 0.50727 0.70904
0.28233 0.59150 0.86871
0.32567 0.59503 0.86512
0.41600 0.60357 0.85630
0.53729 0.61658 0.84208
0.66886 0.63127 0.82483
0.78993 0.64332 0.80808
0.88444 0.64726 0.79377
0.95048 0.63728 0.78093
0.35201 0.71211 0.91952
0.38833 0.71538 0.91657
0.46764 0.72316 0.90933
0.57818 0.73483 0.89757
0.69993 0.74780 0.88261
0.81182 0.75868 0.86710
0.89873 0.76414 0.85439
0.95887 0.75979 0.84368
0.41191 0.81294 0.95877
0.44229 0.81575 0.95671
0.51095 0.82244 0.95153
0.61008 0.83268 0.94275
0.72194 0.84450 0.93082
0.82614 0.85505 0.91768
0.90697 0.86148 0.90587
0.96214 0.86160 0.89616
0.41681 0.89055 0.98340
0.44518 0.89288 0.98211
0.51031 0.89857 0.97874
0.60611 0.90761 0.97277
0.71596 0.91866 0.96454
0.82007 0.92966 0.95525
0.90289 0.93866 0.94629
0.96048 0.94359 0.93876
