provia conversion luts/Provia to Classic Neg DisplayP3.cube
# DisplayP3
# github.com/abpy/FujifilmCameraProfiles
LUT_3D_SIZE 32
0.00962 0.01134 0.00946
0.02347 0.01013 0.00462
0.03862 0.00952 0.00102
0.06016 0.01015 0.00000
0.08337 0.01072 0.00000
0.10741 0.01147 0.00000
0.12956 0.01137 0.00000
0.15451 0.01180 0.00000
0.18007 0.01315 0.00000
0.20584 0.01158 0.00000
0.23679 0.01461 0.00000
0.26843 0.01761 0.00000
0.30091 0.01874 0.00000
0.33909 0.02726 0.00000
0.37799 0.03615 0.00000
0.41429 0.04372 0.00000
0.45331 0.05665 0.00000
0.49313 0.06517 0.00000
0.53071 0.07133 0.00000
0.56731 0.07876 0.00000
0.60280 0.08323 0.00000
0.63500 0.08851 0.00000
0.66464 0.09282 0.00000
0.69147 0.09608 0.00000
0.71499 0.10089 0.00000
0.73611 0.10557 0.00000
0.75525 0.11231 0.00000
0.77255 0.11898 0.00000
0.78812 0.12410 0.00000
0.80226 0.12946 0.00000
0.81541 0.13812 0.00000
0.82826 0.15207 0.00000
0.00771 0.02907 0.01388
0.02274 0.03078 0.01170
0.03789 0.03141 0.01006
0.06006 0.03190 0.00746
0.08388 0.03292 0.00524
0.10727 0.03351 0.00000
0.12837 0.03296 0.00170
0.15399 0.03396 0.00000
0.17888 0.03510 0.00000
0.20421 0.03328 0.00000
0.23595 0.03731 0.00000
0.26703 0.03991 0.00000
0.29982 0.04186 0.00000
0.33862 0.04973 0.00000
0.37739 0.05680 0.00000
0.41363 0.06312 0.00000
0.45328 0.07358 0.00000
0.49332 0.08044 0.00000
0.53099 0.08598 0.00000
0.56784 0.09243 0.00000
0.60349 0.09619 0.00000
0.63574 0.10106 0.00000
0.66544 0.10470 0.00000
0.69230 0.10750 0.00000
0.71579 0.11170 0.00000
0.73689 0.11564 0.00000
0.75599 0.12155 0.00000
0.77325 0.12722 0.00000
0.78874 0.13135 0.00000
0.80279 0.13572 0.00000
0.81586 0.14339 0.00000
0.82863 0.15629 0.00000
0.00676 0.05012 0.01739
0.02108 0.05291 0.01550
0.03715 0.05452 0.01365
0.06043 0.05598 0.01229
0.08438 0.05709 0.01024
0.10715 0.05697 0.00726
0.12806 0.05830 0.00898
0.15358 0.05747 0.00000
0.17735 0.05800 0.00000
0.20303 0.05796 0.00000
0.23500 0.06033 0.00000
0.26491 0.06208 0.00000
0.29878 0.06458 0.00000
0.33804 0.07007 0.00000
0.37637 0.07554 0.00000
0.41281 0.08144 0.00000
0.45323 0.08986 0.00000
0.49347 0.09552 0.00000
0.53125 0.10075 0.00000
0.56843 0.10628 0.00000
0.60426 0.10946 0.00000
0.63656 0.11403 0.00000
0.66636 0.11704 0.00000
0.69325 0.11946 0.00000
0.71670 0.12306 0.00000
0.73778 0.12631 0.00000
0.75685 0.13144 0.00000
0.77404 0.13612 0.00000
0.78945 0.13921 0.00000
0.80341 0.14257 0.00000
0.81637 0.14920 0.00000
0.82905 0.16099 0.00000
0.00512 0.07558 0.02093
0.01919 0.07754 0.01847
0.03590 0.07909 0.01673
0.06015 0.08060 0.01523
0.08459 0.08169 0.01370
0.10702 0.08254 0.01261
0.12868 0.08430 0.01169
0.15313 0.08267 0.00705
0.17565 0.08375 0.00925
0.20276 0.08506 0.00321
0.23360 0.08531 0.00000
0.26135 0.08811 0.00479
0.29786 0.08992 0.00000
0.33709 0.09317 0.00000
0.37412 0.09787 0.00000
0.41170 0.10377 0.00000
0.45309 0.10967 0.00000
0.49350 0.11436 0.00000
0.53153 0.11949 0.00000
0.56923 0.12384 0.00000
0.60532 0.12650 0.00000
0.63772 0.13077 0.00000
0.66766 0.13302 0.00000
0.69460 0.13508 0.00000
0.71800 0.13797 0.00000
0.73907 0.14043 0.00000
0.75807 0.14461 0.00000
0.77519 0.14806 0.00000
0.79047 0.14986 0.00000
0.80430 0.15192 0.00000
0.81712 0.15720 0.00000
0.82967 0.16749 0.00000
0.00244 0.09949 0.02758
0.01692 0.10097 0.02473
0.03489 0.10248 0.02217
0.05978 0.10426 0.01958
0.08402 0.10588 0.01737
0.10696 0.10726 0.01557
0.12986 0.10774 0.01413
0.15291 0.10767 0.01282
0.17524 0.11015 0.01344
0.20280 0.11073 0.00866
0.23174 0.11108 0.00708
0.25858 0.11697 0.01480
0.29727 0.11570 0.00000
0.33556 0.11785 0.00000
0.37013 0.12377 0.00777
0.41062 0.12864 0.00000
0.45279 0.13192 0.00000
0.49316 0.13645 0.00000
0.53175 0.14149 0.00000
0.57024 0.14430 0.00000
0.60666 0.14674 0.00000
0.63919 0.15062 0.00000
0.66937 0.15208 0.00000
0.69637 0.15386 0.00000
0.71972 0.15593 0.00000
0.74079 0.15758 0.00000
0.75972 0.16071 0.00000
0.77673 0.16280 0.00000
0.79185 0.16308 0.00000
0.80551 0.16368 0.00000
0.81813 0.16736 0.00000
0.83049 0.17580 0.00000
0.00000 0.12137 0.02444
0.01317 0.12302 0.02202
0.03207 0.12468 0.02055
0.05881 0.12639 0.01912
0.08303 0.12779 0.01741
0.10648 0.12920 0.01618
0.12920 0.13042 0.01526
0.15241 0.13183 0.01429
0.17510 0.13373 0.01335
0.20221 0.13455 0.01312
0.23012 0.13639 0.01537
0.25793 0.14177 0.01738
0.29654 0.14056 0.00581
0.33337 0.14321 0.00619
0.36664 0.15148 0.01972
0.40984 0.15345 0.00000
0.45219 0.15570 0.00000
0.49196 0.16183 0.00353
0.53188 0.16560 0.00000
0.57141 0.16690 0.00000
0.60823 0.16971 0.00000
0.64095 0.17285 0.00000
0.67149 0.17361 0.00000
0.69858 0.17525 0.00000
0.72186 0.17634 0.00000
0.74297 0.17727 0.00000
0.76180 0.17927 0.00000
0.77870 0.17995 0.00000
0.79360 0.17855 0.00000
0.80705 0.17765 0.00000
0.81943 0.17956 0.00000
0.83156 0.18584 0.00000
0.00000 0.14510 0.04037
0.01552 0.14605 0.03710
0.03411 0.14713 0.03389
0.05862 0.14859 0.03005
0.08309 0.15023 0.02601
0.10682 0.15175 0.02262
0.12981 0.15308 0.01993
0.15259 0.15434 0.01739
0.17628 0.15574 0.01728
0.20222 0.15731 0.01620
0.22976 0.15994 0.01751
0.25797 0.16305 0.01506
0.29557 0.16458 0.01294
0.33110 0.16842 0.01702
0.36531 0.17590 0.02337
0.40908 0.17691 0.00893
0.45120 0.18038 0.00628
0.48963 0.18942 0.02494
0.53214 0.19010 0.00000
0.57268 0.19109 0.00000
0.60990 0.19506 0.00000
0.64290 0.19675 0.00000
0.67401 0.19726 0.00000
0.70117 0.19875 0.00000
0.72442 0.19875 0.00000
0.74560 0.19911 0.00000
0.76432 0.19989 0.00000
0.78112 0.19920 0.00000
0.79577 0.19604 0.00000
0.80899 0.19374 0.00000
0.82108 0.19377 0.00000
0.83294 0.19763 0.00000
0.00000 0.16612 0.02448
0.00979 0.16745 0.02245
0.03032 0.16886 0.02215
0.05674 0.17027 0.02008
0.08184 0.17180 0.01967
0.10552 0.17307 0.01674
0.12902 0.17452 0.01605
0.15164 0.17604 0.01468
0.17566 0.17764 0.01736
0.20136 0.17960 0.01353
0.22862 0.18180 0.01234
0.25839 0.18448 0.01252
0.29465 0.18806 0.01665
0.32992 0.19260 0.02162
0.36589 0.19746 0.02161
0.40782 0.19996 0.01405
0.45011 0.20530 0.01997
0.48879 0.21332 0.03308
0.53273 0.21399 0.01518
0.57396 0.21646 0.01249
0.61125 0.22147 0.01588
0.64496 0.22166 0.00000
0.67690 0.22281 0.00000
0.70399 0.22377 0.00000
0.72735 0.22284 0.00000
0.74866 0.22278 0.00000
0.76729 0.22228 0.00000
0.78402 0.22036 0.00000
0.79839 0.21550 0.00000
0.81138 0.21204 0.00000
0.82315 0.21017 0.00000
0.83471 0.21140 0.00000
0.00000 0.19212 0.05352
0.01433 0.19272 0.05064
0.03326 0.19343 0.04757
0.05799 0.19446 0.04343
0.08253 0.19574 0.03823
0.10654 0.19715 0.03276
0.13005 0.19861 0.02890
0.15339 0.20010 0.02779
0.17710 0.20154 0.02532
0.20230 0.20306 0.01985
0.22984 0.20515 0.01787
0.26039 0.20780 0.01551
0.29443 0.21137 0.01685
0.32996 0.21568 0.02144
0.36575 0.21876 0.01617
0.40757 0.22333 0.01692
0.44969 0.22970 0.02646
0.48965 0.23501 0.03240
0.53357 0.23778 0.02614
0.57512 0.24221 0.03194
0.61219 0.24652 0.03297
0.64710 0.24718 0.01174
0.67994 0.24960 0.01378
0.70678 0.24948 0.00000
0.73057 0.24836 0.00000
0.75201 0.24786 0.00000
0.77068 0.24626 0.00000
0.78740 0.24332 0.00000
0.80153 0.23718 0.00000
0.81432 0.23286 0.00000
0.82578 0.22914 0.00000
0.83708 0.22783 0.00000
0.00000 0.21652 0.05551
0.01682 0.21752 0.05465
0.03627 0.21847 0.05190
0.06041 0.21954 0.04608
0.08412 0.22059 0.03785
0.10748 0.22155 0.03041
0.13029 0.22252 0.02402
0.15315 0.22374 0.02348
0.17639 0.22489 0.01926
0.20167 0.22632 0.01104
0.23021 0.22879 0.01414
0.26005 0.23119 0.00922
0.29391 0.23457 0.01152
0.32878 0.23824 0.01387
0.36594 0.24175 0.01038
0.40842 0.24791 0.01893
0.45019 0.25374 0.02762
0.49004 0.25716 0.02769
0.53458 0.26231 0.03315
0.57614 0.26745 0.04193
0.61255 0.27068 0.04016
0.64939 0.27320 0.03156
0.68257 0.27607 0.03597
0.70924 0.27535 0.01990
0.73389 0.27490 0.01654
0.75544 0.27375 0.00647
0.77442 0.27167 0.00000
0.79116 0.26790 0.00000
0.80526 0.26149 0.00000
0.81783 0.25645 0.00000
0.82907 0.25120 0.00000
0.84026 0.24788 0.00000
0.00000 0.24388 0.06246
0.01372 0.24438 0.05993
0.03287 0.24497 0.05716
0.05783 0.24579 0.05326
0.08239 0.24678 0.04795
0.10616 0.24783 0.04089
0.12932 0.24886 0.03301
0.15259 0.25001 0.02726
0.17687 0.25146 0.02477
0.20265 0.25320 0.02291
0.23030 0.25500 0.01810
0.26097 0.25732 0.01533
0.29440 0.26049 0.01819
0.32947 0.26373 0.01401
0.36825 0.26801 0.01271
0.40999 0.27368 0.02156
0.45090 0.27834 0.02619
0.49096 0.28150 0.02457
0.53607 0.28790 0.03668
0.57726 0.29261 0.04408
0.61437 0.29553 0.04245
0.65181 0.29976 0.04524
0.68440 0.30190 0.05028
0.71148 0.30169 0.04067
0.73705 0.30179 0.04473
0.75887 0.30021 0.03389
0.77837 0.29827 0.02969
0.79510 0.29391 0.02656
0.80941 0.28830 0.01993
0.82186 0.28267 0.01459
0.83308 0.27635 0.01012
0.84430 0.27186 0.00472
0.00010 0.27314 0.07990
0.01717 0.27374 0.07751
0.03627 0.27424 0.07326
0.06000 0.27476 0.06549
0.08363 0.27534 0.05477
0.10690 0.27606 0.04443
0.12975 0.27694 0.03768
0.15271 0.27792 0.03330
0.17691 0.27915 0.03075
0.20351 0.28105 0.03133
0.23096 0.28256 0.02096
0.26231 0.28504 0.01890
0.29668 0.28853 0.02629
0.33113 0.29119 0.01492
0.36987 0.29514 0.01359
0.41088 0.30026 0.02251
0.45156 0.30429 0.02245
0.49375 0.30870 0.02666
0.53800 0.31510 0.03932
0.57802 0.31858 0.04147
0.61620 0.32211 0.04326
0.65441 0.32725 0.05389
0.68614 0.32863 0.05798
0.71438 0.32924 0.05367
0.74029 0.32918 0.05860
0.76237 0.32780 0.05100
0.78225 0.32586 0.05135
0.79904 0.32147 0.04803
0.81353 0.31654 0.04617
0.82628 0.31067 0.04224
0.83774 0.30378 0.03511
0.84897 0.29850 0.03065
0.00000 0.30222 0.07899
0.00743 0.30271 0.07730
0.02679 0.30324 0.07529
0.05303 0.30396 0.07221
0.07870 0.30479 0.06766
0.10320 0.30564 0.06123
0.12720 0.30650 0.05284
0.15152 0.30749 0.04394
0.17697 0.30888 0.03853
0.20387 0.31081 0.03927
0.23273 0.31312 0.04198
0.26370 0.31537 0.03817
0.29714 0.31783 0.03136
0.33366 0.32121 0.03062
0.37250 0.32532 0.03360
0.41223 0.32919 0.02919
0.45426 0.33365 0.02876
0.49781 0.33910 0.03743
0.54032 0.34407 0.04349
0.57974 0.34698 0.04072
0.61951 0.35145 0.04841
0.65739 0.35624 0.06044
0.68891 0.35702 0.05944
0.71790 0.35843 0.06142
0.74388 0.35844 0.06577
0.76628 0.35736 0.06208
0.78613 0.35500 0.06378
0.80333 0.35096 0.06102
0.81787 0.34557 0.05994
0.83103 0.33959 0.05655
0.84285 0.33289 0.05107
0.85411 0.32608 0.04721
0.00000 0.33575 0.11309
0.00945 0.33605 0.10964
0.02844 0.33628 0.10484
0.05376 0.33644 0.09685
0.07878 0.33654 0.08539
0.10328 0.33677 0.07232
0.12785 0.33758 0.06414
0.15288 0.33896 0.06259
0.17874 0.34066 0.06401
0.20588 0.34260 0.06611
0.23507 0.34488 0.06812
0.26599 0.34670 0.05788
0.29954 0.34897 0.04600
0.33706 0.35289 0.05039
0.37626 0.35710 0.05286
0.41540 0.36038 0.04011
0.45774 0.36511 0.04295
0.50100 0.37017 0.04824
0.54237 0.37423 0.04712
0.58284 0.37760 0.04749
0.62359 0.38305 0.05945
0.66077 0.38713 0.06720
0.69191 0.38742 0.06190
0.72245 0.39001 0.07037
0.74880 0.39037 0.07480
0.77091 0.38881 0.07097
0.79091 0.38640 0.07296
0.80807 0.38222 0.06959
0.82277 0.37660 0.06802
0.83620 0.37017 0.06498
0.84830 0.36349 0.06086
0.85956 0.35506 0.05711
0.00000 0.36589 0.10706
0.00000 0.36637 0.10605
0.01856 0.36690 0.10485
0.04599 0.36760 0.10302
0.07377 0.36844 0.10033
0.09982 0.36934 0.09647
0.12528 0.37029 0.09124
0.15090 0.37131 0.08466
0.17727 0.37249 0.07730
0.20521 0.37408 0.07135
0.23557 0.37631 0.06897
0.26812 0.37912 0.06925
0.30224 0.38206 0.06677
0.33861 0.38510 0.05983
0.37788 0.38900 0.05827
0.41963 0.39403 0.06683
0.46245 0.39916 0.07238
0.50424 0.40304 0.06483
0.54621 0.40716 0.06139
0.58824 0.41189 0.06696
0.62848 0.41682 0.07421
0.66471 0.41972 0.07474
0.69688 0.42069 0.07086
0.72776 0.42379 0.08148
0.75307 0.42299 0.07878
0.77596 0.42222 0.07977
0.79631 0.42016 0.08267
0.81335 0.41589 0.07921
0.82827 0.41003 0.07632
0.84179 0.40318 0.07305
0.85404 0.39597 0.06959
0.86527 0.38605 0.06552
0.00000 0.40203 0.14722
0.00000 0.40232 0.14443
0.01637 0.40258 0.14095
0.04389 0.40286 0.13555
0.07232 0.40313 0.12810
0.09892 0.40343 0.11921
0.12498 0.40394 0.11029
0.15150 0.40491 0.10336
0.17904 0.40640 0.09903
0.20788 0.40828 0.09634
0.23863 0.41058 0.09483
0.27162 0.41348 0.09594
0.30600 0.41642 0.09367
0.34251 0.41940 0.08447
0.38212 0.42356 0.08263
0.42556 0.42967 0.09693
0.46769 0.43412 0.09338
0.50911 0.43771 0.08168
0.55167 0.44229 0.08078
0.59385 0.44713 0.08492
0.63285 0.45105 0.08471
0.66900 0.45374 0.08385
0.70301 0.45656 0.08714
0.73335 0.45948 0.09445
0.75839 0.45814 0.08790
0.78192 0.45812 0.09246
0.80225 0.45608 0.09396
0.81900 0.45151 0.08962
0.83392 0.44559 0.08565
0.84783 0.43887 0.08382
0.86001 0.43069 0.07932
0.87115 0.41950 0.07461
0.00000 0.43343 0.14240
0.00000 0.43397 0.14205
0.00566 0.43456 0.14162
0.03415 0.43536 0.14089
0.06660 0.43636 0.13970
0.09578 0.43750 0.13774
0.12368 0.43874 0.13466
0.15125 0.44004 0.13029
0.17928 0.44143 0.12475
0.20869 0.44308 0.11878
0.23986 0.44513 0.11349
0.27306 0.44779 0.11065
0.30905 0.45140 0.11114
0.34716 0.45555 0.11166
0.38622 0.45939 0.10678
0.42776 0.46368 0.10156
0.47156 0.46907 0.10344
0.51594 0.47501 0.11000
0.55877 0.48002 0.11057
0.59928 0.48367 0.10312
0.63813 0.48742 0.10041
0.67516 0.49114 0.10245
0.70924 0.49455 0.10612
0.73873 0.49598 0.10562
0.76448 0.49532 0.10054
0.78801 0.49567 0.10670
0.80732 0.49225 0.09986
0.82498 0.48901 0.10300
0.84007 0.48321 0.09907
0.85362 0.47607 0.09394
0.86611 0.46766 0.09161
0.87712 0.45543 0.08416
0.00000 0.47213 0.18930
0.00000 0.47249 0.18718
0.00629 0.47286 0.18460
0.03507 0.47331 0.18072
0.06744 0.47384 0.17546
0.09659 0.47444 0.16908
0.12462 0.47518 0.16217
0.15268 0.47621 0.15562
0.18158 0.47768 0.15036
0.21186 0.47965 0.14657
0.24394 0.48211 0.14389
0.27783 0.48500 0.14172
0.31358 0.48823 0.13916
0.35201 0.49232 0.13783
0.39168 0.49629 0.13123
0.43360 0.50095 0.12639
0.47804 0.50685 0.12972
0.52356 0.51352 0.13839
0.56484 0.51726 0.12786
0.60579 0.52133 0.12137
0.64509 0.52570 0.12097
0.68193 0.52962 0.12154
0.71499 0.53221 0.11999
0.74402 0.53335 0.11789
0.77088 0.53444 0.11968
0.79389 0.53410 0.12122
0.81309 0.53041 0.11176
0.83040 0.52668 0.11222
0.84581 0.52143 0.11004
0.85987 0.51527 0.10963
0.87188 0.50608 0.10204
0.88323 0.49427 0.09698
0.00000 0.50492 0.18855
0.00000 0.50546 0.18822
0.00000 0.50607 0.18781
0.01718 0.50690 0.18712
0.05558 0.50796 0.18604
0.08968 0.50922 0.18443
0.12083 0.51066 0.18219
0.15103 0.51227 0.17931
0.18152 0.51411 0.17577
0.21303 0.51623 0.17157
0.24585 0.51865 0.16688
0.28036 0.52148 0.16220
0.31713 0.52500 0.15878
0.35626 0.52939 0.15750
0.39734 0.53443 0.15731
0.43965 0.53952 0.15503
0.48250 0.54415 0.14799
0.52648 0.54921 0.14288
0.57121 0.55525 0.14514
0.61460 0.56144 0.15080
0.65341 0.56572 0.14847
0.68868 0.56848 0.14110
0.72107 0.57085 0.13757
0.75065 0.57281 0.13776
0.77707 0.57367 0.13747
0.79919 0.57220 0.13230
0.81867 0.56936 0.12686
0.83579 0.56550 0.12448
0.85150 0.56067 0.12233
0.86538 0.55435 0.11960
0.87785 0.54623 0.11801
0.88895 0.53418 0.10620
0.00000 0.54365 0.23173
0.00000 0.54408 0.23023
0.00000 0.54455 0.22843
0.01282 0.54517 0.22573
0.05276 0.54594 0.22201
0.08835 0.54684 0.21734
0.12044 0.54790 0.21199
0.15148 0.54919 0.20638
0.18279 0.55085 0.20100
0.21526 0.55302 0.19627
0.24925 0.55578 0.19239
0.28479 0.55912 0.18940
0.32203 0.56301 0.18725
0.36100 0.56736 0.18505
0.40177 0.57198 0.18122
0.44461 0.57687 0.17539
0.48835 0.58179 0.16776
0.53308 0.58741 0.16412
0.57860 0.59402 0.16779
0.62181 0.60008 0.17074
0.65937 0.60355 0.16293
0.69541 0.60707 0.15926
0.72782 0.60973 0.15600
0.75707 0.61150 0.15401
0.78288 0.61191 0.15074
0.80452 0.61073 0.14700
0.82417 0.60868 0.14431
0.84117 0.60474 0.13762
0.85683 0.60007 0.13430
0.87080 0.59422 0.13258
0.88317 0.58619 0.12769
0.89455 0.57513 0.11824
0.00000 0.57594 0.23052
0.00000 0.57649 0.23018
0.00000 0.57711 0.22976
0.00000 0.57796 0.22908
0.03396 0.57906 0.22807
0.07742 0.58039 0.22663
0.11347 0.58194 0.22462
0.14732 0.58375 0.22196
0.18092 0.58590 0.21879
0.21487 0.58841 0.21523
0.24939 0.59122 0.21133
0.28510 0.59439 0.20710
0.32267 0.59805 0.20251
0.36244 0.60227 0.19760
0.40502 0.60733 0.19394
0.44953 0.61314 0.19201
0.49425 0.61900 0.18935
0.53852 0.62439 0.18372
0.58214 0.62959 0.17759
0.62463 0.63522 0.17676
0.66570 0.64140 0.18356
0.70269 0.64585 0.18387
0.73408 0.64781 0.17493
0.76274 0.64922 0.17001
0.78797 0.64976 0.16797
0.80998 0.64910 0.16475
0.82955 0.64719 0.15957
0.84677 0.64408 0.15476
0.86230 0.63979 0.14959
0.87579 0.63387 0.14401
0.88837 0.62668 0.14027
0.89977 0.61614 0.12713
0.00000 0.61124 0.25987
0.00000 0.61169 0.25857
0.00000 0.61219 0.25707
0.00000 0.61288 0.25491
0.02569 0.61378 0.25212
0.07316 0.61491 0.24883
0.11145 0.61632 0.24525
0.14655 0.61806 0.24162
0.18073 0.62016 0.23808
0.21510 0.62266 0.23455
0.25033 0.62557 0.23091
0.28703 0.62900 0.22704
0.32574 0.63302 0.22290
0.36654 0.63762 0.21845
0.40909 0.64265 0.21319
0.45258 0.64785 0.20659
0.49748 0.65348 0.20203
0.54260 0.65924 0.19752
0.58700 0.66503 0.19342
0.62938 0.67085 0.19209
0.66910 0.67610 0.19057
0.70608 0.68054 0.19015
0.73903 0.68392 0.19159
0.76749 0.68557 0.18688
0.79255 0.68613 0.18213
0.81503 0.68598 0.17923
0.83495 0.68484 0.17648
0.85210 0.68245 0.17174
0.86743 0.67883 0.16548
0.88073 0.67360 0.15924
0.89319 0.66671 0.15141
0.90476 0.65729 0.13807
0.00000 0.64217 0.27210
0.00000 0.64274 0.27154
0.00000 0.64338 0.27085
0.00000 0.64427 0.26975
0.00599 0.64542 0.26811
0.06074 0.64680 0.26584
0.10414 0.64843 0.26291
0.14183 0.65032 0.25943
0.17768 0.65254 0.25569
0.21337 0.65518 0.25196
0.24992 0.65830 0.24821
0.28793 0.66187 0.24415
0.32766 0.66591 0.23957
0.36908 0.67042 0.23454
0.41203 0.67539 0.22939
0.45636 0.68082 0.22482
0.50156 0.68661 0.22076
0.54670 0.69255 0.21612
0.59065 0.69832 0.21032
0.63253 0.70370 0.20479
0.67227 0.70880 0.20227
0.70961 0.71370 0.20533
0.74281 0.71741 0.20584
0.77149 0.71941 0.19938
0.79674 0.72061 0.19547
0.81941 0.72102 0.19215
0.83903 0.72051 0.18939
0.85616 0.71897 0.18586
0.87161 0.71633 0.18110
0.88522 0.71199 0.17458
0.89786 0.70621 0.16563
0.90952 0.69811 0.15108
0.00000 0.67088 0.27816
0.00000 0.67143 0.27776
0.00000 0.67206 0.27729
0.00000 0.67295 0.27661
0.00000 0.67412 0.27564
0.03566 0.67558 0.27433
0.08989 0.67737 0.27270
0.13229 0.67951 0.27076
0.17112 0.68201 0.26838
0.20900 0.68485 0.26540
0.24744 0.68811 0.26197
0.28706 0.69187 0.25824
0.32780 0.69610 0.25405
0.36973 0.70075 0.24932
0.41303 0.70580 0.24412
0.45752 0.71116 0.23827
0.50270 0.71685 0.23170
0.54827 0.72282 0.22620
0.59291 0.72879 0.22222
0.63516 0.73432 0.21775
0.67470 0.73934 0.21298
0.71146 0.74387 0.20946
0.74540 0.74816 0.21048
0.77574 0.75185 0.21487
0.80049 0.75324 0.20717
0.82261 0.75399 0.20098
0.84225 0.75438 0.19955
0.85966 0.75382 0.19685
0.87531 0.75178 0.19191
0.88925 0.74869 0.18666
0.90207 0.74434 0.17826
0.91376 0.73785 0.16244
0.00000 0.69901 0.29573
0.00000 0.69953 0.29486
0.00000 0.70013 0.29385
0.00000 0.70096 0.29240
0.00000 0.70207 0.29049
0.01401 0.70345 0.28816
0.07816 0.70513 0.28549
0.12493 0.70715 0.28260
0.16609 0.70953 0.27963
0.20541 0.71231 0.27666
0.24446 0.71553 0.27359
0.28418 0.71925 0.27027
0.32510 0.72347 0.26651
0.36748 0.72818 0.26212
0.41143 0.73334 0.25700
0.45665 0.73892 0.25128
0.50274 0.74480 0.24512
0.54860 0.75079 0.23801
0.59329 0.75681 0.23135
0.63603 0.76271 0.22671
0.67638 0.76821 0.22279
0.71365 0.77311 0.21831
0.74723 0.77729 0.21512
0.77673 0.78067 0.21313
0.80258 0.78351 0.21526
0.82525 0.78523 0.21058
0.84472 0.78587 0.20308
0.86244 0.78579 0.20064
0.87833 0.78490 0.19794
0.89225 0.78307 0.19143
0.90532 0.78000 0.18411
0.91723 0.77527 0.16813
0.00000 0.72441 0.30629
0.00000 0.72496 0.30570
0.00000 0.72558 0.30497
0.00000 0.72646 0.30380
0.00000 0.72759 0.30207
0.00000 0.72899 0.29969
0.05112 0.73067 0.29666
0.10829 0.73266 0.29312
0.15356 0.73499 0.28931
0.19515 0.73774 0.28550
0.23571 0.74094 0.28191
0.27653 0.74466 0.27857
0.31857 0.74892 0.27518
0.36240 0.75376 0.27126
0.40775 0.75913 0.26658
0.45408 0.76494 0.26118
0.50079 0.77108 0.25523
0.54717 0.77741 0.24933
0.59245 0.78376 0.24374
0.63589 0.78988 0.23756
0.67697 0.79564 0.23171
0.71450 0.80081 0.22672
0.74782 0.80522 0.22252
0.77737 0.80897 0.21992
0.80334 0.81181 0.21348
0.82671 0.81400 0.20862
0.84651 0.81526 0.20292
0.86433 0.81594 0.19763
0.88019 0.81611 0.19367
0.89439 0.81540 0.18749
0.90773 0.81348 0.18038
0.91994 0.81052 0.16827
0.00000 0.74726 0.30453
0.00000 0.74784 0.30431
0.00000 0.74850 0.30401
0.00000 0.74943 0.30349
0.00000 0.75066 0.30262
0.00000 0.75217 0.30122
0.00000 0.75397 0.29920
0.07514 0.75609 0.29659
0.13189 0.75857 0.29363
0.17913 0.76148 0.29058
0.22334 0.76484 0.28757
0.26689 0.76874 0.28466
0.31095 0.77320 0.28180
0.35600 0.77823 0.27881
0.40211 0.78378 0.27537
0.44904 0.78973 0.27114
0.49648 0.79601 0.26614
0.54384 0.80251 0.26055
0.59017 0.80904 0.25472
0.63459 0.81539 0.24905
0.67600 0.82131 0.24260
0.71364 0.82663 0.23663
0.74781 0.83141 0.23175
0.77816 0.83544 0.22546
0.80481 0.83874 0.21844
0.82764 0.84111 0.20694
0.84764 0.84296 0.19816
0.86588 0.84443 0.19250
0.88186 0.84530 0.18767
0.89620 0.84551 0.17905
0.90952 0.84498 0.17081
0.92182 0.84355 0.16207
0.00000 0.76926 0.30338
0.00000 0.76985 0.30324
0.00000 0.77051 0.30308
0.00000 0.77147 0.30280
0.00000 0.77273 0.30234
0.00000 0.77430 0.30155
0.00000 0.77618 0.30027
0.01600 0.77838 0.29839
0.10150 0.78092 0.29602
0.15768 0.78388 0.29344
0.20652 0.78730 0.29088
0.25291 0.79125 0.28847
0.29875 0.79576 0.28631
0.34488 0.80082 0.28436
0.39187 0.80642 0.28229
0.44016 0.81255 0.27956
0.48926 0.81911 0.27570
0.53790 0.82586 0.27094
0.58524 0.83261 0.26561
0.63053 0.83920 0.26017
0.67291 0.84545 0.25497
0.71187 0.85119 0.24920
0.74735 0.85626 0.24257
0.77831 0.86060 0.23543
0.80491 0.86423 0.22658
0.82842 0.86722 0.21524
0.84897 0.86957 0.20300
0.86740 0.87162 0.19343
0.88353 0.87328 0.18550
0.89803 0.87463 0.17479
0.91082 0.87597 0.15429
0.92227 0.87684 0.12863
0.00000 0.79028 0.30566
0.00000 0.79084 0.30547
0.00000 0.79148 0.30525
0.00000 0.79240 0.30495
