provia conversion luts/Provia to Bleach Bypass DisplayP3.cube
# DisplayP3
# github.com/abpy/FujifilmCameraProfiles
LUT_3D_SIZE 5
DOMAIN_MIN 0.000000 0.000000 0.000000
DOMAIN_MAX 0.903226 0.903226 0.903226
0.01693 0.01763 0.01587
0.11142 0.01789 0.00000
0.25379 0.02073 0.00000
0.40375 0.02221 0.00000
0.52553 0.01397 0.00000
0.09130 0.15843 0.06008
0.16370 0.16734 0.05979
0.29824 0.17913 0.06777
0.44266 0.18730 0.09433
0.56722 0.20579 0.15091
0.19913 0.35440 0.14783
0.25976 0.36228 0.16045
0.38516 0.38321 0.18961
0.53912 0.41543 0.22685
0.68923 0.46289 0.26917
0.39188 0.61271 0.33373
0.44134 0.62408 0.34180
0.55370 0.65516 0.37232
0.69641 0.69933 0.40389
0.82509 0.73629 0.40596
0.59779 0.84655 0.49531
0.63112 0.85518 0.50596
0.71140 0.87491 0.52830
0.81259 0.89718 0.53745
0.90083 0.91662 0.47168
0.01424 0.01611 0.09518
0.11647 0.01500 0.11142
0.25645 0.02580 0.13047
0.41275 0.05136 0.12997
0.53109 0.03598 0.11547
0.10690 0.17280 0.16895
0.18054 0.18208 0.18001
0.31408 0.19546 0.20210
0.45811 0.20349 0.21037
0.57499 0.20532 0.20013
0.22708 0.38002 0.28014
0.29029 0.39090 0.29484
0.41297 0.41123 0.31465
0.57121 0.44634 0.34681
0.71501 0.48700 0.35628
0.41983 0.63794 0.44332
0.46780 0.64878 0.45055
0.57873 0.68010 0.48404
0.71536 0.71729 0.49789
0.84184 0.75037 0.48515
0.61362 0.86069 0.62642
0.64505 0.86734 0.62647
0.72242 0.88327 0.62058
0.82152 0.90295 0.62292
0.90839 0.91915 0.58031
0.02816 0.03432 0.22475
0.13414 0.04644 0.23052
0.26962 0.05827 0.23608
0.41440 0.03391 0.23020
0.53247 0.00000 0.18272
0.12849 0.19087 0.28890
0.19626 0.19911 0.29485
0.32387 0.21716 0.30882
0.46867 0.23120 0.31806
0.59162 0.23068 0.29717
0.25135 0.40352 0.39263
0.31592 0.41660 0.40839
0.44489 0.44644 0.44412
0.60468 0.48657 0.48304
0.75308 0.52715 0.49411
0.43930 0.66391 0.56074
0.49426 0.67904 0.58021
0.60926 0.71135 0.61959
0.74336 0.74431 0.64158
0.86923 0.77223 0.62944
0.63095 0.87508 0.72993
0.66705 0.88331 0.74272
0.74418 0.89885 0.76192
0.83668 0.91366 0.77417
0.92362 0.92508 0.76222
0.04909 0.02988 0.36585
0.15838 0.08444 0.38480
0.28906 0.09093 0.39379
0.43282 0.05841 0.38456
0.54773 0.00000 0.32890
0.14820 0.21316 0.42047
0.21742 0.22525 0.43151
0.34861 0.24632 0.45254
0.49581 0.26507 0.46607
0.62270 0.27144 0.45257
0.27957 0.43440 0.51528
0.34512 0.44918 0.53360
0.47857 0.48208 0.57618
0.63351 0.52361 0.62519
0.77729 0.56310 0.65370
0.45845 0.68501 0.65683
0.51099 0.69895 0.67587
0.62337 0.72824 0.71624
0.75707 0.75943 0.75614
0.88259 0.78379 0.76791
0.64150 0.88388 0.79469
0.67727 0.89175 0.80675
0.75248 0.90613 0.82938
0.84333 0.92019 0.85030
0.93273 0.93455 0.85425
0.08779 0.07134 0.54672
0.15929 0.07448 0.56209
0.30803 0.11187 0.54899
0.46023 0.09567 0.56088
0.58117 0.00000 0.54740
0.18002 0.24814 0.53956
0.24264 0.25721 0.55361
0.37668 0.28050 0.58588
0.52727 0.30109 0.61475
0.65611 0.30645 0.62628
0.30252 0.46488 0.61773
0.36542 0.47891 0.63734
0.50239 0.51375 0.68519
0.66049 0.55519 0.74530
0.80465 0.59340 0.79511
0.46009 0.69873 0.73044
0.51444 0.71304 0.75211
0.63029 0.74251 0.79774
0.76635 0.77261 0.84793
0.89010 0.79648 0.88580
0.63319 0.88652 0.84523
0.66728 0.89360 0.85717
0.74733 0.90887 0.88417
0.84804 0.92630 0.91512
0.93918 0.94056 0.93842
