provia conversion luts/Provia to Classic Neg DisplayP3.cube
# DisplayP3
# github.com/abpy/FujifilmCameraProfiles
LUT_3D_SIZE 5
DOMAIN_MIN 0.000000 0.000000 0.000000
DOMAIN_MAX 0.903226 0.903226 0.903226
0.00962 0.01134 0.00946
0.15451 0.01180 0.00000
0.37799 0.03615 0.00000
0.63500 0.08851 0.00000
0.78812 0.12410 0.00000
0.00000 0.16612 0.02448
0.15164 0.17604 0.01468
0.36589 0.19746 0.02161
0.64496 0.22166 0.00000
0.79839 0.21550 0.00000
0.00000 0.36589 0.10706
0.15090 0.37131 0.08466
0.37788 0.38900 0.05827
0.66471 0.41972 0.07474
0.82827 0.41003 0.07632
0.00000 0.61124 0.25987
0.14655 0.61806 0.24162
0.40909 0.64265 0.21319
0.70608 0.68054 0.19015
0.86743 0.67883 0.16548
0.00000 0.79028 0.30566
0.00000 0.79927 0.30221
0.37792 0.82764 0.28984
0.70841 0.87391 0.26108
0.88457 0.90008 0.18383
0.02944 0.01780 0.12580
0.17796 0.01696 0.08940
0.40400 0.04488 0.05344
0.65447 0.10685 0.02530
0.79787 0.14571 0.00170
0.03479 0.19080 0.21627
0.18397 0.19963 0.19574
0.39984 0.21915 0.16538
0.66661 0.23953 0.14209
0.80780 0.22013 0.12370
0.04770 0.39765 0.32035
0.19675 0.40657 0.30898
0.41714 0.42228 0.27754
0.69623 0.45077 0.25133
0.84486 0.42990 0.23077
0.00000 0.63386 0.42495
0.18383 0.64087 0.41077
0.44571 0.66837 0.39428
0.73130 0.70127 0.35965
0.88332 0.69727 0.34203
0.00000 0.80403 0.49747
0.03210 0.81179 0.48515
0.40055 0.83772 0.44474
0.73266 0.88374 0.41528
0.90174 0.90578 0.39852
0.08339 0.05988 0.31212
0.20942 0.06384 0.28153
0.42852 0.07921 0.22390
0.67392 0.09956 0.16622
0.80773 0.11770 0.14926
0.08715 0.22010 0.38391
0.21400 0.22640 0.36202
0.43425 0.24397 0.32212
0.69052 0.26260 0.27536
0.82207 0.23199 0.24077
0.10278 0.42788 0.49514
0.23892 0.43866 0.48241
0.46536 0.46223 0.45839
0.72931 0.49001 0.42934
0.86854 0.46790 0.40873
0.12635 0.66039 0.62736
0.26130 0.67212 0.62086
0.50375 0.70173 0.60321
0.76575 0.73329 0.57329
0.90834 0.72989 0.56267
0.00000 0.82186 0.71849
0.19622 0.83056 0.71306
0.47137 0.85815 0.68963
0.76710 0.90172 0.66247
0.93387 0.91851 0.66604
0.12633 0.08069 0.50090
0.24866 0.11948 0.48729
0.46645 0.14035 0.43602
0.70295 0.13546 0.36270
0.82192 0.05397 0.31260
0.13483 0.25737 0.57449
0.25593 0.26734 0.55872
0.48095 0.28732 0.51627
0.72318 0.29775 0.45809
0.84282 0.25942 0.41563
0.16561 0.47137 0.69323
0.29062 0.48242 0.67961
0.51919 0.50750 0.64870
0.76281 0.52994 0.61323
0.88977 0.50478 0.58540
0.20936 0.68763 0.80749
0.32608 0.69965 0.79812
0.55406 0.72860 0.77372
0.79904 0.75942 0.74446
0.92638 0.75469 0.72532
0.15570 0.83598 0.90081
0.27813 0.84508 0.89419
0.51715 0.87342 0.87139
0.79212 0.91531 0.83801
0.94469 0.93173 0.81937
0.24309 0.18212 0.72265
0.35162 0.19504 0.70960
0.53610 0.19632 0.61835
0.74475 0.18048 0.55126
0.84479 0.03988 0.49101
0.18521 0.32294 0.74531
0.31273 0.33045 0.72802
0.54809 0.34835 0.68291
0.76027 0.34587 0.62293
0.86298 0.29076 0.56797
0.24402 0.52749 0.85022
0.35948 0.53853 0.83625
0.58496 0.56508 0.80004
0.79941 0.58382 0.76416
0.90991 0.55597 0.73061
0.30047 0.72102 0.94342
0.40466 0.73426 0.93345
0.61722 0.76362 0.90550
0.82966 0.78995 0.87557
0.94230 0.78537 0.85493
0.27384 0.85591 0.98564
0.36867 0.86609 0.98474
0.58313 0.89417 0.97743
0.82057 0.92838 0.95722
0.95754 0.94417 0.93945
