provia conversion luts/Provia to Classic Neg DisplayP3.cube
# DisplayP3
# github.com/abpy/FujifilmCameraProfiles
LUT_3D_SIZE 8
DOMAIN_MIN 0.000000 0.000000 0.000000
DOMAIN_MAX 0.903226 0.903226 0.903226
0.00962 0.01134 0.00946
0.08337 0.01072 0.00000
0.18007 0.01315 0.00000
0.30091 0.01874 0.00000
0.45331 0.05665 0.00000
0.60280 0.08323 0.00000
0.71499 0.10089 0.00000
0.78812 0.12410 0.00000
0.00244 0.09949 0.02758
0.08402 0.10588 0.01737
0.17524 0.11015 0.01344
0.29727 0.11570 0.00000
0.45279 0.13192 0.00000
0.60666 0.14674 0.00000
0.71972 0.15593 0.00000
0.79185 0.16308 0.00000
0.00000 0.19212 0.05352
0.08253 0.19574 0.03823
0.17710 0.20154 0.02532
0.29443 0.21137 0.01685
0.44969 0.22970 0.02646
0.61219 0.24652 0.03297
0.73057 0.24836 0.00000
0.80153 0.23718 0.00000
0.00000 0.30222 0.07899
0.07870 0.30479 0.06766
0.17697 0.30888 0.03853
0.29714 0.31783 0.03136
0.45426 0.33365 0.02876
0.61951 0.35145 0.04841
0.74388 0.35844 0.06577
0.81787 0.34557 0.05994
0.00000 0.43343 0.14240
0.06660 0.43636 0.13970
0.17928 0.44143 0.12475
0.30905 0.45140 0.11114
0.47156 0.46907 0.10344
0.63813 0.48742 0.10041
0.76448 0.49532 0.10054
0.84007 0.48321 0.09907
0.00000 0.57594 0.23052
0.03396 0.57906 0.22807
0.18092 0.58590 0.21879
0.32267 0.59805 0.20251
0.49425 0.61900 0.18935
0.66570 0.64140 0.18356
0.78797 0.64976 0.16797
0.86230 0.63979 0.14959
0.00000 0.69901 0.29573
0.00000 0.70207 0.29049
0.16609 0.70953 0.27963
0.32510 0.72347 0.26651
0.50274 0.74480 0.24512
0.67638 0.76821 0.22279
0.80258 0.78351 0.21526
0.87833 0.78490 0.19794
0.00000 0.79028 0.30566
0.00000 0.79362 0.30453
0.03219 0.80185 0.30100
0.27895 0.81674 0.29373
0.47901 0.84067 0.28460
0.66807 0.86788 0.26643
0.80420 0.88807 0.23924
0.88457 0.90008 0.18383
0.01635 0.01177 0.06899
0.09931 0.01268 0.04349
0.19398 0.01552 0.02949
0.31476 0.01846 0.00655
0.46579 0.06647 0.00000
0.61276 0.09172 0.00000
0.72089 0.10815 0.00000
0.79196 0.13093 0.00000
0.01680 0.10888 0.12430
0.10401 0.11400 0.10799
0.19443 0.11431 0.09110
0.31286 0.12032 0.07147
0.46663 0.13929 0.05735
0.61698 0.15135 0.03196
0.72584 0.16164 0.00000
0.79574 0.16774 0.00000
0.02383 0.20525 0.17034
0.10655 0.20965 0.16101
0.19771 0.21522 0.14729
0.31140 0.22302 0.12553
0.46553 0.23967 0.11337
0.62414 0.25626 0.10631
0.73791 0.25473 0.08683
0.80578 0.23878 0.06538
0.02312 0.31797 0.21015
0.10317 0.32035 0.20059
0.19803 0.32512 0.18633
0.31428 0.33191 0.16776
0.46934 0.34571 0.14582
0.63296 0.36311 0.14273
0.75236 0.36661 0.14055
0.82383 0.35084 0.13434
0.00000 0.44711 0.25172
0.09025 0.44976 0.24625
0.19601 0.45485 0.23310
0.32554 0.46564 0.22413
0.48499 0.48077 0.20299
0.64942 0.49752 0.18854
0.77363 0.50434 0.18330
0.84663 0.49052 0.18001
0.00000 0.58602 0.31063
0.06138 0.58891 0.30711
0.19288 0.59548 0.29702
0.33442 0.60800 0.28396
0.50820 0.63014 0.27650
0.67729 0.65087 0.26303
0.79591 0.65719 0.24305
0.86852 0.64674 0.23074
0.00000 0.70615 0.36599
0.00000 0.70875 0.35929
0.17440 0.71574 0.34765
0.33263 0.72963 0.33499
0.51290 0.75133 0.31696
0.68686 0.77467 0.29929
0.81091 0.78940 0.29387
0.88436 0.78976 0.27827
0.00000 0.79482 0.38230
0.00000 0.79817 0.38091
0.05124 0.80596 0.37369
0.28473 0.82042 0.36039
0.48735 0.84452 0.34723
0.67774 0.87174 0.32974
0.81262 0.89144 0.31096
0.89091 0.90230 0.27877
0.03045 0.02860 0.15899
0.11287 0.03173 0.13976
0.20690 0.02289 0.10908
0.32951 0.02490 0.08163
0.48311 0.07475 0.07068
0.62803 0.10343 0.05923
0.73180 0.12720 0.04803
0.80033 0.15354 0.05669
0.02897 0.12373 0.20164
0.11769 0.12787 0.18558
0.20729 0.12822 0.16688
0.32810 0.13152 0.14212
0.48444 0.14969 0.12246
0.63128 0.15962 0.10411
0.73691 0.17804 0.10674
0.80414 0.18603 0.10548
0.04165 0.21921 0.25104
0.12037 0.22362 0.24071
0.21236 0.22911 0.22615
0.33201 0.24109 0.21269
0.48751 0.25655 0.19172
0.64069 0.27059 0.17374
0.75056 0.26887 0.16539
0.81394 0.24385 0.15263
0.05786 0.33656 0.30993
0.13041 0.34067 0.30450
0.22688 0.34813 0.29579
0.34414 0.35619 0.27963
0.49849 0.37123 0.25786
0.65741 0.38794 0.24496
0.77080 0.38802 0.23034
0.83826 0.37030 0.22293
0.05423 0.47072 0.37957
0.12944 0.47461 0.37591
0.23434 0.48305 0.36851
0.36261 0.49489 0.35741
0.51660 0.50768 0.33119
0.67594 0.52342 0.31125
0.79408 0.52923 0.30485
0.86156 0.51076 0.29607
0.02449 0.60737 0.44322
0.11564 0.61049 0.43889
0.22960 0.61795 0.42944
0.37060 0.63243 0.42005
0.54081 0.65450 0.41179
0.69933 0.67000 0.38429
0.81287 0.67503 0.36588
0.88377 0.66652 0.36712
0.00000 0.71988 0.49124
0.06132 0.72288 0.48633
0.20788 0.73029 0.47492
0.36053 0.74418 0.46002
0.54100 0.76706 0.44940
0.71227 0.79068 0.44103
0.83011 0.80350 0.43141
0.89816 0.80139 0.41431
0.00000 0.80709 0.53487
0.00000 0.81021 0.53204
0.13115 0.81720 0.51915
0.31398 0.83023 0.49333
0.50940 0.85333 0.46963
0.69793 0.88034 0.45319
0.83148 0.89928 0.44498
0.90671 0.90711 0.44617
0.06400 0.03570 0.24835
0.13182 0.05042 0.24091
0.22432 0.05866 0.22022
0.34590 0.04341 0.17505
0.49748 0.08282 0.15431
0.63838 0.08980 0.12121
0.73858 0.10307 0.10644
0.80661 0.14883 0.12966
0.06673 0.13416 0.28709
0.13213 0.13885 0.27914
0.22426 0.14493 0.26111
0.34624 0.14312 0.22526
0.49951 0.16238 0.20219
0.64311 0.16699 0.17151
0.74396 0.16716 0.15292
0.81095 0.18712 0.16354
0.06856 0.23484 0.34462
0.13747 0.23899 0.33581
0.23154 0.24666 0.32052
0.35053 0.25571 0.30141
0.50481 0.27211 0.27911
0.65584 0.28769 0.25880
0.76174 0.28250 0.23835
0.82259 0.25373 0.22108
0.07887 0.35135 0.40597
0.14608 0.35525 0.39960
0.24400 0.36318 0.38749
0.36440 0.37399 0.37364
0.52127 0.39306 0.35698
0.67616 0.40933 0.33939
0.78563 0.40918 0.32429
0.84991 0.38795 0.31400
0.09630 0.48840 0.47927
0.16080 0.49292 0.47540
0.26397 0.50293 0.46810
0.39267 0.51684 0.45794
0.54716 0.53376 0.44106
0.70077 0.54987 0.42350
0.81153 0.55324 0.41365
0.87548 0.53323 0.40294
0.10218 0.62395 0.55778
0.16712 0.62841 0.55541
0.27429 0.63880 0.54964
0.41067 0.65472 0.54023
0.56895 0.67405 0.52570
0.72129 0.69031 0.50427
0.83159 0.69691 0.49212
0.89874 0.68764 0.49247
0.07202 0.73281 0.61565
0.14704 0.73656 0.61309
0.26092 0.74560 0.60611
0.40311 0.76079 0.59406
0.57173 0.78360 0.58309
0.73420 0.80704 0.57435
0.84835 0.81878 0.56175
0.91424 0.81667 0.55430
0.00000 0.81750 0.66145
0.02169 0.82062 0.65930
0.20511 0.82852 0.65220
0.36434 0.84268 0.63624
0.54136 0.86471 0.61454
0.71906 0.89101 0.59974
0.85266 0.90941 0.59614
0.92693 0.91398 0.60946
0.09206 0.04219 0.35361
0.15130 0.04344 0.33985
0.24338 0.05587 0.31800
0.36418 0.08852 0.29958
0.51429 0.10124 0.26237
0.65147 0.09993 0.22262
0.74830 0.09038 0.19603
0.81031 0.09312 0.18624
0.09317 0.14062 0.38568
0.15164 0.14337 0.37583
0.24423 0.15198 0.35750
0.36629 0.16712 0.33700
0.51851 0.17682 0.30208
0.65775 0.17988 0.26680
0.75500 0.17149 0.24105
0.81601 0.16025 0.22689
0.09843 0.25372 0.45123
0.15871 0.25706 0.44301
0.25334 0.26509 0.42687
0.37446 0.27656 0.40798
0.52795 0.28988 0.38013
0.67346 0.30327 0.35717
0.77500 0.29712 0.33383
0.83449 0.27209 0.31625
0.10735 0.37207 0.51525
0.16857 0.37615 0.50976
0.26755 0.38531 0.49818
0.39338 0.39849 0.48265
0.54651 0.41536 0.46333
0.69512 0.43013 0.44404
0.80050 0.43012 0.42912
0.86160 0.40657 0.41516
0.13254 0.50849 0.58983
0.19149 0.51300 0.58545
0.29169 0.52270 0.57598
0.42001 0.53659 0.56217
0.57240 0.55383 0.54484
0.71879 0.56882 0.52789
0.82371 0.57025 0.51449
0.88633 0.55138 0.50398
0.13639 0.63738 0.66473
0.19560 0.64203 0.66125
0.30177 0.65294 0.65333
0.43840 0.66944 0.64166
0.59248 0.68894 0.62661
0.73910 0.70601 0.60947
0.84517 0.71183 0.59644
0.90908 0.70153 0.59182
0.15045 0.74310 0.72644
0.20425 0.74729 0.72414
0.30513 0.75751 0.71807
0.43912 0.77412 0.70730
0.59498 0.79599 0.69326
0.74701 0.81794 0.67981
0.85972 0.82998 0.66922
0.92493 0.82826 0.66241
0.02428 0.82468 0.77520
0.12890 0.82799 0.77330
0.25717 0.83650 0.76777
0.40730 0.85202 0.75615
0.57735 0.87531 0.73771
0.74230 0.90117 0.72095
0.86574 0.91853 0.71338
0.93813 0.92309 0.71350
0.11944 0.10196 0.48771
0.17387 0.10794 0.48015
0.26816 0.11018 0.45356
0.38951 0.11291 0.41471
0.53492 0.12521 0.37673
0.66961 0.12698 0.33901
0.76274 0.10340 0.30988
0.81930 0.06051 0.28627
0.12178 0.17893 0.51733
0.17636 0.18071 0.50802
0.27091 0.18152 0.48119
0.39339 0.18585 0.44632
0.54090 0.19606 0.40996
0.67678 0.20077 0.37557
0.76979 0.18499 0.34814
0.82566 0.15596 0.32411
0.13229 0.28000 0.56549
0.18612 0.28277 0.55828
0.27860 0.28888 0.54207
0.40412 0.29943 0.51725
0.55448 0.31292 0.48748
0.69416 0.32223 0.45904
0.78887 0.31234 0.43409
0.84437 0.28554 0.41055
0.14369 0.39881 0.63155
0.19915 0.40274 0.62606
0.29788 0.41195 0.61281
0.42587 0.42551 0.59460
0.57590 0.44210 0.57321
0.71774 0.45473 0.55099
0.81597 0.45257 0.53536
0.87338 0.42700 0.51532
0.16021 0.53010 0.70448
0.21705 0.53463 0.69967
0.31889 0.54498 0.68823
0.44849 0.55982 0.67138
0.59794 0.57690 0.65145
0.73901 0.59070 0.63226
0.83797 0.59113 0.61732
0.89839 0.57189 0.60405
0.19647 0.65557 0.76833
0.24658 0.66022 0.76466
0.34322 0.67085 0.75599
0.47171 0.68686 0.74226
0.61983 0.70601 0.72509
0.76076 0.72248 0.70757
0.85927 0.72717 0.69398
0.91927 0.71729 0.68491
0.18686 0.75403 0.82903
0.23526 0.75841 0.82589
0.33145 0.76905 0.81783
0.46444 0.78627 0.80454
0.61858 0.80779 0.78840
0.76551 0.82817 0.77216
0.87194 0.83954 0.76001
0.93446 0.83825 0.75354
0.14465 0.83275 0.87864
0.19773 0.83605 0.87646
0.29835 0.84461 0.87039
0.43395 0.86009 0.85844
0.59556 0.88296 0.84025
0.75841 0.90891 0.82009
0.87446 0.92558 0.80621
0.94334 0.93024 0.79914
0.15143 0.10743 0.58326
0.20275 0.11315 0.57443
0.29745 0.13004 0.55408
0.41941 0.15296 0.53194
0.56372 0.16906 0.50052
0.69341 0.16924 0.46517
0.78001 0.12544 0.42397
0.83130 0.04617 0.39288
0.15440 0.19021 0.60961
0.20620 0.19490 0.60195
0.29965 0.20619 0.58444
0.42450 0.22191 0.56187
0.57110 0.23718 0.53334
0.70098 0.23746 0.49781
0.78660 0.20550 0.45610
0.83769 0.16136 0.42576
0.16721 0.30851 0.67137
0.21719 0.31178 0.66524
0.31220 0.31932 0.64833
0.43924 0.33083 0.62292
0.58676 0.34580 0.59647
0.71835 0.35316 0.56890
0.80469 0.33552 0.53311
0.85570 0.30170 0.50336
0.18425 0.42983 0.73574
0.23519 0.43355 0.73029
0.33209 0.44232 0.71665
0.46169 0.45645 0.69602
0.60830 0.47254 0.67236
0.73985 0.48301 0.65061
0.83077 0.47765 0.62892
0.88458 0.44972 0.60559
0.20665 0.55624 0.79980
0.25608 0.56056 0.79461
0.35202 0.57077 0.78187
0.48202 0.58611 0.76355
0.62727 0.60311 0.74358
0.75921 0.61558 0.72483
0.85375 0.61561 0.70907
0.91024 0.59505 0.69270
0.23979 0.67311 0.85878
0.28565 0.67788 0.85477
0.37883 0.68916 0.84498
0.50491 0.70601 0.82952
0.64658 0.72463 0.81076
0.77672 0.73970 0.79266
0.87148 0.74547 0.77946
0.92891 0.73563 0.76800
0.24403 0.76988 0.91170
0.28845 0.77448 0.90840
0.38133 0.78541 0.90046
0.50904 0.80236 0.88754
0.65251 0.82270 0.87048
0.78649 0.84109 0.85305
0.88390 0.85051 0.83976
0.94423 0.85045 0.83127
0.20752 0.84231 0.95525
0.25283 0.84606 0.95274
0.34670 0.85568 0.94602
0.47820 0.87272 0.93336
0.63055 0.89587 0.91607
0.76966 0.91645 0.90046
0.88104 0.93130 0.88617
0.95002 0.93635 0.87536
0.24309 0.18212 0.72265
0.29060 0.18716 0.72692
0.36871 0.19509 0.69620
0.46822 0.19556 0.64114
0.60368 0.19680 0.59723
0.72161 0.18571 0.55777
0.79855 0.15230 0.52674
0.84479 0.03988 0.49101
0.19330 0.24676 0.71956
0.24220 0.25014 0.71218
0.34574 0.25546 0.69571
0.46821 0.26134 0.66073
0.60831 0.26555 0.62267
0.72750 0.25804 0.58336
0.80430 0.23486 0.55312
0.85083 0.17588 0.51851
0.19199 0.35043 0.75956
0.24515 0.35345 0.75388
0.34672 0.36093 0.73800
0.48058 0.37290 0.71380
0.62209 0.38203 0.68256
0.74166 0.38261 0.65010
0.82066 0.36759 0.62034
0.86925 0.33101 0.59125
0.23388 0.46746 0.82204
0.27976 0.47086 0.81602
0.37446 0.47967 0.80056
0.50463 0.49606 0.78132
0.64326 0.51051 0.75606
0.76275 0.51571 0.73020
0.84560 0.51007 0.70926
0.89709 0.48394 0.68773
0.25719 0.58713 0.87774
0.30403 0.59170 0.87251
0.39975 0.60247 0.86004
0.52641 0.61751 0.84153
0.66356 0.63450 0.82142
0.78605 0.64772 0.80415
0.86950 0.64568 0.78798
0.92188 0.62711 0.77121
0.29093 0.69585 0.93197
0.33406 0.70084 0.92809
0.42444 0.71275 0.91828
0.54683 0.73021 0.90219
0.68120 0.74831 0.88318
0.80142 0.76190 0.86440
0.88581 0.76697 0.85266
0.93928 0.75691 0.84041
0.31354 0.78702 0.96972
0.35263 0.79163 0.96753
0.43708 0.80248 0.96153
0.55575 0.81896 0.95059
0.69064 0.83839 0.93563
0.81484 0.85583 0.91938
0.89927 0.86434 0.90594
0.95123 0.86114 0.89415
0.27384 0.85591 0.98564
0.31119 0.85967 0.98539
0.39314 0.86902 0.98432
0.51324 0.88455 0.98082
0.65520 0.90438 0.97261
0.79109 0.92412 0.96035
0.89362 0.93836 0.94883
0.95754 0.94417 0.93945
