provia conversion luts/Provia to Nostalgic Neg DisplayP3.cube
# DisplayP3
# github.com/abpy/FujifilmCameraProfiles
LUT_3D_SIZE 5
DOMAIN_MIN 0.000000 0.000000 0.000000
DOMAIN_MAX 0.903226 0.903226 0.903226
0.01592 0.01601 0.01469
0.28961 0.01013 0.00000
0.45415 0.01511 0.00000
0.63271 0.06086 0.01147
0.78650 0.13369 0.06761
0.00000 0.24879 0.01209
0.23744 0.22277 0.00074
0.43557 0.20847 0.00000
0.63039 0.21549 0.03254
0.79132 0.24199 0.09092
0.17830 0.42077 0.09170
0.27134 0.41852 0.05672
0.44270 0.41561 0.01615
0.63509 0.41685 0.04665
0.80681 0.42452 0.11916
0.32581 0.61254 0.21462
0.37560 0.61595 0.19671
0.49889 0.62575 0.14592
0.66861 0.63577 0.09481
0.83199 0.63216 0.13661
0.56020 0.81411 0.42917
0.58554 0.81893 0.42299
0.65148 0.83135 0.39778
0.74549 0.84644 0.34482
0.86014 0.85100 0.31404
0.00000 0.00000 0.34030
0.25778 0.00692 0.20219
0.44438 0.01721 0.11396
0.65048 0.06104 0.09380
0.79565 0.15389 0.12638
0.00000 0.23517 0.27692
0.24646 0.23960 0.23294
0.44000 0.22243 0.16580
0.64452 0.22314 0.12664
0.79879 0.24585 0.14397
0.12513 0.42308 0.28419
0.25350 0.42704 0.25698
0.44588 0.42987 0.21633
0.64848 0.43100 0.18311
0.82375 0.43632 0.17222
0.30453 0.61898 0.35673
0.35947 0.62423 0.33856
0.49231 0.63745 0.29185
0.67287 0.65015 0.22746
0.84518 0.64883 0.19287
0.55675 0.81129 0.52435
0.58188 0.81683 0.51748
0.65037 0.83210 0.49149
0.74556 0.85224 0.42802
0.85917 0.85877 0.32279
0.00000 0.00000 0.53443
0.23721 0.00199 0.46691
0.45645 0.02249 0.34636
0.65520 0.03076 0.26823
0.82205 0.13955 0.20786
0.00000 0.23755 0.50154
0.20952 0.23891 0.45719
0.44301 0.23915 0.38303
0.66127 0.23186 0.31706
0.82914 0.25148 0.24375
0.06462 0.43701 0.49073
0.24232 0.44344 0.47282
0.46915 0.45665 0.44680
0.67543 0.45601 0.40335
0.85109 0.45189 0.33559
0.29319 0.63085 0.52125
0.35717 0.63742 0.51311
0.50736 0.65262 0.49642
0.69493 0.66413 0.46469
0.86806 0.66442 0.40065
0.55075 0.81744 0.64135
0.58189 0.82512 0.64070
0.65991 0.84354 0.63433
0.77025 0.86466 0.60450
0.88932 0.87739 0.51486
0.06440 0.08420 0.70999
0.22377 0.08233 0.66832
0.46025 0.09943 0.58055
0.66126 0.09460 0.47921
0.83680 0.14737 0.40907
0.00000 0.27117 0.70669
0.17448 0.26673 0.67452
0.43701 0.26430 0.60537
0.66560 0.26071 0.52257
0.84813 0.28150 0.45813
0.00000 0.45555 0.69722
0.18002 0.45738 0.67792
0.43214 0.46735 0.63879
0.67882 0.48093 0.59879
0.86656 0.48654 0.55033
0.26824 0.64412 0.67956
0.33633 0.65056 0.67520
0.50075 0.66942 0.67034
0.71253 0.69073 0.65992
0.88738 0.68707 0.61731
0.54367 0.82285 0.74018
0.57570 0.83106 0.74270
0.65865 0.85102 0.74840
0.77967 0.87521 0.74593
0.90953 0.88872 0.70384
0.21647 0.22001 0.80678
0.25736 0.21298 0.78721
0.39382 0.19521 0.73548
0.62031 0.22300 0.68177
0.81185 0.26382 0.62424
0.16443 0.33584 0.83060
0.22623 0.33299 0.81522
0.39109 0.33694 0.77806
0.63395 0.35031 0.71694
0.83026 0.36574 0.65361
0.14971 0.49144 0.84251
0.21482 0.49390 0.83441
0.38028 0.50236 0.81676
0.63448 0.52115 0.78802
0.85494 0.54357 0.73951
0.23841 0.66217 0.84573
0.28852 0.66620 0.84342
0.43548 0.67924 0.84280
0.67030 0.70189 0.84366
0.88628 0.71820 0.81542
0.50658 0.81756 0.85169
0.53722 0.82654 0.85538
0.62264 0.84917 0.86912
0.76134 0.88053 0.88780
0.92320 0.90884 0.88458
