provia conversion luts/Provia to Bleach Bypass DisplayP3.cube
# DisplayP3
# github.com/abpy/FujifilmCameraProfiles
LUT_3D_SIZE 32
0.01693 0.01763 0.01587
0.02717 0.01577 0.01460
0.03685 0.01486 0.01309
0.05139 0.01593 0.01177
0.06659 0.01633 0.01047
0.08143 0.01828 0.00618
0.09491 0.01598 0.00518
0.11142 0.01789 0.00000
0.12490 0.01565 0.00000
0.14378 0.01530 0.00000
0.16363 0.01671 0.00000
0.18339 0.01514 0.00000
0.20899 0.02292 0.00000
0.23144 0.02203 0.00000
0.25379 0.02073 0.00000
0.27832 0.02711 0.00000
0.30056 0.02853 0.00000
0.32219 0.02885 0.00000
0.34406 0.03244 0.00000
0.36441 0.02861 0.00000
0.38450 0.02648 0.00000
0.40375 0.02221 0.00000
0.42199 0.01439 0.00000
0.44059 0.01297 0.00000
0.45786 0.00622 0.00000
0.47570 0.00405 0.00000
0.49272 0.00210 0.00000
0.50935 0.00566 0.00000
0.52553 0.01397 0.00000
0.54182 0.03161 0.01265
0.55816 0.05597 0.04285
0.57545 0.08278 0.07401
0.02160 0.03917 0.01906
0.03726 0.04217 0.02103
0.05132 0.04329 0.02131
0.06385 0.04283 0.02053
0.07890 0.04537 0.01939
0.09052 0.04401 0.01588
0.10506 0.04373 0.01648
0.11878 0.04351 0.00885
0.13132 0.04026 0.00589
0.15099 0.04241 0.00447
0.16878 0.04018 0.00000
0.18829 0.03861 0.00000
0.21382 0.04689 0.00000
0.23521 0.04366 0.00000
0.25728 0.04232 0.00000
0.28180 0.04891 0.00000
0.30353 0.04884 0.00000
0.32500 0.04913 0.00000
0.34683 0.05268 0.00000
0.36702 0.04891 0.00000
0.38712 0.04778 0.00000
0.40629 0.04390 0.00000
0.42452 0.03655 0.00000
0.44317 0.03620 0.00000
0.46034 0.02929 0.00000
0.47826 0.02789 0.00000
0.49517 0.02588 0.00000
0.51182 0.02993 0.00000
0.52790 0.03821 0.00399
0.54414 0.05434 0.03006
0.56040 0.07342 0.05760
0.57762 0.09625 0.08443
0.02686 0.06017 0.02356
0.04595 0.06377 0.02569
0.05974 0.06526 0.02563
0.07326 0.06682 0.02563
0.08715 0.06852 0.02513
0.09906 0.06683 0.02395
0.11494 0.07194 0.02421
0.12577 0.06615 0.01789
0.13877 0.06464 0.01660
0.15860 0.06816 0.01496
0.17432 0.06254 0.00677
0.19418 0.06282 0.00932
0.21908 0.06837 0.00346
0.23937 0.06385 0.00000
0.26126 0.06324 0.00000
0.28573 0.06884 0.00000
0.30686 0.06736 0.00000
0.32819 0.06784 0.00000
0.34998 0.07105 0.00000
0.36999 0.06751 0.00000
0.39013 0.06751 0.00000
0.40918 0.06433 0.00000
0.42742 0.05915 0.00000
0.44615 0.05985 0.00000
0.46320 0.05424 0.00000
0.48121 0.05390 0.00000
0.49800 0.05212 0.00000
0.51467 0.05598 0.00609
0.53065 0.06227 0.02386
0.54684 0.07467 0.04923
0.56299 0.09023 0.07170
0.58013 0.11005 0.09516
0.03765 0.08091 0.02942
0.05557 0.08343 0.03125
0.06881 0.08527 0.03153
0.08154 0.08680 0.03095
0.09441 0.08789 0.03039
0.10764 0.08919 0.02977
0.12136 0.09170 0.02734
0.13367 0.08871 0.02772
0.14852 0.09045 0.02722
0.16643 0.09148 0.02483
0.18160 0.08626 0.02054
0.20276 0.09041 0.02422
0.22577 0.09090 0.01807
0.24503 0.08615 0.01156
0.26699 0.08723 0.01754
0.29116 0.09131 0.01225
0.31147 0.08844 0.00557
0.33271 0.08967 0.01698
0.35442 0.09227 0.00731
0.37419 0.08883 0.00542
0.39446 0.09021 0.01331
0.41332 0.08719 0.00000
0.43163 0.08382 0.00788
0.45045 0.08541 0.00540
0.46733 0.08100 0.00456
0.48551 0.08171 0.01198
0.50208 0.08022 0.01202
0.51883 0.08374 0.03454
0.53464 0.08835 0.05128
0.55077 0.09820 0.07081
0.56679 0.11085 0.08876
0.58382 0.12781 0.10893
0.05111 0.10059 0.03717
0.06518 0.10227 0.03863
0.07696 0.10377 0.03925
0.08944 0.10538 0.03934
0.10210 0.10702 0.03819
0.11489 0.10862 0.03604
0.12822 0.10965 0.03619
0.14188 0.10984 0.03721
0.15719 0.11247 0.03384
0.17362 0.11177 0.03356
0.19013 0.11003 0.03479
0.21184 0.11603 0.03488
0.23303 0.11254 0.03348
0.25204 0.10943 0.03030
0.27446 0.11353 0.03591
0.29773 0.11436 0.03003
0.31733 0.11095 0.02560
0.33859 0.11402 0.03921
0.36014 0.11498 0.02850
0.37971 0.11186 0.03040
0.40022 0.11500 0.04019
0.41877 0.11145 0.02173
0.43732 0.10987 0.04039
0.45618 0.11208 0.03566
0.47289 0.10848 0.03810
0.49132 0.11011 0.04581
0.50759 0.10873 0.04670
0.52451 0.11237 0.06646
0.54009 0.11586 0.07831
0.55614 0.12398 0.09322
0.57201 0.13444 0.10783
0.58889 0.14895 0.12514
0.06546 0.11945 0.04450
0.07752 0.12092 0.04580
0.08713 0.12209 0.04686
0.09803 0.12342 0.04690
0.10974 0.12481 0.04579
0.12179 0.12622 0.04395
0.13477 0.12772 0.04163
0.14926 0.12930 0.04082
0.16390 0.13105 0.03733
0.18078 0.13155 0.04348
0.19899 0.13246 0.04718
0.21945 0.13607 0.04136
0.24028 0.13340 0.04838
0.26004 0.13293 0.04883
0.28277 0.13860 0.04987
0.30474 0.13626 0.04660
0.32422 0.13414 0.04646
0.34562 0.13966 0.05614
0.36689 0.13789 0.05021
0.38651 0.13591 0.05647
0.40722 0.14090 0.06315
0.42552 0.13639 0.05110
0.44466 0.13695 0.07095
0.46332 0.13924 0.06534
0.48005 0.13658 0.07113
0.49870 0.13888 0.07613
0.51466 0.13767 0.07848
0.53188 0.14178 0.09434
0.54718 0.14455 0.10390
0.56313 0.15150 0.11586
0.57885 0.16041 0.12808
0.59557 0.17295 0.14311
0.07552 0.13871 0.05584
0.08557 0.13973 0.05748
0.09522 0.14079 0.05868
0.10646 0.14213 0.05933
0.11823 0.14358 0.05878
0.13025 0.14504 0.05721
0.14295 0.14651 0.05493
0.15658 0.14804 0.05267
0.17149 0.14961 0.05326
0.18842 0.15105 0.05489
0.20726 0.15277 0.05641
0.22619 0.15405 0.04625
0.24776 0.15433 0.06072
0.26858 0.15596 0.06298
0.29047 0.15951 0.05832
0.31179 0.15718 0.05836
0.33196 0.15765 0.06274
0.35339 0.16321 0.06588
0.37433 0.16039 0.06722
0.39445 0.16059 0.07623
0.41500 0.16598 0.07845
0.43352 0.16166 0.07508
0.45362 0.16457 0.09358
0.47170 0.16634 0.08825
0.48893 0.16529 0.09753
0.50752 0.16773 0.10063
0.52344 0.16725 0.10562
0.54101 0.17192 0.11930
0.55616 0.17448 0.12823
0.57194 0.18058 0.13824
0.58757 0.18851 0.14889
0.60416 0.19961 0.16232
0.09130 0.15843 0.06008
0.09926 0.15934 0.06065
0.10698 0.16028 0.06185
0.11624 0.16135 0.06178
0.12682 0.16267 0.06272
0.13799 0.16395 0.06075
0.15041 0.16550 0.06076
0.16370 0.16734 0.05979
0.17858 0.16903 0.06177
0.19573 0.17083 0.05897
0.21426 0.17240 0.05765
0.23377 0.17391 0.05751
0.25578 0.17598 0.07111
0.27728 0.17812 0.07449
0.29824 0.17913 0.06777
0.31910 0.17886 0.06660
0.34035 0.18120 0.07531
0.36109 0.18385 0.07222
0.38243 0.18309 0.08132
0.40323 0.18543 0.09083
0.42307 0.18872 0.08760
0.44266 0.18730 0.09433
0.46348 0.19162 0.10911
0.48108 0.19309 0.10646
0.49935 0.19434 0.11844
0.51749 0.19643 0.12066
0.53405 0.19766 0.12935
0.55179 0.20262 0.14119
0.56722 0.20579 0.15091
0.58277 0.21127 0.15990
0.59837 0.21866 0.16968
0.61496 0.22890 0.18230
0.09968 0.18101 0.07259
0.10740 0.18167 0.07395
0.11528 0.18242 0.07523
0.12519 0.18345 0.07654
0.13639 0.18472 0.07743
0.14829 0.18617 0.07765
0.16075 0.18774 0.07780
0.17406 0.18941 0.07835
0.18865 0.19105 0.07743
0.20506 0.19266 0.07503
0.22331 0.19445 0.07559
0.24313 0.19628 0.07685
0.26446 0.19836 0.08137
0.28611 0.20019 0.08494
0.30597 0.20014 0.07351
0.32754 0.20198 0.07857
0.34936 0.20500 0.08693
0.36966 0.20561 0.08217
0.39132 0.20706 0.09438
0.41257 0.21031 0.10270
0.43195 0.21185 0.09693
0.45284 0.21371 0.11068
0.47358 0.21788 0.12054
0.49142 0.21993 0.12157
0.51063 0.22318 0.13414
0.52848 0.22533 0.13744
0.54635 0.22893 0.14959
0.56389 0.23374 0.15967
0.58019 0.23824 0.17112
0.59575 0.24360 0.18028
0.61134 0.25072 0.18980
0.62823 0.26081 0.20257
0.11700 0.20504 0.08610
0.12387 0.20584 0.08799
0.13068 0.20665 0.08893
0.13911 0.20766 0.08901
0.14872 0.20876 0.08804
0.15932 0.20982 0.08673
0.17108 0.21099 0.08592
0.18414 0.21248 0.08731
0.19808 0.21404 0.08606
0.21418 0.21586 0.08361
0.23281 0.21806 0.08763
0.25214 0.21982 0.08537
0.27337 0.22188 0.08817
0.29458 0.22353 0.08968
0.31488 0.22446 0.08335
0.33746 0.22778 0.09435
0.35909 0.23012 0.09952
0.37853 0.22956 0.09006
0.40124 0.23330 0.10785
0.42263 0.23614 0.11489
0.44189 0.23702 0.10865
0.46398 0.24154 0.12628
0.48414 0.24460 0.13135
0.50287 0.24812 0.13576
0.52242 0.25221 0.14690
0.54076 0.25540 0.15276
0.55982 0.26088 0.16649
0.57726 0.26552 0.17525
0.59462 0.27146 0.18837
0.61071 0.27739 0.19874
0.62640 0.28441 0.20856
0.64399 0.29509 0.22252
0.12839 0.23176 0.09208
0.13459 0.23233 0.09315
0.14111 0.23296 0.09422
0.14958 0.23383 0.09543
0.15959 0.23489 0.09644
0.17069 0.23608 0.09693
0.18267 0.23738 0.09704
0.19560 0.23890 0.09746
0.21005 0.24074 0.09875
0.22631 0.24279 0.10011
0.24406 0.24468 0.10017
0.26345 0.24675 0.10101
0.28424 0.24907 0.10418
0.30503 0.25089 0.10310
0.32639 0.25304 0.10430
0.34865 0.25592 0.11224
0.36962 0.25758 0.11300
0.38912 0.25786 0.10506
0.41239 0.26209 0.12370
0.43368 0.26442 0.12864
0.45353 0.26618 0.12584
0.47617 0.27156 0.14310
0.49627 0.27428 0.14634
0.51567 0.27878 0.15139
0.53536 0.28293 0.16016
0.55466 0.28766 0.16846
0.57429 0.29380 0.18138
0.59225 0.29885 0.18954
0.61030 0.30550 0.20322
0.62737 0.31240 0.21501
0.64339 0.31963 0.22566
0.66207 0.33119 0.24148
0.14717 0.26125 0.11086
0.15279 0.26185 0.11174
0.15852 0.26242 0.11178
0.16579 0.26309 0.11085
0.17444 0.26389 0.10931
0.18455 0.26489 0.10839
0.19621 0.26617 0.10900
0.20914 0.26761 0.11047
0.22353 0.26925 0.11263
0.24006 0.27150 0.11624
0.25729 0.27343 0.11558
0.27645 0.27598 0.11850
0.29728 0.27888 0.12443
0.31739 0.28066 0.12082
0.33854 0.28298 0.12261
0.36055 0.28574 0.12914
0.38117 0.28762 0.12785
0.40200 0.28940 0.12922
0.42486 0.29367 0.14164
0.44523 0.29538 0.14028
0.46612 0.29833 0.14297
0.48976 0.30437 0.16256
0.51005 0.30753 0.16542
0.53013 0.31236 0.17024
0.55014 0.31673 0.17700
0.57035 0.32247 0.18593
0.59027 0.32865 0.19657
0.60915 0.33446 0.20443
0.62772 0.34128 0.21727
0.64559 0.34890 0.22975
0.66218 0.35650 0.24129
0.68214 0.36895 0.25934
0.16114 0.29115 0.11614
0.16638 0.29171 0.11728
0.17202 0.29233 0.11843
0.17958 0.29317 0.11981
0.18886 0.29419 0.12118
0.19954 0.29536 0.12229
0.21140 0.29663 0.12303
0.22447 0.29807 0.12397
0.23911 0.29993 0.12642
0.25530 0.30227 0.13064
0.27283 0.30493 0.13515
0.29145 0.30746 0.13771
0.31114 0.30988 0.13954
0.33176 0.31273 0.14329
0.35279 0.31574 0.14750
0.37371 0.31811 0.14821
0.39503 0.32090 0.15031
0.41702 0.32430 0.15690
0.43872 0.32765 0.16172
0.45881 0.32961 0.15842
0.48117 0.33395 0.16812
0.50482 0.33977 0.18380
0.52499 0.34313 0.18436
0.54626 0.34861 0.19114
0.56732 0.35378 0.19874
0.58827 0.36022 0.20695
0.60837 0.36618 0.21435
0.62824 0.37286 0.22194
0.64696 0.37950 0.23188
0.66529 0.38734 0.24425
0.68257 0.39544 0.25629
0.70355 0.40823 0.27633
0.18304 0.32411 0.14260
0.18775 0.32456 0.14268
0.19272 0.32497 0.14223
0.19926 0.32544 0.14097
0.20730 0.32597 0.13896
0.21688 0.32671 0.13723
0.22836 0.32801 0.13811
0.24162 0.32986 0.14166
0.25642 0.33207 0.14654
0.27263 0.33456 0.15196
0.29010 0.33732 0.15744
0.30823 0.33969 0.15886
0.32736 0.34233 0.16037
0.34794 0.34612 0.16729
0.36874 0.34966 0.17225
0.38900 0.35211 0.17064
0.41056 0.35569 0.17502
0.43251 0.35952 0.18064
0.45367 0.36272 0.18167
0.47451 0.36587 0.18320
0.49804 0.37143 0.19499
0.52120 0.37707 0.20508
0.54102 0.38042 0.20280
0.56481 0.38756 0.21634
0.58739 0.39411 0.22658
0.60798 0.40007 0.23038
0.62895 0.40663 0.23639
0.64884 0.41348 0.24189
0.66773 0.42043 0.24865
0.68621 0.42800 0.25977
0.70395 0.43621 0.27165
0.72553 0.44887 0.29328
0.19913 0.35440 0.14783
0.20374 0.35500 0.14911
0.20882 0.35567 0.15048
0.21578 0.35659 0.15225
0.22454 0.35774 0.15429
0.23487 0.35908 0.15638
0.24663 0.36059 0.15842
0.25976 0.36228 0.16045
0.27426 0.36422 0.16279
0.29020 0.36657 0.16621
0.30764 0.36946 0.17129
0.32625 0.37281 0.17723
0.34532 0.37617 0.18166
0.36476 0.37946 0.18471
0.38516 0.38321 0.18961
0.40661 0.38771 0.19754
0.42823 0.39222 0.20373
0.44927 0.39564 0.20422
0.47093 0.39961 0.20662
0.49339 0.40448 0.21345
0.51681 0.41030 0.22219
0.53912 0.41543 0.22685
0.56031 0.41987 0.22808
0.58525 0.42831 0.24305
0.60655 0.43399 0.24670
0.62889 0.44139 0.25430
0.65089 0.44908 0.26184
0.67064 0.45608 0.26569
0.68923 0.46289 0.26917
0.70740 0.47004 0.27712
0.72538 0.47807 0.28819
0.74720 0.49008 0.31057
0.22367 0.38935 0.17873
0.22792 0.38982 0.17896
0.23255 0.39031 0.17900
0.23883 0.39092 0.17877
0.24671 0.39166 0.17825
0.25612 0.39258 0.17779
0.26715 0.39382 0.17810
0.28004 0.39560 0.18010
0.29471 0.39796 0.18386
0.31081 0.40073 0.18873
0.32812 0.40391 0.19440
0.34656 0.40752 0.20116
0.36540 0.41100 0.20641
0.38447 0.41448 0.20945
0.40461 0.41880 0.21526
0.42657 0.42470 0.22735
0.44754 0.42924 0.23039
0.46829 0.43299 0.22971
0.49036 0.43789 0.23410
0.51320 0.44343 0.24107
0.53600 0.44909 0.24537
0.55859 0.45465 0.24960
0.58210 0.46148 0.25744
0.60690 0.47032 0.26957
0.62785 0.47576 0.27134
0.65138 0.48431 0.28158
0.67358 0.49253 0.28957
0.69266 0.49923 0.29121
0.71076 0.50593 0.29289
0.72865 0.51286 0.29776
0.74616 0.52011 0.30617
0.76783 0.53091 0.32802
0.24366 0.42072 0.18738
0.24795 0.42143 0.18892
0.25272 0.42223 0.19060
0.25934 0.42335 0.19285
0.26779 0.42479 0.19558
0.27797 0.42651 0.19859
0.28973 0.42850 0.20170
0.30288 0.43070 0.20476
0.31728 0.43310 0.20784
0.33290 0.43583 0.21133
0.34971 0.43894 0.21564
0.36767 0.44251 0.22129
0.38668 0.44682 0.22851
0.40626 0.45153 0.23550
0.42583 0.45584 0.23977
0.44620 0.46059 0.24420
0.46783 0.46629 0.25133
0.49029 0.47257 0.25998
0.51258 0.47843 0.26540
0.53452 0.48355 0.26702
0.55750 0.48973 0.27135
0.58125 0.49685 0.27851
0.60547 0.50477 0.28725
0.62865 0.51210 0.29404
0.65026 0.51829 0.29750
0.67393 0.52740 0.30815
0.69409 0.53406 0.31071
0.71479 0.54232 0.31805
0.73258 0.54874 0.31886
0.74905 0.55456 0.31886
0.76650 0.56171 0.32578
0.78734 0.57072 0.34492
0.27278 0.45881 0.22589
0.27673 0.45940 0.22627
0.28110 0.46006 0.22658
0.28716 0.46095 0.22685
0.29492 0.46209 0.22709
0.30431 0.46350 0.22746
0.31528 0.46523 0.22830
0.32783 0.46737 0.23005
0.34193 0.47000 0.23317
0.35746 0.47312 0.23760
0.37424 0.47672 0.24306
0.39199 0.48067 0.24907
0.41046 0.48483 0.25503
0.42982 0.48965 0.26165
0.44929 0.49432 0.26599
0.46965 0.49957 0.27136
0.49140 0.50598 0.28013
0.51428 0.51333 0.29102
0.53542 0.51855 0.29158
0.55763 0.52451 0.29425
0.58094 0.53164 0.30014
0.60468 0.53925 0.30680
0.62780 0.54644 0.31216
0.65056 0.55368 0.31791
0.67366 0.56165 0.32554
0.69599 0.56976 0.33291
0.71551 0.57596 0.33449
0.73505 0.58313 0.33896
0.75298 0.58962 0.34070
0.76984 0.59578 0.34234
0.78577 0.60151 0.34427
0.80589 0.60940 0.36018
0.29706 0.49329 0.23867
0.30106 0.49412 0.24011
0.30554 0.49506 0.24169
0.31180 0.49637 0.24384
0.31988 0.49806 0.24649
0.32969 0.50011 0.24955
0.34107 0.50249 0.25291
0.35390 0.50518 0.25655
0.36805 0.50820 0.26043
0.38340 0.51159 0.26456
0.39979 0.51527 0.26901
0.41712 0.51928 0.27395
0.43545 0.52384 0.27992
0.45474 0.52907 0.28718
0.47478 0.53482 0.29495
0.49512 0.54057 0.30131
0.51553 0.54597 0.30500
0.53695 0.55208 0.30980
0.55977 0.55944 0.31808
0.58326 0.56744 0.32757
0.60589 0.57451 0.33216
0.62806 0.58097 0.33392
0.65077 0.58817 0.33826
0.67377 0.59593 0.34476
0.69616 0.60351 0.35062
0.71673 0.61003 0.35347
0.73617 0.61621 0.35551
0.75473 0.62253 0.35787
0.77263 0.62874 0.36006
0.78879 0.63428 0.36037
0.80516 0.64027 0.36396
0.82329 0.64616 0.37423
0.32974 0.53468 0.28077
0.33346 0.53540 0.28133
0.33763 0.53619 0.28189
0.34344 0.53730 0.28256
0.35092 0.53870 0.28330
0.36000 0.54042 0.28415
0.37062 0.54248 0.28527
0.38272 0.54492 0.28696
0.39626 0.54784 0.28951
0.41122 0.55133 0.29319
0.42745 0.55539 0.29801
0.44474 0.55993 0.30379
0.46292 0.56490 0.31031
0.48175 0.57014 0.31688
0.50106 0.57551 0.32255
0.52092 0.58105 0.32727
0.54127 0.58670 0.33126
0.56273 0.59323 0.33746
0.58549 0.60103 0.34714
0.60822 0.60882 0.35538
0.62940 0.61497 0.35630
0.65161 0.62201 0.35975
0.67387 0.62922 0.36367
0.69592 0.63634 0.36799
0.71711 0.64304 0.37112
0.73701 0.64909 0.37304
0.75618 0.65508 0.37510
0.77394 0.66055 0.37542
0.79104 0.66599 0.37608
0.80715 0.67143 0.37701
0.82277 0.67647 0.37871
0.84044 0.68187 0.38875
0.35763 0.57118 0.29543
0.36131 0.57206 0.29674
0.36544 0.57305 0.29819
0.37125 0.57444 0.30017
0.37879 0.57624 0.30265
0.38801 0.57844 0.30556
0.39880 0.58102 0.30877
0.41105 0.58399 0.31222
0.42466 0.58738 0.31601
0.43946 0.59116 0.32016
0.45524 0.59522 0.32459
0.47189 0.59957 0.32929
0.48936 0.60426 0.33427
0.50762 0.60932 0.33943
0.52686 0.61498 0.34553
0.54702 0.62123 0.35273
0.56756 0.62758 0.35930
0.58814 0.63367 0.36375
0.60902 0.63991 0.36746
0.63076 0.64704 0.37329
0.65353 0.65530 0.38250
0.67554 0.66270 0.38758
0.69620 0.66868 0.38716
0.71696 0.67484 0.38851
0.73713 0.68083 0.39072
0.75642 0.68647 0.39184
0.77489 0.69193 0.39224
0.79219 0.69700 0.39225
0.80872 0.70196 0.39198
0.82369 0.70641 0.39034
0.83905 0.71103 0.39235
0.85584 0.71558 0.39961
0.39188 0.61271 0.33373
0.39524 0.61345 0.33422
0.39902 0.61428 0.33474
0.40434 0.61546 0.33545
0.41126 0.61700 0.33639
0.41977 0.61893 0.33767
0.42982 0.62128 0.33942
0.44134 0.62408 0.34180
0.45423 0.62732 0.34488
0.46840 0.63101 0.34867
0.48374 0.63513 0.35307
0.50006 0.63965 0.35783
0.51722 0.64454 0.36275
0.53514 0.64975 0.36771
0.55370 0.65516 0.37232
0.57271 0.66059 0.37616
0.59240 0.66638 0.38113
0.61258 0.67242 0.38590
0.63338 0.67889 0.39059
0.65455 0.68584 0.39585
0.67561 0.69272 0.40003
0.69641 0.69933 0.40389
0.71707 0.70577 0.40801
0.73691 0.71147 0.40804
0.75594 0.71668 0.40779
0.77461 0.72190 0.40839
0.79259 0.72704 0.40898
0.80928 0.73173 0.40776
0.82509 0.73629 0.40596
0.83908 0.73990 0.40338
0.85357 0.74365 0.40341
0.86979 0.74776 0.40879
0.42281 0.65106 0.36085
0.42619 0.65194 0.36186
0.42998 0.65292 0.36294
0.43531 0.65430 0.36436
0.44220 0.65606 0.36605
0.45060 0.65820 0.36789
0.46040 0.66070 0.36986
0.47154 0.66355 0.37202
0.48394 0.66680 0.37456
0.49755 0.67046 0.37768
0.51224 0.67453 0.38130
0.52784 0.67890 0.38518
0.54426 0.68354 0.38914
0.56144 0.68843 0.39314
0.57933 0.69356 0.39726
0.59790 0.69894 0.40175
0.61706 0.70457 0.40640
0.63668 0.71041 0.41043
0.65647 0.71628 0.41331
0.67630 0.72209 0.41565
0.69628 0.72802 0.41884
0.71643 0.73424 0.42424
0.73606 0.74008 0.42701
0.75478 0.74515 0.42506
0.77319 0.75018 0.42415
0.79131 0.75518 0.42367
0.80817 0.75975 0.42224
0.82416 0.76418 0.42022
0.83927 0.76827 0.41769
0.85281 0.77136 0.41452
0.86686 0.77473 0.41328
0.88229 0.77825 0.41629
0.45399 0.68808 0.38336
0.45708 0.68891 0.38437
0.46058 0.68986 0.38551
0.46552 0.69121 0.38708
0.47198 0.69297 0.38908
0.47994 0.69516 0.39145
0.48934 0.69776 0.39418
0.50009 0.70078 0.39726
0.51205 0.70414 0.40052
0.52507 0.70778 0.40381
0.53910 0.71170 0.40718
0.55413 0.71596 0.41074
0.57002 0.72050 0.41434
0.58664 0.72525 0.41786
0.60390 0.73014 0.42126
0.62168 0.73509 0.42433
0.63994 0.74017 0.42690
0.65866 0.74541 0.42987
0.67766 0.75071 0.43333
0.69669 0.75593 0.43579
0.71562 0.76109 0.43720
0.73451 0.76633 0.43840
0.75347 0.77184 0.44111
0.77222 0.77745 0.44477
0.78929 0.78172 0.44022
0.80619 0.78613 0.43636
0.82247 0.79069 0.43413
0.83787 0.79488 0.43113
0.85205 0.79817 0.42733
0.86520 0.80103 0.42360
0.87884 0.80423 0.42123
0.89335 0.80702 0.42113
0.48543 0.72572 0.41556
0.48827 0.72646 0.41605
0.49148 0.72730 0.41658
0.49602 0.72848 0.41731
0.50195 0.73002 0.41826
0.50927 0.73193 0.41945
0.51793 0.73420 0.42094
0.52787 0.73682 0.42280
0.53902 0.73977 0.42514
0.55131 0.74304 0.42795
0.56462 0.74661 0.43113
0.57894 0.75053 0.43452
0.59418 0.75478 0.43800
0.61020 0.75925 0.44139
0.62683 0.76380 0.44449
0.64396 0.76841 0.44725
0.66148 0.77305 0.44958
0.67928 0.77768 0.45104
0.69737 0.78246 0.45240
0.71551 0.78725 0.45405
0.73383 0.79215 0.45557
0.75205 0.79704 0.45597
0.76987 0.80181 0.45579
0.78703 0.80631 0.45470
0.80378 0.81084 0.45469
0.82013 0.81529 0.45048
0.83528 0.81913 0.44366
0.84983 0.82262 0.43958
0.86342 0.82574 0.43518
0.87617 0.82870 0.42926
0.88936 0.83145 0.42568
0.90324 0.83392 0.42367
0.51447 0.75970 0.44243
0.51717 0.76043 0.44306
0.52022 0.76125 0.44371
0.52453 0.76239 0.44453
0.53016 0.76386 0.44542
0.53709 0.76566 0.44633
0.54528 0.76776 0.44724
0.55468 0.77017 0.44827
0.56524 0.77288 0.44959
0.57688 0.77591 0.45139
0.58955 0.77924 0.45379
0.60317 0.78286 0.45675
0.61762 0.78669 0.46000
0.63282 0.79068 0.46315
0.64867 0.79482 0.46603
0.66505 0.79909 0.46853
0.68184 0.80347 0.47058
0.69898 0.80795 0.47234
0.71638 0.81251 0.47372
0.73386 0.81703 0.47428
0.75130 0.82146 0.47440
0.76846 0.82581 0.47377
0.78519 0.83004 0.47225
0.80145 0.83413 0.47016
0.81724 0.83807 0.46484
0.83259 0.84179 0.45971
0.84679 0.84505 0.45266
0.86062 0.84838 0.44581
0.87364 0.85164 0.43909
0.88597 0.85446 0.43206
0.89870 0.85686 0.42742
0.91206 0.85921 0.42389
0.54226 0.79058 0.45926
0.54477 0.79128 0.46010
0.54762 0.79206 0.46102
0.55165 0.79317 0.46223
0.55694 0.79460 0.46365
0.56348 0.79634 0.46515
0.57123 0.79837 0.46663
0.58016 0.80068 0.46812
0.59022 0.80329 0.46983
0.60136 0.80617 0.47194
0.61347 0.80932 0.47451
0.62646 0.81269 0.47748
0.64027 0.81627 0.48072
0.65480 0.82005 0.48404
0.66997 0.82399 0.48723
0.68566 0.82802 0.49005
0.70176 0.83210 0.49236
0.71816 0.83620 0.49410
0.73472 0.84026 0.49525
0.75129 0.84424 0.49574
0.76767 0.84807 0.49493
0.78356 0.85172 0.49323
0.79924 0.85541 0.49090
0.81467 0.85905 0.48686
0.82974 0.86259 0.48120
0.84396 0.86581 0.47150
0.85748 0.86889 0.46187
0.87074 0.87209 0.45369
0.88303 0.87497 0.44535
0.89488 0.87766 0.43622
0.90716 0.88019 0.42886
0.91988 0.88249 0.42306
0.56991 0.81955 0.47633
0.57225 0.82018 0.47717
0.57490 0.82090 0.47812
0.57867 0.82192 0.47943
0.58362 0.82324 0.48106
0.58977 0.82487 0.48289
0.59708 0.82678 0.48479
0.60551 0.82895 0.48664
0.61501 0.83137 0.48856
0.62553 0.83403 0.49076
0.63702 0.83694 0.49340
0.64938 0.84008 0.49651
0.66254 0.84344 0.50008
0.67639 0.84695 0.50396
0.69082 0.85057 0.50785
0.70572 0.85425 0.51130
0.72096 0.85796 0.51397
0.73646 0.86166 0.51585
0.75208 0.86533 0.51691
0.76770 0.86891 0.51722
0.78321 0.87244 0.51672
0.79844 0.87592 0.51504
0.81337 0.87913 0.51217
0.82773 0.88216 0.50752
0.84155 0.88515 0.50031
0.85506 0.88820 0.49044
0.86806 0.89114 0.47866
0.88058 0.89406 0.46725
0.89220 0.89671 0.45643
0.90359 0.89947 0.44519
0.91528 0.90258 0.43200
0.92719 0.90564 0.41869
0.59779 0.84655 0.49531
0.59995 0.84711 0.49605
0.60240 0.84775 0.49688
0.60590 0.84867 0.49806
