provia conversion luts/Provia to Classic Neg sRGB.cube
# sRGB
# github.com/abpy/FujifilmCameraProfiles
LUT_3D_SIZE 32
0.00923 0.01141 0.00931
0.02544 0.01130 0.00657
0.04218 0.01028 0.00294
0.06269 0.00986 0.00000
0.08403 0.01063 0.00000
0.10686 0.01185 0.00000
0.12973 0.01367 0.00000
0.15273 0.01536 0.00000
0.17652 0.01676 0.00000
0.20127 0.01836 0.00000
0.22751 0.02032 0.00000
0.25599 0.02297 0.00000
0.28674 0.02587 0.00000
0.31967 0.02957 0.00000
0.35503 0.03448 0.00000
0.39249 0.03988 0.00000
0.43102 0.04594 0.00000
0.46987 0.05308 0.00000
0.50900 0.06037 0.00000
0.54820 0.06708 0.00000
0.58683 0.07292 0.00000
0.62425 0.07762 0.00000
0.66008 0.08136 0.00000
0.69399 0.08453 0.00000
0.72562 0.08742 0.00000
0.75477 0.09022 0.00000
0.78135 0.09304 0.00000
0.80539 0.09583 0.00000
0.82698 0.09835 0.00000
0.84631 0.10031 0.00000
0.86364 0.10155 0.00000
0.87927 0.10217 0.00000
0.00719 0.03126 0.01492
0.02199 0.03131 0.01221
0.03899 0.03159 0.00972
0.06021 0.03290 0.00775
0.08339 0.03431 0.00662
0.10688 0.03533 0.00534
0.12985 0.03612 0.00431
0.15293 0.03710 0.00324
0.17669 0.03846 0.00169
0.20136 0.04001 0.00063
0.22772 0.04231 0.00000
0.25645 0.04511 0.00000
0.28732 0.04802 0.00000
0.32045 0.05188 0.00000
0.35613 0.05635 0.00000
0.39375 0.06087 0.00000
0.43228 0.06605 0.00000
0.47117 0.07214 0.00000
0.51043 0.07820 0.00000
0.54976 0.08383 0.00000
0.58845 0.08872 0.00000
0.62586 0.09258 0.00000
0.66167 0.09564 0.00000
0.69553 0.09826 0.00000
0.72708 0.10062 0.00000
0.75612 0.10290 0.00000
0.78258 0.10519 0.00000
0.80649 0.10742 0.00000
0.82795 0.10936 0.00000
0.84717 0.11072 0.00000
0.86439 0.11136 0.00000
0.87992 0.11139 0.00000
0.00385 0.05217 0.01859
0.01975 0.05307 0.01617
0.03722 0.05437 0.01435
0.05954 0.05598 0.01293
0.08327 0.05731 0.01174
0.10673 0.05815 0.01058
0.12979 0.05887 0.00956
0.15299 0.05972 0.00819
0.17673 0.06054 0.00677
0.20139 0.06183 0.00574
0.22799 0.06391 0.00423
0.25690 0.06608 0.00249
0.28787 0.06866 0.00126
0.32126 0.07224 0.00000
0.35723 0.07599 0.00000
0.39496 0.07993 0.00000
0.43348 0.08469 0.00000
0.47249 0.09003 0.00000
0.51195 0.09523 0.00000
0.55145 0.10010 0.00000
0.59019 0.10426 0.00000
0.62761 0.10745 0.00000
0.66342 0.10998 0.00000
0.69723 0.11214 0.00000
0.72869 0.11407 0.00000
0.75761 0.11592 0.00000
0.78395 0.11776 0.00000
0.80772 0.11949 0.00000
0.82905 0.12088 0.00000
0.84815 0.12169 0.00000
0.86525 0.12174 0.00000
0.88068 0.12119 0.00000
0.00213 0.07635 0.02256
0.01733 0.07776 0.02061
0.03471 0.07914 0.01917
0.05825 0.08058 0.01778
0.08235 0.08179 0.01650
0.10610 0.08275 0.01534
0.12949 0.08360 0.01419
0.15289 0.08418 0.01300
0.17668 0.08486 0.01196
0.20155 0.08635 0.01085
0.22844 0.08804 0.00923
0.25745 0.08976 0.00771
0.28855 0.09239 0.00640
0.32229 0.09557 0.00420
0.35853 0.09866 0.00146
0.39631 0.10228 0.00000
0.43487 0.10678 0.00000
0.47413 0.11133 0.00000
0.51392 0.11575 0.00000
0.55367 0.11998 0.00000
0.59251 0.12341 0.00000
0.62998 0.12595 0.00000
0.66581 0.12799 0.00000
0.69957 0.12972 0.00000
0.73091 0.13121 0.00000
0.75968 0.13261 0.00000
0.78585 0.13397 0.00000
0.80944 0.13515 0.00000
0.83060 0.13593 0.00000
0.84952 0.13608 0.00000
0.86647 0.13546 0.00000
0.88176 0.13421 0.00000
0.00000 0.10144 0.02807
0.01454 0.10261 0.02645
0.03253 0.10373 0.02501
0.05680 0.10500 0.02343
0.08128 0.10623 0.02189
0.10539 0.10731 0.02047
0.12913 0.10816 0.01922
0.15277 0.10893 0.01812
0.17681 0.11007 0.01703
0.20201 0.11164 0.01575
0.22910 0.11301 0.01436
0.25814 0.11481 0.01294
0.28940 0.11751 0.01118
0.32345 0.12018 0.00866
0.35982 0.12301 0.00601
0.39759 0.12664 0.00336
0.43633 0.13081 0.00000
0.47603 0.13466 0.00000
0.51628 0.13859 0.00000
0.55633 0.14235 0.00000
0.59529 0.14507 0.00000
0.63289 0.14709 0.00000
0.66879 0.14879 0.00000
0.70250 0.15016 0.00000
0.73371 0.15128 0.00000
0.76232 0.15229 0.00000
0.78829 0.15319 0.00000
0.81167 0.15383 0.00000
0.83261 0.15399 0.00000
0.85133 0.15345 0.00000
0.86809 0.15209 0.00000
0.88320 0.15009 0.00000
0.00000 0.12558 0.03646
0.01318 0.12656 0.03474
0.03159 0.12754 0.03311
0.05627 0.12871 0.03124
0.08096 0.12994 0.02936
0.10523 0.13111 0.02764
0.12915 0.13224 0.02615
0.15301 0.13346 0.02476
0.17731 0.13486 0.02340
0.20276 0.13630 0.02198
0.22988 0.13782 0.02048
0.25895 0.13989 0.01875
0.29042 0.14244 0.01659
0.32464 0.14498 0.01407
0.36100 0.14796 0.01152
0.39881 0.15164 0.00867
0.43793 0.15536 0.00483
0.47815 0.15891 0.00050
0.51889 0.16266 0.00000
0.55924 0.16599 0.00000
0.59842 0.16821 0.00000
0.63626 0.17001 0.00000
0.67229 0.17154 0.00000
0.70593 0.17265 0.00000
0.73702 0.17352 0.00000
0.76547 0.17424 0.00000
0.79123 0.17474 0.00000
0.81438 0.17488 0.00000
0.83509 0.17445 0.00000
0.85357 0.17323 0.00000
0.87011 0.17114 0.00000
0.88504 0.16839 0.00000
0.00000 0.14945 0.04867
0.01347 0.15027 0.04698
0.03196 0.15113 0.04528
0.05655 0.15221 0.04319
0.08115 0.15343 0.04089
0.10541 0.15471 0.03858
0.12942 0.15602 0.03642
0.15347 0.15739 0.03443
0.17805 0.15881 0.03251
0.20368 0.16035 0.03048
0.23086 0.16216 0.02825
0.26004 0.16437 0.02582
0.29171 0.16686 0.02321
0.32598 0.16962 0.02061
0.36229 0.17280 0.01784
0.40027 0.17632 0.01459
0.43981 0.17983 0.01079
0.48052 0.18346 0.00698
0.52165 0.18714 0.00296
0.56229 0.19010 0.00000
0.60183 0.19225 0.00000
0.64000 0.19414 0.00000
0.67615 0.19564 0.00000
0.70976 0.19664 0.00000
0.74077 0.19740 0.00000
0.76907 0.19793 0.00000
0.79462 0.19812 0.00000
0.81754 0.19784 0.00000
0.83800 0.19686 0.00000
0.85625 0.19502 0.00000
0.87257 0.19225 0.00000
0.88731 0.18881 0.00000
0.00000 0.17373 0.06174
0.01457 0.17443 0.06019
0.03319 0.17516 0.05857
0.05755 0.17612 0.05653
0.08189 0.17725 0.05420
0.10598 0.17850 0.05172
0.12999 0.17981 0.04920
0.15421 0.18120 0.04672
0.17899 0.18272 0.04402
0.20482 0.18442 0.04107
0.23220 0.18638 0.03796
0.26161 0.18866 0.03480
0.29347 0.19124 0.03173
0.32769 0.19412 0.02860
0.36400 0.19731 0.02523
0.40220 0.20071 0.02157
0.44210 0.20432 0.01791
0.48316 0.20812 0.01434
0.52459 0.21168 0.01016
0.56555 0.21456 0.00457
0.60550 0.21699 0.00000
0.64401 0.21914 0.00000
0.68026 0.22072 0.00000
0.71388 0.22180 0.00000
0.74486 0.22260 0.00000
0.77305 0.22304 0.00000
0.79842 0.22302 0.00000
0.82112 0.22240 0.00000
0.84135 0.22095 0.00000
0.85937 0.21858 0.00000
0.87548 0.21523 0.00000
0.89005 0.21118 0.00000
0.00000 0.19894 0.07554
0.01541 0.19951 0.07405
0.03395 0.20013 0.07246
0.05805 0.20096 0.07035
0.08222 0.20198 0.06784
0.10634 0.20314 0.06508
0.13052 0.20442 0.06223
0.15500 0.20582 0.05928
0.18009 0.20737 0.05619
0.20625 0.20911 0.05297
0.23399 0.21109 0.04968
0.26372 0.21337 0.04624
0.29569 0.21595 0.04256
0.32992 0.21883 0.03865
0.36632 0.22199 0.03457
0.40476 0.22546 0.03048
0.44493 0.22930 0.02674
0.48622 0.23314 0.02292
0.52787 0.23660 0.01840
0.56913 0.23967 0.01308
0.60945 0.24251 0.00752
0.64819 0.24492 0.00182
0.68454 0.24670 0.00000
0.71825 0.24802 0.00000
0.74927 0.24898 0.00000
0.77737 0.24943 0.00000
0.80259 0.24930 0.00000
0.82509 0.24840 0.00000
0.84511 0.24660 0.00000
0.86294 0.24381 0.00000
0.87888 0.24002 0.00000
0.89328 0.23548 0.00000
0.00000 0.22544 0.08902
0.01486 0.22592 0.08755
0.03351 0.22644 0.08597
0.05784 0.22716 0.08388
0.08225 0.22806 0.08139
0.10661 0.22912 0.07866
0.13109 0.23033 0.07577
0.15586 0.23167 0.07265
0.18132 0.23317 0.06938
0.20795 0.23488 0.06618
0.23614 0.23686 0.06283
0.26619 0.23912 0.05908
0.29840 0.24168 0.05527
0.33282 0.24458 0.05132
0.36943 0.24784 0.04703
0.40809 0.25146 0.04267
0.44842 0.25529 0.03828
0.48983 0.25902 0.03371
0.53163 0.26252 0.02884
0.57313 0.26590 0.02384
0.61369 0.26903 0.01881
0.65257 0.27165 0.01350
0.68903 0.27374 0.00782
0.72289 0.27541 0.00285
0.75396 0.27658 0.00000
0.78198 0.27709 0.00000
0.80708 0.27689 0.00000
0.82942 0.27582 0.00000
0.84928 0.27382 0.00000
0.86695 0.27076 0.00000
0.88275 0.26668 0.00000
0.89703 0.26174 0.00000
0.00000 0.25353 0.10280
0.01180 0.25394 0.10146
0.03059 0.25439 0.10001
0.05573 0.25502 0.09806
0.08088 0.25582 0.09570
0.10583 0.25679 0.09302
0.13084 0.25792 0.09013
0.15624 0.25921 0.08716
0.18241 0.26070 0.08416
0.20970 0.26241 0.08103
0.23847 0.26438 0.07764
0.26906 0.26664 0.07410
0.30170 0.26923 0.07041
0.33647 0.27217 0.06629
0.37335 0.27545 0.06175
0.41219 0.27899 0.05709
0.45263 0.28268 0.05249
0.49413 0.28636 0.04782
0.53603 0.29001 0.04297
0.57766 0.29363 0.03805
0.61832 0.29692 0.03304
0.65725 0.29974 0.02795
0.69383 0.30220 0.02334
0.72782 0.30418 0.01969
0.75891 0.30551 0.01666
0.78687 0.30612 0.01403
0.81187 0.30592 0.01239
0.83409 0.30482 0.01177
0.85384 0.30273 0.01245
0.87138 0.29953 0.01432
0.88707 0.29525 0.01747
0.90126 0.28996 0.02188
0.00000 0.28333 0.11753
0.00512 0.28368 0.11635
0.02413 0.28409 0.11507
0.05070 0.28466 0.11335
0.07754 0.28540 0.11127
0.10370 0.28632 0.10895
0.12978 0.28742 0.10650
0.15618 0.28872 0.10398
0.18328 0.29020 0.10120
0.21141 0.29190 0.09806
0.24099 0.29387 0.09484
0.27232 0.29615 0.09153
0.30554 0.29874 0.08764
0.34075 0.30164 0.08307
0.37797 0.30483 0.07830
0.41705 0.30830 0.07362
0.45764 0.31196 0.06910
0.49921 0.31572 0.06456
0.54116 0.31952 0.06006
0.58281 0.32320 0.05555
0.62348 0.32658 0.05100
0.66241 0.32964 0.04675
0.69907 0.33235 0.04327
0.73313 0.33452 0.04055
0.76418 0.33601 0.03824
0.79208 0.33674 0.03671
0.81699 0.33663 0.03622
0.83912 0.33558 0.03671
0.85874 0.33347 0.03829
0.87617 0.33020 0.04088
0.89176 0.32576 0.04444
0.90588 0.32017 0.04905
0.00000 0.31479 0.13456
0.00000 0.31512 0.13356
0.01356 0.31550 0.13247
0.04172 0.31604 0.13100
0.07186 0.31676 0.12920
0.10014 0.31766 0.12714
0.12781 0.31875 0.12488
0.15556 0.32003 0.12244
0.18385 0.32154 0.11984
0.21312 0.32329 0.11709
0.24372 0.32530 0.11406
0.27589 0.32758 0.11050
0.30983 0.33016 0.10641
0.34566 0.33306 0.10208
0.38337 0.33627 0.09769
0.42277 0.33976 0.09316
0.46352 0.34344 0.08850
0.50515 0.34724 0.08380
0.54710 0.35106 0.07916
0.58872 0.35475 0.07468
0.62932 0.35823 0.07057
0.66821 0.36148 0.06726
0.70487 0.36436 0.06481
0.73889 0.36667 0.06297
0.76985 0.36832 0.06178
0.79766 0.36920 0.06141
0.82246 0.36921 0.06182
0.84444 0.36822 0.06279
0.86392 0.36613 0.06454
0.88122 0.36284 0.06698
0.89672 0.35826 0.07012
0.91080 0.35231 0.07412
0.00000 0.34777 0.15338
0.00000 0.34810 0.15254
0.00000 0.34848 0.15162
0.02846 0.34902 0.15037
0.06365 0.34974 0.14883
0.09512 0.35066 0.14705
0.12501 0.35178 0.14511
0.15452 0.35313 0.14304
0.18434 0.35470 0.14082
0.21496 0.35650 0.13819
0.24671 0.35852 0.13489
0.27989 0.36083 0.13125
0.31472 0.36347 0.12748
0.35129 0.36645 0.12361
0.38954 0.36972 0.11933
0.42928 0.37323 0.11471
0.47024 0.37695 0.10998
0.51196 0.38077 0.10518
0.55391 0.38462 0.10048
0.59546 0.38838 0.09608
0.63595 0.39199 0.09228
0.67476 0.39537 0.08928
0.71134 0.39835 0.08703
0.74520 0.40078 0.08549
0.77596 0.40255 0.08471
0.80356 0.40355 0.08472
0.82815 0.40367 0.08539
0.84996 0.40278 0.08674
0.86927 0.40075 0.08870
0.88642 0.39742 0.09112
0.90182 0.39265 0.09410
0.91586 0.38628 0.09787
0.00000 0.38222 0.17426
0.00000 0.38256 0.17357
0.00000 0.38295 0.17280
0.01237 0.38351 0.17174
0.05267 0.38426 0.17041
0.08895 0.38521 0.16883
0.12178 0.38637 0.16702
0.15348 0.38775 0.16497
0.18508 0.38936 0.16263
0.21720 0.39122 0.15998
0.25026 0.39336 0.15709
0.28458 0.39581 0.15398
0.32035 0.39857 0.15054
0.35766 0.40163 0.14670
0.39647 0.40498 0.14256
0.43663 0.40859 0.13823
0.47785 0.41239 0.13365
0.51969 0.41628 0.12880
0.56165 0.42019 0.12400
0.60312 0.42404 0.11956
0.64347 0.42775 0.11572
0.68209 0.43119 0.11258
0.71841 0.43423 0.11019
0.75194 0.43674 0.10861
0.78236 0.43864 0.10795
0.80968 0.43976 0.10809
0.83401 0.43998 0.10894
0.85557 0.43916 0.11046
0.87465 0.43713 0.11250
0.89163 0.43373 0.11494
0.90693 0.42877 0.11799
0.92092 0.42197 0.12165
0.00000 0.41805 0.19681
0.00000 0.41840 0.19620
0.00000 0.41880 0.19552
0.00000 0.41939 0.19457
0.03912 0.42017 0.19335
0.08231 0.42116 0.19189
0.11871 0.42238 0.19020
0.15286 0.42384 0.18833
0.18637 0.42556 0.18629
0.22009 0.42757 0.18410
0.25453 0.42987 0.18164
0.28998 0.43242 0.17858
0.32667 0.43527 0.17508
0.36474 0.43845 0.17137
0.40417 0.44193 0.16746
0.44479 0.44566 0.16323
0.48629 0.44954 0.15852
0.52829 0.45353 0.15364
0.57027 0.45754 0.14888
0.61162 0.46148 0.14440
0.65173 0.46526 0.14042
0.69001 0.46876 0.13707
0.72590 0.47186 0.13448
0.75895 0.47445 0.13278
0.78897 0.47641 0.13200
0.81592 0.47758 0.13204
0.83988 0.47781 0.13282
0.86108 0.47699 0.13432
0.87989 0.47494 0.13647
0.89670 0.47150 0.13924
0.91190 0.46635 0.14229
0.92583 0.45923 0.14590
0.00000 0.45517 0.22110
0.00000 0.45554 0.22056
0.00000 0.45597 0.21996
0.00000 0.45658 0.21911
0.02410 0.45741 0.21803
0.07543 0.45846 0.21671
0.11597 0.45975 0.21518
0.15277 0.46131 0.21345
0.18828 0.46313 0.21150
0.22361 0.46523 0.20926
0.25937 0.46762 0.20668
0.29598 0.47032 0.20379
0.33368 0.47334 0.20059
0.37256 0.47667 0.19700
0.41261 0.48027 0.19299
0.45368 0.48410 0.18862
0.49551 0.48812 0.18407
0.53767 0.49224 0.17946
0.57961 0.49636 0.17481
0.62075 0.50038 0.17024
0.66052 0.50421 0.16607
0.69834 0.50775 0.16251
0.73368 0.51087 0.15969
0.76618 0.51345 0.15772
0.79566 0.51538 0.15665
0.82209 0.51651 0.15647
0.84556 0.51673 0.15721
0.86637 0.51589 0.15875
0.88489 0.51381 0.16097
0.90150 0.51029 0.16372
0.91660 0.50508 0.16704
0.93047 0.49788 0.17085
0.00000 0.49327 0.24644
0.00000 0.49365 0.24594
0.00000 0.49410 0.24538
0.00000 0.49475 0.24459
0.00921 0.49561 0.24356
0.06839 0.49672 0.24229
0.11365 0.49808 0.24079
0.15322 0.49971 0.23907
0.19075 0.50163 0.23712
0.22771 0.50386 0.23497
0.26486 0.50641 0.23260
0.30266 0.50928 0.22990
0.34132 0.51243 0.22657
0.38097 0.51587 0.22278
0.42165 0.51959 0.21873
0.46319 0.52357 0.21452
0.50530 0.52771 0.21015
0.54753 0.53192 0.20556
0.58937 0.53610 0.20084
0.63027 0.54018 0.19629
0.66964 0.54404 0.19211
0.70690 0.54756 0.18842
0.74158 0.55064 0.18539
0.77341 0.55315 0.18317
0.80223 0.55500 0.18184
0.82804 0.55607 0.18148
0.85099 0.55622 0.18206
0.87137 0.55533 0.18348
0.88957 0.55325 0.18566
0.90597 0.54977 0.18857
0.92092 0.54465 0.19214
0.93470 0.53761 0.19626
0.00000 0.53185 0.27203
0.00000 0.53226 0.27156
0.00000 0.53273 0.27102
0.00000 0.53340 0.27026
0.00000 0.53431 0.26925
0.06172 0.53548 0.26800
0.11208 0.53691 0.26651
0.15443 0.53863 0.26478
0.19395 0.54065 0.26281
0.23248 0.54299 0.26056
0.27094 0.54564 0.25800
0.30981 0.54861 0.25509
0.34941 0.55191 0.25186
0.38986 0.55551 0.24834
0.43114 0.55936 0.24450
0.47308 0.56342 0.24031
0.51539 0.56761 0.23584
0.55766 0.57187 0.23124
0.59939 0.57611 0.22670
0.63998 0.58022 0.22234
0.67881 0.58405 0.21817
0.71537 0.58750 0.21438
0.74934 0.59049 0.21122
0.78045 0.59290 0.20879
0.80856 0.59463 0.20723
0.83372 0.59559 0.20663
0.85611 0.59569 0.20701
0.87605 0.59481 0.20834
0.89389 0.59281 0.21056
0.91004 0.58948 0.21358
0.92480 0.58459 0.21740
0.93845 0.57800 0.22206
0.00000 0.57032 0.29711
0.00000 0.57075 0.29663
0.00000 0.57123 0.29610
0.00000 0.57194 0.29533
0.00000 0.57289 0.29431
0.05679 0.57410 0.29304
0.11197 0.57559 0.29150
0.15680 0.57739 0.28971
0.19809 0.57949 0.28767
0.23803 0.58192 0.28538
0.27767 0.58469 0.28286
0.31758 0.58779 0.28011
0.35806 0.59121 0.27708
0.39922 0.59489 0.27359
0.44100 0.59878 0.26957
0.48327 0.60286 0.26529
0.52572 0.60708 0.26087
0.56792 0.61136 0.25641
0.60935 0.61558 0.25198
0.64942 0.61963 0.24765
0.68761 0.62340 0.24355
0.72351 0.62678 0.23988
0.75676 0.62966 0.23670
0.78713 0.63195 0.23417
0.81453 0.63358 0.23247
0.83905 0.63448 0.23173
0.86090 0.63460 0.23197
0.88038 0.63381 0.23322
0.89786 0.63197 0.23543
0.91370 0.62891 0.23861
0.92821 0.62442 0.24277
0.94171 0.61845 0.24790
0.00000 0.60798 0.32116
0.00000 0.60842 0.32069
0.00000 0.60892 0.32015
0.00000 0.60965 0.31938
0.00000 0.61063 0.31836
0.05575 0.61188 0.31708
0.11423 0.61343 0.31553
0.16089 0.61528 0.31373
0.20357 0.61744 0.31167
0.24468 0.61994 0.30936
0.28533 0.62277 0.30678
0.32611 0.62591 0.30390
0.36730 0.62935 0.30069
0.40901 0.63307 0.29716
0.45119 0.63701 0.29336
0.49361 0.64112 0.28927
0.53596 0.64532 0.28492
0.57785 0.64954 0.28048
0.61880 0.65369 0.27612
0.65833 0.65768 0.27197
0.69594 0.66139 0.26811
0.73118 0.66467 0.26456
0.76371 0.66745 0.26146
0.79338 0.66967 0.25901
0.82013 0.67127 0.25732
0.84406 0.67220 0.25650
0.86539 0.67241 0.25668
0.88441 0.67180 0.25791
0.90147 0.67024 0.26020
0.91694 0.66756 0.26359
0.93116 0.66360 0.26810
0.94447 0.65838 0.27375
0.00000 0.64413 0.34396
0.00000 0.64458 0.34349
0.00000 0.64509 0.34295
0.00000 0.64584 0.34217
0.00000 0.64684 0.34113
0.06013 0.64811 0.33982
0.11950 0.64968 0.33824
0.16710 0.65156 0.33638
0.21065 0.65376 0.33424
0.25258 0.65628 0.33183
0.29395 0.65913 0.32916
0.33533 0.66229 0.32623
0.37699 0.66575 0.32305
0.41901 0.66948 0.31960
0.46129 0.67339 0.31581
0.50363 0.67745 0.31173
0.54578 0.68160 0.30752
0.58732 0.68577 0.30327
0.62781 0.68986 0.29907
0.66677 0.69377 0.29506
0.70376 0.69738 0.29135
0.73836 0.70061 0.28806
0.77028 0.70338 0.28527
0.79933 0.70561 0.28302
0.82549 0.70728 0.28144
0.84884 0.70833 0.28074
0.86961 0.70871 0.28100
0.88811 0.70835 0.28232
0.90470 0.70712 0.28477
0.91978 0.70489 0.28841
0.93372 0.70155 0.29329
0.94685 0.69716 0.29940
0.00000 0.67821 0.36526
0.00000 0.67866 0.36477
0.00000 0.67918 0.36422
0.00000 0.67993 0.36342
0.00000 0.68094 0.36236
0.06933 0.68222 0.36101
0.12741 0.68380 0.35938
0.17507 0.68569 0.35746
0.21896 0.68789 0.35526
0.26127 0.69042 0.35278
0.30301 0.69326 0.35004
0.34469 0.69640 0.34703
0.38656 0.69984 0.34378
0.42868 0.70352 0.34030
0.47099 0.70742 0.33664
0.51327 0.71147 0.33280
0.55518 0.71558 0.32875
0.59634 0.71969 0.32460
0.63637 0.72372 0.32055
0.67481 0.72757 0.31674
0.71124 0.73115 0.31330
0.74527 0.73439 0.31030
0.77661 0.73721 0.30781
0.80508 0.73954 0.30592
0.83063 0.74134 0.30472
0.85337 0.74257 0.30430
0.87356 0.74318 0.30483
0.89153 0.74310 0.30640
0.90767 0.74222 0.30911
0.92240 0.74046 0.31303
0.93607 0.73776 0.31826
0.94900 0.73419 0.32468
0.00000 0.70987 0.38491
0.00000 0.71033 0.38441
0.00000 0.71084 0.38384
0.00000 0.71159 0.38303
0.00000 0.71260 0.38194
0.08083 0.71389 0.38057
0.13664 0.71547 0.37890
0.18379 0.71736 0.37693
0.22763 0.71956 0.37468
0.27004 0.72207 0.37215
0.31193 0.72491 0.36935
0.35375 0.72804 0.36631
0.39572 0.73147 0.36305
0.43788 0.73514 0.35959
0.48013 0.73901 0.35595
0.52226 0.74303 0.35214
0.56397 0.74713 0.34826
0.60486 0.75123 0.34438
0.64451 0.75524 0.34057
0.68249 0.75909 0.33700
0.71842 0.76271 0.33382
0.75191 0.76600 0.33116
0.78269 0.76891 0.32912
0.81055 0.77137 0.32773
0.83548 0.77333 0.32704
0.85764 0.77475 0.32717
0.87730 0.77558 0.32814
0.89483 0.77576 0.33007
0.91059 0.77522 0.33312
0.92498 0.77390 0.33740
0.93834 0.77179 0.34291
0.95099 0.76892 0.34939
0.00000 0.73911 0.40296
0.00000 0.73956 0.40246
0.00000 0.74009 0.40188
0.00000 0.74084 0.40106
0.01373 0.74185 0.39996
0.09195 0.74314 0.39856
0.14563 0.74473 0.39687
0.19215 0.74662 0.39488
0.23580 0.74882 0.39260
0.27820 0.75135 0.39003
0.32014 0.75418 0.38720
0.36202 0.75732 0.38413
0.40401 0.76074 0.38084
0.44616 0.76442 0.37739
0.48835 0.76829 0.37380
0.53036 0.77232 0.37013
0.57187 0.77643 0.36641
0.61249 0.78054 0.36271
0.65183 0.78458 0.35916
0.68946 0.78848 0.35590
0.72497 0.79215 0.35307
0.75796 0.79552 0.35080
0.78819 0.79853 0.34924
0.81551 0.80110 0.34849
0.83994 0.80321 0.34853
0.86166 0.80479 0.34926
0.88093 0.80580 0.35077
0.89808 0.80620 0.35321
0.91348 0.80595 0.35672
0.92752 0.80501 0.36138
0.94057 0.80335 0.36706
0.95291 0.80103 0.37331
0.00000 0.76624 0.41969
0.00000 0.76670 0.41919
0.00000 0.76722 0.41862
0.00000 0.76798 0.41779
0.02673 0.76900 0.41669
0.10060 0.77029 0.41529
0.15285 0.77188 0.41360
0.19892 0.77378 0.41160
0.24243 0.77600 0.40931
0.28481 0.77853 0.40674
0.32675 0.78137 0.40390
0.36862 0.78452 0.40083
0.41058 0.78795 0.39756
0.45264 0.79162 0.39413
0.49470 0.79551 0.39059
0.53655 0.79955 0.38701
0.57790 0.80368 0.38346
0.61836 0.80783 0.38000
0.65749 0.81192 0.37672
0.69486 0.81586 0.37375
0.73004 0.81959 0.37125
0.76271 0.82303 0.36941
0.79261 0.82612 0.36836
0.81963 0.82878 0.36816
0.84380 0.83099 0.36882
0.86525 0.83268 0.37029
0.88423 0.83384 0.37249
0.90108 0.83442 0.37553
0.91621 0.83439 0.37951
0.92997 0.83373 0.38444
0.94272 0.83243 0.39006
0.95469 0.83057 0.39568
0.00000 0.79169 0.43576
0.00000 0.79215 0.43526
0.00000 0.79267 0.43470
0.00000 0.79342 0.43389
0.02740 0.79444 0.43280
0.10203 0.79573 0.43143
0.15466 0.79732 0.42976
0.20103 0.79921 0.42779
0.24475 0.80142 0.42553
0.28728 0.80394 0.42298
0.32933 0.80677 0.42017
0.37125 0.80991 0.41713
0.41321 0.81332 0.41390
0.45524 0.81699 0.41052
0.49724 0.82088 0.40705
0.53901 0.82492 0.40355
0.58027 0.82907 0.40010
0.62065 0.83325 0.39678
0.65973 0.83737 0.39369
0.69708 0.84136 0.39098
0.73230 0.84515 0.38878
0.76504 0.84864 0.38724
0.79504 0.85178 0.38653
0.82216 0.85452 0.38675
0.84638 0.85679 0.38793
0.86781 0.85858 0.39002
0.88674 0.85986 0.39289
0.90351 0.86059 0.39637
0.91849 0.86078 0.40053
0.93201 0.86040 0.40527
0.94439 0.85952 0.41017
0.95587 0.85823 0.41425
0.00000 0.81580 0.45225
0.00000 0.81624 0.45178
0.00000 0.81675 0.45123
0.00000 0.81749 0.45045
0.00000 0.81849 0.44940
0.08093 0.81975 0.44807
0.14112 0.82131 0.44645
0.19079 0.82317 0.44454
0.23643 0.82534 0.44233
0.28020 0.82782 0.43983
0.32309 0.83061 0.43707
0.36563 0.83371 0.43407
0.40804 0.83709 0.43087
0.45042 0.84073 0.42752
0.49271 0.84460 0.42407
0.53475 0.84863 0.42061
0.57629 0.85278 0.41720
0.61702 0.85698 0.41394
0.65654 0.86113 0.41093
0.69444 0.86517 0.40830
0.73031 0.86900 0.40619
0.76375 0.87255 0.40476
0.79444 0.87575 0.40418
0.82219 0.87855 0.40456
0.84694 0.88092 0.40596
0.86879 0.88282 0.40827
0.88796 0.88424 0.41132
0.90482 0.88518 0.41475
0.91970 0.88567 0.41836
0.93294 0.88576 0.42193
0.94485 0.88555 0.42486
0.95569 0.88516 0.42608
0.00000 0.83880 0.47025
0.00000 0.83923 0.46980
0.00000 0.83972 0.46928
0.00000 0.84042 0.46853
