cube lut/astia_DisplayP3.cube
# DisplayP3
# github.com/abpy/FujifilmCameraProfiles
LUT_3D_SIZE 8
DOMAIN_MIN 0.000000 0.000000 0.000000
DOMAIN_MAX 0.903226 0.903226 0.903226
0.00000 0.00000 0.00000
0.09027 0.00936 0.00165
0.33161 0.04653 0.00254
0.59971 0.11406 0.00000
0.80178 0.16337 0.00000
0.94725 0.20302 0.10898
1.00000 0.23910 0.21851
1.00000 0.26675 0.14259
0.00000 0.07542 0.00820
0.06817 0.07156 0.00611
0.31807 0.09422 0.01278
0.59593 0.14376 0.01560
0.79963 0.19222 0.00000
0.94542 0.22970 0.05778
1.00000 0.26066 0.19107
1.00000 0.28795 0.10778
0.00000 0.27346 0.03520
0.00000 0.25266 0.01333
0.26610 0.27062 0.02783
0.58066 0.27108 0.08002
0.79107 0.26364 0.06292
0.93748 0.28068 0.05799
1.00000 0.30403 0.16442
1.00000 0.33316 0.06500
0.00000 0.51381 0.11109
0.00000 0.50810 0.07800
0.00000 0.51080 0.07559
0.50487 0.52438 0.10715
0.75025 0.51714 0.13689
0.91281 0.46612 0.12371
1.00000 0.41177 0.11467
1.00000 0.41013 0.08936
0.00000 0.69403 0.18562
0.00000 0.69650 0.15356
0.00000 0.69919 0.11492
0.35790 0.71158 0.13252
0.67842 0.71268 0.16102
0.85873 0.70532 0.18199
1.00000 0.66290 0.17850
1.00000 0.60613 0.08506
0.00000 0.82126 0.25269
0.00000 0.82464 0.22672
0.00000 0.82887 0.16530
0.00000 0.83548 0.15249
0.58088 0.83164 0.17148
0.79916 0.83151 0.19282
0.95932 0.82329 0.21315
1.00000 0.80465 0.21408
0.00000 0.91404 0.30715
0.00000 0.91889 0.28797
0.00000 0.92855 0.23520
0.00000 0.93503 0.16645
0.42494 0.92782 0.17918
0.72699 0.92471 0.19925
0.90254 0.92461 0.21908
1.00000 0.91996 0.23946
0.00000 0.95724 0.34875
0.00000 0.96044 0.33394
0.00000 0.96802 0.29163
0.00000 0.97739 0.20805
0.00000 0.98217 0.18134
0.63744 0.98668 0.20000
0.84060 0.99234 0.21801
0.98707 0.99458 0.24432
0.00534 0.00538 0.11494
0.09507 0.01945 0.09536
0.33695 0.05026 0.09213
0.60409 0.10962 0.12513
0.80573 0.15276 0.16955
0.94912 0.19141 0.22826
1.00000 0.22893 0.30140
1.00000 0.25760 0.24030
0.00000 0.07437 0.09088
0.08165 0.08190 0.08168
0.32014 0.10792 0.08300
0.59862 0.14441 0.11584
0.80245 0.17670 0.16009
0.94667 0.21258 0.20857
1.00000 0.24597 0.28282
1.00000 0.27640 0.22300
0.00000 0.26622 0.09903
0.00000 0.26752 0.05800
0.27928 0.28079 0.06036
0.57814 0.29590 0.09261
0.78956 0.27686 0.14269
0.93674 0.26738 0.20029
1.00000 0.28351 0.26708
1.00000 0.31721 0.21022
0.00000 0.51051 0.15306
0.00000 0.50638 0.09195
0.07558 0.51348 0.07529
0.50913 0.52540 0.10410
0.74485 0.52649 0.14494
0.90767 0.48066 0.17230
1.00000 0.41405 0.21363
1.00000 0.40111 0.21149
0.00000 0.69211 0.22120
0.00000 0.69381 0.17758
0.00000 0.69568 0.11378
0.37553 0.70607 0.13138
0.67902 0.71098 0.15604
0.85716 0.70426 0.18691
0.99954 0.66931 0.21370
1.00000 0.61668 0.19082
0.00000 0.81921 0.28434
0.00000 0.82190 0.25401
0.00000 0.82337 0.17300
0.00000 0.83235 0.14668
0.58478 0.83507 0.17472
0.79856 0.83677 0.19484
0.95667 0.82729 0.22149
1.00000 0.80507 0.23793
0.00000 0.91304 0.33486
0.00000 0.91746 0.31378
0.00000 0.92544 0.25306
0.00000 0.93182 0.16805
0.43578 0.92949 0.17710
0.72786 0.93185 0.20600
0.90133 0.93219 0.22834
1.00000 0.92677 0.25414
0.00000 0.95725 0.37335
0.00000 0.96039 0.35755
0.00000 0.96780 0.31127
0.00000 0.97699 0.21463
0.03079 0.98240 0.18312
0.64200 0.98797 0.20512
0.84198 0.99378 0.22396
0.98521 0.99761 0.25570
0.00441 0.00719 0.38561
0.09773 0.01341 0.37350
0.36630 0.06242 0.36636
0.62386 0.12324 0.35923
0.81107 0.15994 0.40184
0.94781 0.18220 0.43589
1.00000 0.20857 0.47135
1.00000 0.23680 0.40791
0.00605 0.10057 0.35189
0.11093 0.11304 0.34589
0.34798 0.13695 0.33988
0.60631 0.17696 0.35432
0.79760 0.20495 0.40158
0.93844 0.20931 0.44192
1.00000 0.21323 0.46187
1.00000 0.24809 0.40110
0.00000 0.29341 0.32908
0.00000 0.29520 0.31684
0.30739 0.30701 0.30714
0.58546 0.32201 0.31572
0.78002 0.32737 0.36148
0.92203 0.31030 0.41390
1.00000 0.25510 0.44998
1.00000 0.28430 0.40638
0.00000 0.50759 0.32388
0.00000 0.50975 0.28991
0.16080 0.51699 0.26988
0.52231 0.52857 0.26725
0.74101 0.53288 0.30334
0.89550 0.51196 0.34478
1.00000 0.46124 0.39022
1.00000 0.40342 0.38185
0.00000 0.68145 0.34389
0.00000 0.68138 0.30550
0.00000 0.68450 0.25310
0.41672 0.69520 0.24790
0.68400 0.70059 0.26529
0.85225 0.69895 0.30504
0.99247 0.67934 0.33899
1.00000 0.64103 0.34565
0.00000 0.80805 0.37833
0.00000 0.80835 0.34709
0.00000 0.80604 0.26912
0.17591 0.81663 0.22411
0.60126 0.82919 0.25569
0.80171 0.82678 0.26442
0.94899 0.82388 0.31298
1.00000 0.80340 0.33116
0.00000 0.90623 0.41093
0.00000 0.90894 0.38857
0.00000 0.91117 0.32276
0.00000 0.91703 0.20570
0.47172 0.92743 0.22860
0.73456 0.93523 0.27685
0.90118 0.93001 0.29925
1.00000 0.92878 0.33266
0.00000 0.95636 0.43819
0.00000 0.95938 0.42143
0.00000 0.96655 0.37104
0.00000 0.97624 0.25213
0.18312 0.98186 0.22238
0.65472 0.98929 0.25330
0.84751 0.99425 0.29171
0.98312 0.99841 0.33324
0.00687 0.00929 0.73170
0.09417 0.01447 0.71971
0.36211 0.05897 0.69952
0.64279 0.13597 0.67951
0.81751 0.17667 0.66563
0.94435 0.20852 0.66642
1.00000 0.21781 0.68859
1.00000 0.24559 0.62745
0.00358 0.11732 0.70096
0.12913 0.13486 0.69544
0.37902 0.16446 0.67034
0.62391 0.22269 0.63723
0.80053 0.23794 0.64224
0.93325 0.24871 0.65888
1.00000 0.24480 0.68333
1.00000 0.26660 0.63319
0.00000 0.32738 0.66455
0.05073 0.33297 0.65012
0.34761 0.34976 0.61334
0.59685 0.36448 0.58820
0.77832 0.37409 0.59664
0.91046 0.38237 0.62193
1.00000 0.37959 0.65826
1.00000 0.36836 0.64110
0.00000 0.52172 0.62147
0.00000 0.52055 0.60756
0.22475 0.52950 0.57138
0.53913 0.53912 0.53894
0.74417 0.54291 0.54060
0.88792 0.54014 0.56710
1.00000 0.53032 0.60065
1.00000 0.50390 0.59531
0.00000 0.67262 0.60464
0.00000 0.67432 0.58708
0.00000 0.67778 0.54402
0.44682 0.68930 0.50386
0.69189 0.69685 0.49816
0.84965 0.69830 0.51931
0.98343 0.69170 0.54850
1.00000 0.68045 0.56591
0.00000 0.78748 0.59171
0.00000 0.78737 0.57692
0.00000 0.79054 0.53660
0.29236 0.80266 0.48731
0.62717 0.81204 0.47420
0.80566 0.81445 0.48363
0.94438 0.81961 0.51216
1.00000 0.80778 0.53966
0.00000 0.88836 0.57766
0.00000 0.88895 0.56617
0.00000 0.88864 0.53965
0.00000 0.89858 0.48337
0.52263 0.91655 0.45044
0.75188 0.91830 0.46389
0.90511 0.92089 0.47961
1.00000 0.92146 0.51037
0.00000 0.95306 0.57175
0.00000 0.95609 0.56080
0.00000 0.96380 0.53322
0.00000 0.97662 0.48837
0.33550 0.98207 0.42691
0.68210 0.98683 0.42918
0.85785 0.99395 0.46877
0.98333 0.99375 0.50040
0.00000 0.01132 0.94444
0.07745 0.00978 0.95542
0.34830 0.05728 0.94720
0.62831 0.13659 0.91450
0.81393 0.18651 0.88136
0.94640 0.21797 0.86505
1.00000 0.24024 0.85200
1.00000 0.29915 0.80343
0.00000 0.13276 0.95689
0.10048 0.13882 0.95439
0.36820 0.16529 0.92690
0.62624 0.21785 0.88316
0.80279 0.26638 0.84855
0.93320 0.28180 0.83967
1.00000 0.28157 0.84042
1.00000 0.33229 0.79858
0.00000 0.36988 0.90591
0.14768 0.38342 0.87917
0.39147 0.40209 0.83602
0.60946 0.42221 0.79391
0.77895 0.42831 0.78247
0.91038 0.43387 0.78392
1.00000 0.43714 0.79450
1.00000 0.44684 0.77983
0.00000 0.53495 0.85866
0.00000 0.53758 0.84179
0.29329 0.54763 0.79981
0.56224 0.56260 0.75522
0.74752 0.57127 0.73706
0.88795 0.56821 0.73869
1.00000 0.57325 0.74736
1.00000 0.58984 0.74840
0.00000 0.67067 0.83012
0.00000 0.67320 0.81676
0.01543 0.68166 0.77419
0.47920 0.69129 0.72443
0.70126 0.70118 0.70141
0.85215 0.70503 0.69829
0.98157 0.70317 0.70701
1.00000 0.70952 0.71686
0.00000 0.78065 0.81601
0.00000 0.78228 0.80500
0.00000 0.78659 0.76483
0.34789 0.79886 0.70420
0.64487 0.80671 0.67371
0.81116 0.81344 0.66841
0.94616 0.82001 0.67551
1.00000 0.81758 0.69372
0.00000 0.87456 0.79910
0.00000 0.87577 0.79232
0.00000 0.87879 0.76615
0.00000 0.89126 0.69909
0.55542 0.90645 0.65417
0.76630 0.91285 0.65239
0.91008 0.91822 0.65683
1.00000 0.91695 0.67719
0.00000 0.94711 0.77604
0.00000 0.95000 0.77374
0.00000 0.95718 0.76217
0.00000 0.97022 0.70774
0.43488 0.98169 0.65019
0.71002 0.98525 0.63514
0.86995 0.98902 0.65108
0.98462 0.98682 0.66282
0.00000 0.06705 0.96653
0.04693 0.05836 0.97260
0.31931 0.07630 0.97936
0.60685 0.14227 0.98394
0.80142 0.20342 0.98605
0.94053 0.24423 0.97964
1.00000 0.28295 0.96416
1.00000 0.33747 0.92589
0.00000 0.16987 0.97811
0.06036 0.16593 0.97936
0.33974 0.18145 0.98084
0.61374 0.22756 0.98296
0.79720 0.27495 0.97636
0.93158 0.31278 0.96574
1.00000 0.33814 0.95156
1.00000 0.38469 0.91643
0.00000 0.38615 0.98038
0.10970 0.39916 0.98096
0.39461 0.42622 0.97917
0.61769 0.44884 0.95868
0.78094 0.45178 0.93711
0.90742 0.48939 0.91855
1.00000 0.48449 0.91591
1.00000 0.51277 0.88854
0.00000 0.56470 0.97786
0.11849 0.57385 0.96989
0.36694 0.58604 0.95231
0.59368 0.60383 0.91410
0.75515 0.61020 0.89065
0.88535 0.60953 0.88566
1.00000 0.62097 0.87403
1.00000 0.63502 0.85899
0.00000 0.67968 0.97208
0.00000 0.68228 0.96432
0.22674 0.69257 0.93828
0.52004 0.70547 0.89408
0.71669 0.71671 0.86391
0.85528 0.72158 0.84994
0.97992 0.72889 0.84325
1.00000 0.73764 0.83525
0.00000 0.78239 0.97288
0.00000 0.78493 0.96561
0.00000 0.79271 0.93133
0.40554 0.80513 0.87442
0.66259 0.81281 0.83671
0.82073 0.82110 0.82103
0.95159 0.82837 0.81680
1.00000 0.83137 0.81959
0.00000 0.87716 0.96195
0.00000 0.87981 0.95744
0.00000 0.88471 0.92930
0.20534 0.89515 0.86866
0.58834 0.90576 0.81937
0.78032 0.91367 0.80563
0.91686 0.91764 0.79649
1.00000 0.92169 0.80165
0.00000 0.94366 0.94933
0.00000 0.94722 0.94983
0.00000 0.95670 0.94307
0.00000 0.96724 0.88583
0.47604 0.97557 0.80736
0.72357 0.98363 0.78356
0.87737 0.98297 0.78369
0.98604 0.98869 0.78501
0.00000 0.13903 0.97708
0.02636 0.12869 0.97825
0.28819 0.13126 0.97974
0.58024 0.16644 0.98125
0.78265 0.20507 0.98339
0.92844 0.26472 0.98778
1.00000 0.33484 0.99699
1.00000 0.38326 0.99197
0.00000 0.23029 0.97942
0.00107 0.22120 0.97943
0.30931 0.21937 0.97992
0.58793 0.24470 0.98144
0.78281 0.27669 0.98393
0.92455 0.32306 0.98795
1.00000 0.38565 0.99616
1.00000 0.43644 0.98684
0.00000 0.40035 0.97965
0.04012 0.40771 0.97981
0.36126 0.42763 0.98100
0.60264 0.44318 0.98343
0.77818 0.47106 0.98598
0.91003 0.49179 0.99031
1.00000 0.52356 0.98659
1.00000 0.56513 0.96980
0.00000 0.59219 0.98227
0.22902 0.60489 0.98355
0.42693 0.61998 0.98519
0.62162 0.63629 0.98587
0.76595 0.65007 0.98493
0.88973 0.64786 0.98042
1.00000 0.66056 0.96985
1.00000 0.68518 0.95768
0.00000 0.69701 0.98526
0.06616 0.70217 0.98623
0.34481 0.71233 0.98824
0.56949 0.72908 0.98346
0.73652 0.74116 0.97926
0.86480 0.74742 0.96612
0.98558 0.75487 0.95916
1.00000 0.76658 0.95181
0.00000 0.78986 0.98575
0.00000 0.79198 0.98588
0.13232 0.79998 0.98523
0.47892 0.81445 0.97792
0.68673 0.82498 0.96471
0.83327 0.83330 0.95325
0.95823 0.83824 0.95237
1.00000 0.84497 0.93567
0.00000 0.88343 0.98713
0.00000 0.88459 0.98761
0.00000 0.89023 0.98748
0.33897 0.90374 0.98020
0.61786 0.91421 0.95625
0.79087 0.91704 0.93966
0.92072 0.92084 0.92082
1.00000 0.92155 0.91362
0.00000 0.93518 0.99161
0.00000 0.93779 0.99058
0.00000 0.94537 0.98692
0.00000 0.95898 0.96815
0.51727 0.97411 0.93219
0.73682 0.98114 0.90754
0.87658 0.98323 0.89637
0.98002 0.98726 0.89097
0.00000 0.20662 0.97763
0.02894 0.19659 0.97843
0.26515 0.18652 0.97900
0.55423 0.20828 0.98077
0.76529 0.24542 0.98323
0.91416 0.26908 0.98580
1.00000 0.32637 0.98874
1.00000 0.41555 0.98960
0.00000 0.28659 0.97886
0.00874 0.27816 0.97928
0.28200 0.27162 0.97958
0.56392 0.28536 0.98116
0.76733 0.31487 0.98362
0.91277 0.33523 0.98625
1.00000 0.38928 0.98914
1.00000 0.46590 0.99004
0.00000 0.42538 0.97998
0.00000 0.42153 0.98010
0.32008 0.43926 0.98094
0.58568 0.45986 0.98274
0.76886 0.48527 0.98519
0.90607 0.49571 0.98794
1.00000 0.53495 0.99065
1.00000 0.59281 0.99237
0.04681 0.60416 0.98224
0.22903 0.61288 0.98271
0.43507 0.63273 0.98391
0.63022 0.65373 0.98589
0.76888 0.66064 0.98850
0.89417 0.67691 0.99168
1.00000 0.68464 0.99282
1.00000 0.72613 0.99701
0.16125 0.72534 0.98452
0.29273 0.73495 0.98514
0.45875 0.74715 0.98632
0.62464 0.76023 0.98814
0.76276 0.77023 0.99196
0.87435 0.77746 0.99432
0.98203 0.78253 0.99715
1.00000 0.79150 0.99899
0.00000 0.80687 0.98553
0.09799 0.81034 0.98599
0.34649 0.81829 0.98737
0.55435 0.82824 0.98887
0.72189 0.83949 0.99367
0.84387 0.84573 0.99366
0.95278 0.84992 0.99996
1.00000 0.85559 0.99541
0.00000 0.88845 0.98827
0.00000 0.89070 0.98885
0.08825 0.89715 0.99077
0.45112 0.90638 0.99413
0.66109 0.91275 0.99488
0.80190 0.91783 0.99874
0.91822 0.91933 0.99195
0.99748 0.91740 0.98996
0.00000 0.93825 0.98851
0.00000 0.94007 0.98871
0.00000 0.94593 0.98953
0.24730 0.95628 0.99080
0.57660 0.96773 0.99067
0.74741 0.97348 0.98244
0.87291 0.97692 0.97793
0.97706 0.97697 0.97686
