cube lut/astia_sRGB.cube
# sRGB
# github.com/abpy/FujifilmCameraProfiles
LUT_3D_SIZE 8
DOMAIN_MIN 0.000000 0.000000 0.000000
DOMAIN_MAX 0.903226 0.903226 0.903226
0.00000 0.00000 0.00000
0.08222 0.00728 0.00000
0.29993 0.01189 0.00000
0.58121 0.01749 0.00000
0.80674 0.02250 0.00000
0.97002 0.04870 0.00000
1.00000 0.06026 0.12095
1.00000 0.12661 0.20329
0.00000 0.06264 0.00575
0.06911 0.07223 0.00353
0.30002 0.07972 0.00156
0.58530 0.07591 0.00000
0.80860 0.08057 0.00000
0.96848 0.09861 0.00000
1.00000 0.10974 0.12292
1.00000 0.15425 0.20239
0.00000 0.25198 0.00000
0.00000 0.25841 0.00000
0.26952 0.27377 0.00000
0.57436 0.27784 0.00000
0.80111 0.25378 0.00000
0.96303 0.21161 0.00000
1.00000 0.20535 0.13474
1.00000 0.21887 0.21557
0.00000 0.50585 0.00000
0.00000 0.50877 0.00000
0.00000 0.51735 0.00000
0.50391 0.52592 0.00000
0.74901 0.52741 0.00000
0.91532 0.49882 0.00000
1.00000 0.44946 0.04489
1.00000 0.40040 0.15075
0.00000 0.69896 0.00000
0.00000 0.70129 0.00000
0.00000 0.70703 0.00000
0.38438 0.71043 0.00000
0.67276 0.71049 0.00000
0.85509 0.70523 0.00000
1.00000 0.68501 0.00000
1.00000 0.65473 0.08253
0.00000 0.82701 0.00000
0.00000 0.82882 0.00000
0.00000 0.83367 0.00000
0.19305 0.83778 0.00000
0.59148 0.83902 0.00000
0.79185 0.83512 0.00000
0.94784 0.82795 0.00000
1.00000 0.81637 0.07756
0.00000 0.92916 0.00000
0.00000 0.93141 0.00000
0.00000 0.93390 0.00000
0.00000 0.93539 0.00000
0.50145 0.94270 0.00000
0.72768 0.93929 0.00000
0.89413 0.93218 0.00000
1.00000 0.93059 0.11329
0.00000 0.99608 0.00000
0.00000 0.99679 0.00000
0.00000 0.99780 0.00000
0.00000 0.99744 0.00000
0.43713 0.99881 0.00000
0.68106 0.99821 0.00000
0.85349 0.99841 0.06439
0.97961 0.99820 0.18950
0.00508 0.00484 0.11388
0.08561 0.01778 0.09088
0.30476 0.01631 0.07628
0.58121 0.01839 0.08989
0.81029 0.00000 0.11922
0.97158 0.00000 0.17510
1.00000 0.00000 0.24967
1.00000 0.08361 0.29629
0.00000 0.07554 0.08508
0.08160 0.08191 0.08165
0.30563 0.09427 0.07235
0.58441 0.10033 0.08014
0.80942 0.08496 0.12659
0.96815 0.06864 0.18875
1.00000 0.06162 0.25612
1.00000 0.11303 0.29851
0.00000 0.26546 0.04023
0.00000 0.27142 0.03347
0.28117 0.28317 0.01731
0.57113 0.29926 0.02754
0.79455 0.28475 0.08691
0.95758 0.23863 0.15652
1.00000 0.20016 0.24818
1.00000 0.19475 0.30421
0.00000 0.50811 0.00000
0.00000 0.51121 0.00000
0.07584 0.51815 0.00000
0.50982 0.52654 0.00000
0.74637 0.52940 0.00000
0.91053 0.50804 0.07425
1.00000 0.46640 0.17283
1.00000 0.41895 0.25086
0.00000 0.69488 0.00000
0.00000 0.69676 0.00000
0.00000 0.70163 0.00000
0.40342 0.70560 0.00000
0.67607 0.70577 0.00000
0.85323 0.70244 0.00614
0.99794 0.68606 0.11812
1.00000 0.66028 0.19755
0.00000 0.82128 0.00000
0.00000 0.82317 0.00000
0.00000 0.82742 0.00000
0.23552 0.83348 0.00000
0.59997 0.83460 0.00000
0.79470 0.83016 0.00000
0.94568 0.82518 0.05067
1.00000 0.81576 0.20285
0.00000 0.92262 0.00000
0.00000 0.92517 0.00000
0.00000 0.92824 0.00000
0.00000 0.93218 0.00000
0.51193 0.94143 0.00000
0.73212 0.93630 0.01661
0.89568 0.92852 0.11183
1.00000 0.92912 0.21343
0.00000 0.99571 0.00000
0.00000 0.99631 0.00000
0.00000 0.99687 0.00000
0.00000 0.99677 0.00000
0.45065 0.99854 0.00000
0.68560 0.99763 0.00000
0.85564 0.99821 0.18144
0.97982 0.99727 0.26172
0.00411 0.00616 0.36960
0.09036 0.01051 0.35912
0.33633 0.02316 0.35131
0.59978 0.04561 0.34574
0.81556 0.03441 0.37711
0.96244 0.04620 0.43528
1.00000 0.00000 0.46906
1.00000 0.00000 0.47361
0.00000 0.10297 0.33745
0.10772 0.11038 0.33654
0.33504 0.12205 0.33291
0.59382 0.14211 0.33957
0.80415 0.15494 0.38002
0.95302 0.15355 0.43276
1.00000 0.10299 0.47370
1.00000 0.00000 0.47845
0.00000 0.29224 0.31906
0.00000 0.29687 0.31772
0.30749 0.30699 0.30710
0.58303 0.31678 0.30753
0.78903 0.32027 0.34087
0.93733 0.31717 0.39612
1.00000 0.27663 0.44414
1.00000 0.17963 0.45937
0.00000 0.51282 0.29220
0.00000 0.51540 0.28505
0.15902 0.52206 0.26492
0.52269 0.52942 0.25940
0.74339 0.53390 0.28909
0.90112 0.52638 0.33506
1.00000 0.50844 0.39129
1.00000 0.46963 0.42682
0.00000 0.68583 0.27830
0.00000 0.68830 0.26329
0.00000 0.69354 0.24116
0.43849 0.69726 0.23856
0.68282 0.69949 0.25510
0.85042 0.69880 0.30196
0.98953 0.69043 0.34861
1.00000 0.67152 0.38403
0.00000 0.81039 0.28140
0.00000 0.81199 0.26936
0.00000 0.81574 0.24792
0.32039 0.82262 0.24731
0.62118 0.82137 0.24683
0.79941 0.82077 0.27083
0.94221 0.82163 0.32202
1.00000 0.81437 0.38252
0.00000 0.91076 0.28937
0.00000 0.91250 0.27629
0.00000 0.91716 0.26041
0.05971 0.92445 0.23217
0.54179 0.93255 0.26345
0.74599 0.92510 0.28948
0.89951 0.92272 0.31320
1.00000 0.92556 0.37898
0.00000 0.99443 0.30156
0.00000 0.99505 0.28263
0.00000 0.99504 0.26765
0.00000 0.99585 0.26260
0.48405 0.99712 0.26891
0.69898 0.99595 0.27812
0.86078 0.99763 0.34646
0.98081 0.99449 0.39742
0.00276 0.01119 0.71898
0.08670 0.01213 0.70808
0.33824 0.01740 0.69276
0.62604 0.06830 0.66653
0.82416 0.09045 0.65031
0.95982 0.11620 0.65695
1.00000 0.12949 0.67729
1.00000 0.14162 0.68552
0.00000 0.11716 0.68758
0.12951 0.13465 0.68252
0.36869 0.15796 0.65824
0.61501 0.19632 0.62745
0.80794 0.21093 0.62471
0.94464 0.22742 0.64114
1.00000 0.23765 0.66904
1.00000 0.24196 0.68232
0.00000 0.32722 0.65362
0.00000 0.33230 0.64214
0.34322 0.34478 0.61140
0.59486 0.35525 0.58571
0.78849 0.35863 0.58771
0.92871 0.36679 0.60456
1.00000 0.37998 0.63550
1.00000 0.38433 0.65741
0.00000 0.52431 0.60665
0.00000 0.52791 0.59343
0.22747 0.53289 0.56598
0.53913 0.53912 0.53888
0.74744 0.54167 0.53565
0.89769 0.54036 0.55471
1.00000 0.53990 0.58409
1.00000 0.53883 0.60917
0.00000 0.68186 0.57336
0.00000 0.68341 0.56014
0.00000 0.68869 0.53299
0.46481 0.69346 0.50561
0.69212 0.69686 0.50040
0.85143 0.69818 0.51541
0.98416 0.69642 0.54133
1.00000 0.69073 0.57413
0.00000 0.80034 0.55818
0.00000 0.80216 0.54452
0.00000 0.80602 0.51659
0.37683 0.81129 0.49514
0.64225 0.81150 0.48619
0.80537 0.81341 0.49434
0.94105 0.81882 0.51721
1.00000 0.81466 0.54896
0.00000 0.89949 0.55287
0.00000 0.90153 0.54192
0.00000 0.90691 0.51723
0.25173 0.91482 0.48712
0.57530 0.91754 0.48474
0.76097 0.91576 0.49371
0.90416 0.92035 0.50487
1.00000 0.92012 0.54531
0.00000 0.99116 0.55140
0.00000 0.99209 0.53995
0.00000 0.99396 0.51750
0.05835 0.99571 0.49462
0.52837 0.99331 0.48471
0.71862 0.99485 0.48727
0.86996 0.99453 0.52891
0.98313 0.98934 0.54766
0.00000 0.00875 0.96862
0.07000 0.00739 0.97815
0.32457 0.02426 0.96306
0.61975 0.05763 0.92354
0.82133 0.13198 0.87721
0.96057 0.17759 0.85048
1.00000 0.19425 0.84241
1.00000 0.21828 0.83022
0.00000 0.13012 0.97265
0.09825 0.13766 0.96818
0.36042 0.15429 0.93500
0.62254 0.19657 0.88340
0.80750 0.26062 0.83532
0.94698 0.28470 0.82005
1.00000 0.29371 0.81857
1.00000 0.31093 0.81750
0.00000 0.37667 0.89065
0.12513 0.38303 0.87153
0.38532 0.39722 0.83674
0.60479 0.41226 0.79581
0.78437 0.41566 0.78014
0.92544 0.42748 0.77403
1.00000 0.43240 0.77793
1.00000 0.45389 0.78532
0.00000 0.53962 0.84239
0.00000 0.54301 0.82704
0.29507 0.55013 0.79390
0.56013 0.56000 0.75597
0.74830 0.56691 0.73680
0.89430 0.56925 0.73393
1.00000 0.56814 0.73784
1.00000 0.57850 0.74615
0.00000 0.68461 0.79888
0.00000 0.68700 0.78423
0.09641 0.69113 0.75368
0.49499 0.69498 0.72009
0.70127 0.70118 0.70143
0.85335 0.70388 0.69653
0.98240 0.70565 0.69911
1.00000 0.70521 0.71172
0.00000 0.79713 0.76685
0.00000 0.79921 0.75291
0.00000 0.80372 0.72407
0.42084 0.80791 0.69238
0.65861 0.80939 0.67704
0.81158 0.81391 0.67074
0.94472 0.81885 0.67495
1.00000 0.81890 0.69073
0.00000 0.89518 0.74372
0.00000 0.89759 0.73064
0.00000 0.90313 0.70358
0.32461 0.90902 0.67429
0.60043 0.91151 0.66249
0.77364 0.91588 0.66043
0.91009 0.91788 0.66394
1.00000 0.91844 0.68056
0.00000 0.98599 0.73052
0.00000 0.98725 0.71998
0.00000 0.98957 0.69705
0.24395 0.99040 0.67115
0.55955 0.99056 0.65603
0.73481 0.99277 0.65796
0.88102 0.98809 0.66955
0.98505 0.98634 0.67824
0.00000 0.05691 1.00000
0.03188 0.05132 1.00000
0.29567 0.05350 1.00000
0.59670 0.08822 1.00000
0.81054 0.14300 1.00000
0.95672 0.21295 0.99139
1.00000 0.25944 0.97347
1.00000 0.29799 0.94325
0.00000 0.16217 1.00000
0.03671 0.16145 1.00000
0.32901 0.17352 1.00000
0.61005 0.21235 1.00000
0.80611 0.25047 0.99498
0.94476 0.31890 0.96881
1.00000 0.35649 0.95003
1.00000 0.36959 0.92841
0.00000 0.39297 1.00000
0.08183 0.40480 1.00000
0.39205 0.42551 1.00000
0.61240 0.44228 0.97213
0.78580 0.45273 0.94340
0.91909 0.47541 0.92314
1.00000 0.49625 0.90449
1.00000 0.50419 0.89841
0.00000 0.57466 0.98821
0.03032 0.57841 0.97922
0.36507 0.58825 0.95591
0.58751 0.59884 0.91764
0.75360 0.60115 0.89568
0.89027 0.60395 0.88499
1.00000 0.61168 0.87057
1.00000 0.62337 0.86778
0.00000 0.69332 0.96178
0.00000 0.69644 0.95103
0.25573 0.70238 0.92560
0.53067 0.70807 0.88740
0.71535 0.71507 0.86376
0.85489 0.71844 0.84878
0.98140 0.72458 0.84027
1.00000 0.72844 0.84114
0.00000 0.80295 0.92875
0.00000 0.80508 0.91516
0.00000 0.80916 0.88963
0.45984 0.81306 0.85782
0.67335 0.81549 0.83599
0.82063 0.82112 0.82104
0.95067 0.82644 0.81694
1.00000 0.82983 0.81651
0.00000 0.90006 0.90405
0.00000 0.90180 0.89333
0.00000 0.90559 0.86936
0.39242 0.90910 0.83799
0.62535 0.91398 0.81755
0.78794 0.91479 0.80732
0.91742 0.91799 0.79766
1.00000 0.92333 0.79974
0.00000 0.98207 0.88143
0.00000 0.98270 0.86822
0.00000 0.98419 0.84250
0.31660 0.98666 0.81556
0.58008 0.98967 0.79632
0.74970 0.98844 0.79215
0.88526 0.98488 0.78836
0.98441 0.98965 0.78848
0.00000 0.12554 1.00000
0.00000 0.11947 1.00000
0.25933 0.11567 1.00000
0.56554 0.13621 1.00000
0.79116 0.16856 1.00000
0.94524 0.22820 1.00000
1.00000 0.30618 1.00000
1.00000 0.39375 1.00000
0.00000 0.21854 1.00000
0.00000 0.21221 1.00000
0.29237 0.21192 1.00000
0.57971 0.23227 1.00000
0.79239 0.26753 1.00000
0.93894 0.31669 1.00000
1.00000 0.38514 1.00000
1.00000 0.45683 1.00000
0.00000 0.39843 1.00000
0.00000 0.40801 1.00000
0.35436 0.42903 1.00000
0.60026 0.44328 1.00000
0.78196 0.48142 1.00000
0.91802 0.48773 1.00000
1.00000 0.53127 0.99853
1.00000 0.56038 0.98981
0.00000 0.60633 1.00000
0.21604 0.61032 1.00000
0.43192 0.62493 1.00000
0.61400 0.63223 1.00000
0.76100 0.64094 1.00000
0.88983 0.64649 0.98974
1.00000 0.65051 0.97951
1.00000 0.67159 0.97125
0.00000 0.71015 1.00000
0.08370 0.71319 1.00000
0.36707 0.71999 1.00000
0.57247 0.73063 0.99690
0.73221 0.73727 0.98970
0.86214 0.74058 0.97288
0.98643 0.74834 0.96467
1.00000 0.75541 0.95738
0.00000 0.80823 1.00000
0.00000 0.81070 1.00000
0.26892 0.81616 0.99409
0.51477 0.82191 0.98005
0.69232 0.82679 0.96764
0.83207 0.83213 0.95520
0.95794 0.83554 0.95415
1.00000 0.83982 0.93571
0.00000 0.90696 0.99667
0.00000 0.90903 0.99437
0.09312 0.91324 0.98675
0.44940 0.91716 0.96920
0.64700 0.91898 0.95463
0.79511 0.91908 0.93670
0.92068 0.92084 0.92085
1.00000 0.92209 0.91515
0.00000 0.97624 0.97125
0.00000 0.97776 0.96635
0.00000 0.98105 0.95464
0.38431 0.98510 0.93734
0.60393 0.98768 0.91873
0.75893 0.98375 0.90876
0.88108 0.98742 0.89561
0.97775 0.98681 0.89210
0.00000 0.19218 1.00000
0.00000 0.18666 1.00000
0.22345 0.18011 1.00000
0.53195 0.18549 1.00000
0.77115 0.20397 1.00000
0.93108 0.23937 1.00000
1.00000 0.32114 1.00000
1.00000 0.41428 1.00000
0.00000 0.27215 1.00000
0.00000 0.26848 1.00000
0.23886 0.26328 1.00000
0.54909 0.27164 1.00000
0.77401 0.29616 1.00000
0.92801 0.32773 1.00000
1.00000 0.38842 1.00000
1.00000 0.47673 1.00000
0.00000 0.42100 1.00000
0.00000 0.42325 1.00000
0.30317 0.43876 1.00000
0.57794 0.45451 1.00000
0.77202 0.48032 1.00000
0.91541 0.50226 1.00000
1.00000 0.53285 1.00000
1.00000 0.59759 1.00000
0.00000 0.61624 1.00000
0.21699 0.62238 1.00000
0.43438 0.63908 1.00000
0.62315 0.65143 1.00000
0.76508 0.65546 1.00000
0.89417 0.67672 1.00000
1.00000 0.67646 1.00000
1.00000 0.70184 1.00000
0.23013 0.74218 1.00000
0.31560 0.74453 1.00000
0.45554 0.74878 1.00000
0.62258 0.76005 1.00000
0.75563 0.76491 1.00000
0.87126 0.76930 1.00000
0.98418 0.77666 1.00000
1.00000 0.78079 1.00000
0.01175 0.82269 1.00000
0.21484 0.82444 1.00000
0.40433 0.82827 1.00000
0.57952 0.83342 1.00000
0.72312 0.84081 1.00000
0.84225 0.84404 1.00000
0.95377 0.84566 1.00000
1.00000 0.85035 1.00000
0.00000 0.91020 1.00000
0.00000 0.91139 1.00000
0.32615 0.91381 1.00000
0.52423 0.91612 1.00000
0.67964 0.91779 1.00000
0.80282 0.92038 1.00000
0.91856 0.91959 0.99642
1.00000 0.91739 0.99492
0.00000 0.97213 1.00000
0.00000 0.97311 1.00000
0.23190 0.97528 1.00000
0.47483 0.97725 0.99744
0.63482 0.97803 0.98973
0.76224 0.97908 0.98542
0.87820 0.97946 0.97682
0.97705 0.97698 0.97691
