cube lut/astia_DisplayP3.cube
# DisplayP3
# github.com/abpy/FujifilmCameraProfiles
LUT_3D_SIZE 32
0.00000 0.00000 0.00000
0.01842 0.00088 0.00032
0.03657 0.00271 0.00000
0.05745 0.00610 0.00000
0.09027 0.00936 0.00165
0.13563 0.01429 0.00349
0.19295 0.02000 0.00542
0.25919 0.03036 0.00516
0.33161 0.04653 0.00254
0.40321 0.06427 0.00068
0.47129 0.08257 0.00102
0.53733 0.09860 0.00000
0.59971 0.11406 0.00000
0.65687 0.12921 0.00000
0.70875 0.14229 0.00000
0.75725 0.15286 0.00000
0.80178 0.16337 0.00000
0.84247 0.17544 0.00614
0.88004 0.18662 0.04153
0.91480 0.19542 0.07812
0.94725 0.20302 0.10898
0.97797 0.20988 0.13817
1.00000 0.21755 0.16466
1.00000 0.22765 0.19377
1.00000 0.23910 0.21851
1.00000 0.24812 0.22432
1.00000 0.25441 0.20772
1.00000 0.26018 0.17949
1.00000 0.26675 0.14259
1.00000 0.27473 0.09621
1.00000 0.28643 0.05728
1.00000 0.30785 0.10890
0.00000 0.01661 0.00045
0.01240 0.01529 0.00000
0.03174 0.01713 0.00000
0.05262 0.01654 0.00000
0.08458 0.01943 0.00069
0.12959 0.02581 0.00265
0.18812 0.03113 0.00518
0.25573 0.04248 0.00445
0.32920 0.05773 0.00130
0.40179 0.07392 0.00000
0.47050 0.09074 0.00000
0.53689 0.10607 0.00000
0.59959 0.12101 0.00000
0.65694 0.13557 0.00000
0.70882 0.14819 0.00000
0.75723 0.15860 0.00000
0.80167 0.16910 0.00000
0.84230 0.18088 0.00000
0.87986 0.19173 0.02475
0.91463 0.20036 0.06581
0.94708 0.20786 0.09932
0.97783 0.21461 0.13019
1.00000 0.22200 0.15779
1.00000 0.23173 0.18789
1.00000 0.24286 0.21348
1.00000 0.25174 0.21975
1.00000 0.25799 0.20307
1.00000 0.26378 0.17442
1.00000 0.27038 0.13655
1.00000 0.27837 0.08778
1.00000 0.29004 0.04424
1.00000 0.31150 0.10178
0.00000 0.03141 0.00223
0.00700 0.02844 0.00064
0.02762 0.03032 0.00067
0.04837 0.02980 0.00117
0.07990 0.03131 0.00093
0.12588 0.03692 0.00248
0.18412 0.04006 0.00691
0.25155 0.05146 0.00689
0.32551 0.06614 0.00411
0.39927 0.08164 0.00209
0.46886 0.09775 0.00184
0.53580 0.11295 0.00000
0.59899 0.12774 0.00000
0.65669 0.14194 0.00000
0.70867 0.15425 0.00000
0.75701 0.16467 0.00000
0.80139 0.17525 0.00000
0.84197 0.18678 0.00000
0.87955 0.19731 0.00893
0.91434 0.20581 0.05170
0.94681 0.21323 0.08859
0.97761 0.21989 0.12140
1.00000 0.22698 0.15021
1.00000 0.23631 0.18139
1.00000 0.24709 0.20790
1.00000 0.25582 0.21469
1.00000 0.26203 0.19792
1.00000 0.26784 0.16877
1.00000 0.27450 0.12972
1.00000 0.28250 0.07778
1.00000 0.29412 0.02770
1.00000 0.31564 0.09332
0.00000 0.04916 0.00518
0.00000 0.04243 0.00288
0.01956 0.04581 0.00256
0.04316 0.04794 0.00329
0.07496 0.04875 0.00372
0.11953 0.05393 0.00475
0.17998 0.05503 0.00746
0.24844 0.06426 0.00803
0.32234 0.07642 0.00761
0.39619 0.09022 0.00923
0.46627 0.10537 0.00967
0.53373 0.12052 0.00539
0.59763 0.13530 0.00118
0.65596 0.14931 0.00000
0.70816 0.16159 0.00000
0.75643 0.17231 0.00000
0.80075 0.18321 0.00000
0.84130 0.19456 0.00000
0.87893 0.20479 0.00000
0.91378 0.21319 0.03214
0.94630 0.22060 0.07416
0.97719 0.22721 0.10962
1.00000 0.23393 0.14003
1.00000 0.24272 0.17257
1.00000 0.25303 0.20030
1.00000 0.26157 0.20781
1.00000 0.26773 0.19091
1.00000 0.27358 0.16100
1.00000 0.28033 0.12010
1.00000 0.28835 0.06258
1.00000 0.29991 0.00524
1.00000 0.32149 0.08050
0.00000 0.07542 0.00820
0.00000 0.06436 0.00612
0.00927 0.06494 0.00573
0.03178 0.06993 0.00559
0.06817 0.07156 0.00611
0.11408 0.07544 0.00685
0.17219 0.07892 0.00861
0.24221 0.08580 0.01107
0.31807 0.09422 0.01278
0.39372 0.10360 0.01599
0.46474 0.11574 0.01756
0.53190 0.12978 0.01610
0.59593 0.14376 0.01560
0.65480 0.15719 0.01280
0.70720 0.16958 0.00000
0.75534 0.18083 0.00000
0.79963 0.19222 0.00000
0.84015 0.20360 0.00000
0.87786 0.21368 0.00000
0.91281 0.22216 0.01446
0.94542 0.22970 0.05778
0.97644 0.23639 0.09611
1.00000 0.24273 0.12810
1.00000 0.25092 0.16199
1.00000 0.26066 0.19107
1.00000 0.26899 0.19945
1.00000 0.27513 0.18236
1.00000 0.28106 0.15141
1.00000 0.28795 0.10778
1.00000 0.29600 0.04002
1.00000 0.30748 0.00000
1.00000 0.32912 0.06171
0.00000 0.11287 0.01227
0.00000 0.10193 0.00894
0.00000 0.09826 0.00676
0.02064 0.10142 0.00643
0.05208 0.10271 0.00696
0.10303 0.10644 0.00862
0.16201 0.11248 0.01111
0.23281 0.11620 0.01504
0.31072 0.12210 0.02060
0.38766 0.12657 0.02689
0.46231 0.13522 0.02751
0.53082 0.14481 0.02631
0.59526 0.15589 0.02965
0.65435 0.16724 0.03439
0.70632 0.17917 0.01966
0.75391 0.19060 0.00275
0.79802 0.20204 0.00000
0.83844 0.21346 0.00000
0.87625 0.22341 0.00000
0.91136 0.23210 0.00677
0.94409 0.23995 0.04467
0.97527 0.24694 0.08391
1.00000 0.25301 0.11646
1.00000 0.26063 0.15103
1.00000 0.26978 0.18117
1.00000 0.27792 0.19044
1.00000 0.28410 0.17313
1.00000 0.29017 0.14088
1.00000 0.29726 0.09349
1.00000 0.30541 0.01203
1.00000 0.31678 0.00000
1.00000 0.33846 0.03349
0.00000 0.15895 0.01857
0.00000 0.14864 0.01470
0.00000 0.14134 0.01294
0.00000 0.14096 0.01187
0.03614 0.14331 0.01214
0.08501 0.14706 0.01391
0.14695 0.15058 0.01653
0.22130 0.15684 0.01864
0.29962 0.16191 0.02568
0.38160 0.16092 0.03530
0.45622 0.16868 0.03755
0.52743 0.17258 0.04390
0.59408 0.17804 0.04967
0.65436 0.18418 0.05399
0.70580 0.19390 0.03788
0.75269 0.20416 0.02333
0.79641 0.21416 0.01521
0.83641 0.22498 0.00000
0.87414 0.23444 0.00000
0.90935 0.24308 0.01436
0.94223 0.25111 0.04349
0.97361 0.25845 0.07805
1.00000 0.26432 0.10853
1.00000 0.27143 0.14200
1.00000 0.28004 0.17225
1.00000 0.28804 0.18217
1.00000 0.29436 0.16461
1.00000 0.30067 0.13095
1.00000 0.30809 0.07895
1.00000 0.31639 0.00000
1.00000 0.32766 0.00000
1.00000 0.34933 0.00024
0.00000 0.21307 0.02500
0.00000 0.20421 0.01910
0.00000 0.19591 0.01572
0.00000 0.19100 0.01338
0.00000 0.19233 0.01401
0.05256 0.19562 0.01509
0.12344 0.20004 0.01713
0.20082 0.20400 0.02019
0.28832 0.21320 0.02635
0.36826 0.21252 0.04201
0.44725 0.21531 0.04608
0.52047 0.21550 0.05869
0.58936 0.21604 0.06819
0.65133 0.21742 0.07289
0.70371 0.22108 0.05902
0.75092 0.22622 0.04248
0.79463 0.23238 0.03495
0.83434 0.24101 0.01636
0.87192 0.24879 0.01605
0.90706 0.25634 0.02977
0.93992 0.26393 0.05307
0.97142 0.27135 0.08099
1.00000 0.27685 0.10730
1.00000 0.28330 0.13751
1.00000 0.29127 0.16644
1.00000 0.29910 0.17652
1.00000 0.30564 0.15878
1.00000 0.31225 0.12402
1.00000 0.32011 0.06764
1.00000 0.32868 0.00000
1.00000 0.33988 0.00000
1.00000 0.36144 0.00000
0.00000 0.27346 0.03520
0.00000 0.26696 0.02661
0.00000 0.26018 0.02023
0.00000 0.25374 0.01506
0.00000 0.25266 0.01333
0.00000 0.25544 0.01500
0.08185 0.26062 0.01732
0.17413 0.26451 0.02149
0.26610 0.27062 0.02783
0.35468 0.27262 0.04643
0.43406 0.27325 0.05532
0.50902 0.27346 0.06920
0.58066 0.27108 0.08002
0.64340 0.26914 0.08447
0.69775 0.26711 0.07866
0.74633 0.26512 0.07079
0.79107 0.26364 0.06292
0.83152 0.26612 0.03617
0.86944 0.27011 0.02538
0.90465 0.27501 0.03632
0.93748 0.28068 0.05799
0.96897 0.28707 0.08466
0.99954 0.29160 0.10950
1.00000 0.29700 0.13712
1.00000 0.30403 0.16442
1.00000 0.31135 0.17476
1.00000 0.31799 0.15753
1.00000 0.32483 0.12289
1.00000 0.33316 0.06500
1.00000 0.34206 0.00000
1.00000 0.35319 0.00000
1.00000 0.37447 0.00000
0.00000 0.33556 0.05285
0.00000 0.33105 0.04369
0.00000 0.32618 0.03517
0.00000 0.32062 0.02696
0.00000 0.31801 0.02189
0.00000 0.32072 0.02326
0.00000 0.32423 0.02557
0.12926 0.32784 0.03036
0.23496 0.33218 0.03862
0.33074 0.33607 0.05270
0.41807 0.33846 0.06361
0.49492 0.33929 0.07660
0.56696 0.33961 0.08745
0.63234 0.33439 0.09265
0.68826 0.32932 0.09413
0.73813 0.32194 0.09490
0.78479 0.31392 0.09348
0.82631 0.30940 0.07107
0.86539 0.30512 0.04949
0.90144 0.30337 0.04072
0.93469 0.30461 0.05117
0.96625 0.30861 0.07855
0.99719 0.31106 0.10591
1.00000 0.31434 0.13447
1.00000 0.31963 0.16242
1.00000 0.32578 0.17461
1.00000 0.33217 0.15988
1.00000 0.33894 0.12799
1.00000 0.34756 0.07389
1.00000 0.35668 0.00000
1.00000 0.36764 0.00000
1.00000 0.38831 0.00000
0.00000 0.39723 0.07266
0.00000 0.39411 0.06465
0.00000 0.39055 0.05707
0.00000 0.38587 0.04912
0.00000 0.38174 0.04351
0.00000 0.38179 0.04316
0.00000 0.38290 0.04469
0.04051 0.38989 0.04857
0.18622 0.39068 0.05461
0.29603 0.39740 0.06244
0.39196 0.40168 0.07131
0.47644 0.40343 0.08405
0.55168 0.40359 0.09353
0.61781 0.40410 0.10215
0.67702 0.39749 0.10614
0.72794 0.39101 0.11306
0.77580 0.37986 0.11723
0.81864 0.37003 0.09843
0.85862 0.35896 0.08488
0.89584 0.34931 0.06985
0.93028 0.34203 0.05634
0.96260 0.33987 0.06763
0.99432 0.33803 0.09151
1.00000 0.33814 0.12231
1.00000 0.34077 0.15379
1.00000 0.34448 0.17011
1.00000 0.34963 0.16016
1.00000 0.35562 0.13397
1.00000 0.36411 0.08777
1.00000 0.37319 0.00000
1.00000 0.38377 0.00000
1.00000 0.40328 0.00000
0.00000 0.45731 0.09194
0.00000 0.45548 0.08438
0.00000 0.45335 0.07677
0.00000 0.45035 0.06785
0.00000 0.44692 0.05960
0.00000 0.44471 0.05528
0.00000 0.44629 0.05590
0.00000 0.44884 0.05866
0.12279 0.45407 0.06341
0.25399 0.45598 0.07047
0.35750 0.46189 0.07839
0.44944 0.46374 0.09035
0.53133 0.46604 0.10049
0.60259 0.46680 0.10960
0.66307 0.46455 0.11479
0.71623 0.45953 0.12603
0.76306 0.44984 0.12883
0.80774 0.43853 0.11806
0.84877 0.42568 0.11481
0.88741 0.41157 0.10444
0.92313 0.39829 0.08755
0.95650 0.38792 0.07680
0.98978 0.37840 0.07997
1.00000 0.37201 0.10313
1.00000 0.36977 0.13521
1.00000 0.36997 0.15590
1.00000 0.37299 0.15185
1.00000 0.37701 0.13303
1.00000 0.38424 0.09554
1.00000 0.39251 0.02351
1.00000 0.40234 0.00000
1.00000 0.42007 0.00000
0.00000 0.51381 0.11109
0.00000 0.51294 0.10396
0.00000 0.51188 0.09656
0.00000 0.51027 0.08740
0.00000 0.50810 0.07800
0.00000 0.50585 0.07109
0.00000 0.50524 0.06913
0.00000 0.50739 0.07151
0.00000 0.51080 0.07559
0.19963 0.51463 0.08225
0.31900 0.51759 0.08985
0.41664 0.52070 0.09857
0.50487 0.52438 0.10715
0.58373 0.52639 0.11532
0.64738 0.52625 0.12133
0.70259 0.52295 0.13120
0.75025 0.51714 0.13689
0.79471 0.50573 0.13338
0.83522 0.49481 0.13769
0.87462 0.48152 0.13537
0.91281 0.46612 0.12371
0.94779 0.45072 0.10423
0.98230 0.43588 0.08994
1.00000 0.42201 0.09366
1.00000 0.41177 0.11467
1.00000 0.40541 0.13429
1.00000 0.40418 0.13260
1.00000 0.40510 0.11947
1.00000 0.41013 0.08936
1.00000 0.41653 0.03111
1.00000 0.42473 0.00000
1.00000 0.43969 0.00000
0.00000 0.56581 0.12994
0.00000 0.56561 0.12314
0.00000 0.56534 0.11585
0.00000 0.56484 0.10637
0.00000 0.56401 0.09578
0.00000 0.56280 0.08637
0.00000 0.56183 0.08148
0.00000 0.56284 0.08145
0.00000 0.56586 0.08390
0.11265 0.56979 0.08787
0.26995 0.57357 0.09455
0.38107 0.57692 0.10292
0.47545 0.57886 0.11147
0.55785 0.58255 0.12290
0.63060 0.58339 0.13152
0.68461 0.58245 0.13949
0.73692 0.57649 0.14703
0.78019 0.57093 0.14743
0.82246 0.56044 0.15352
0.85897 0.54914 0.15643
0.89819 0.53495 0.15072
0.93519 0.51972 0.13569
0.97189 0.50247 0.11566
1.00000 0.48540 0.10580
1.00000 0.46945 0.10764
1.00000 0.45573 0.11684
1.00000 0.44782 0.11092
1.00000 0.44284 0.09698
1.00000 0.44327 0.06692
1.00000 0.44646 0.01149
1.00000 0.45246 0.00000
1.00000 0.46387 0.00000
0.00000 0.61290 0.14898
0.00000 0.61311 0.14259
0.00000 0.61330 0.13561
0.00000 0.61349 0.12624
0.00000 0.61359 0.11512
0.00000 0.61347 0.10380
0.00000 0.61321 0.09549
0.00000 0.61370 0.09256
0.00000 0.61593 0.09410
0.00000 0.61960 0.09675
0.20799 0.62359 0.10157
0.33794 0.62690 0.10928
0.44171 0.62870 0.11853
0.52857 0.63058 0.12848
0.60396 0.63162 0.13809
0.66639 0.63311 0.14548
0.72139 0.63099 0.15271
0.76647 0.62666 0.15689
0.80820 0.62001 0.16188
0.84823 0.61093 0.16580
0.88567 0.59840 0.16483
0.92181 0.58548 0.15888
0.95873 0.57061 0.14577
0.99409 0.55385 0.13468
1.00000 0.53508 0.12140
1.00000 0.51785 0.11632
1.00000 0.50546 0.10275
1.00000 0.49426 0.08068
1.00000 0.48786 0.04278
1.00000 0.48504 0.00000
1.00000 0.48660 0.00000
1.00000 0.49340 0.00000
0.00000 0.65540 0.16766
0.00000 0.65580 0.16170
0.00000 0.65623 0.15510
0.00000 0.65677 0.14609
0.00000 0.65734 0.13512
0.00000 0.65783 0.12341
0.00000 0.65819 0.11360
0.00000 0.65881 0.10896
0.00000 0.65980 0.10874
0.00000 0.66304 0.11202
0.11098 0.66676 0.11700
0.28836 0.67017 0.12042
0.40234 0.67273 0.12722
0.49727 0.67340 0.13638
0.57581 0.67439 0.14282
0.64217 0.67463 0.15082
0.70138 0.67619 0.15632
0.75221 0.67391 0.16259
0.79483 0.67044 0.16706
0.83368 0.66520 0.17188
0.87213 0.65633 0.17447
0.91033 0.64477 0.17348
0.94644 0.63282 0.16875
0.98133 0.61867 0.16392
1.00000 0.60257 0.15115
1.00000 0.58370 0.13619
1.00000 0.56870 0.11519
1.00000 0.55578 0.08920
1.00000 0.54484 0.04921
1.00000 0.53562 0.00000
1.00000 0.53089 0.00000
1.00000 0.53081 0.00000
0.00000 0.69403 0.18562
0.00000 0.69452 0.17996
0.00000 0.69505 0.17362
0.00000 0.69574 0.16477
0.00000 0.69650 0.15356
0.00000 0.69720 0.14064
0.00000 0.69769 0.12772
0.00000 0.69812 0.11839
0.00000 0.69919 0.11492
0.00000 0.70145 0.11670
0.00000 0.70576 0.12161
0.22243 0.70938 0.12754
0.35790 0.71158 0.13252
0.46242 0.71285 0.13961
0.54865 0.71421 0.14916
0.61727 0.71316 0.15332
0.67842 0.71268 0.16102
0.73324 0.71304 0.16662
0.78097 0.71185 0.17151
0.82206 0.70948 0.17730
0.85873 0.70532 0.18199
0.89571 0.69762 0.18433
0.93378 0.68817 0.18453
0.97027 0.67551 0.18501
1.00000 0.66290 0.17850
1.00000 0.64763 0.16642
1.00000 0.63221 0.14569
1.00000 0.61822 0.11868
1.00000 0.60613 0.08506
1.00000 0.59490 0.03103
1.00000 0.58579 0.00000
1.00000 0.57888 0.00000
0.00000 0.72951 0.20317
0.00000 0.73006 0.19784
0.00000 0.73066 0.19181
0.00000 0.73144 0.18328
0.00000 0.73233 0.17221
0.00000 0.73320 0.15892
0.00000 0.73385 0.14447
0.00000 0.73421 0.13163
0.00000 0.73484 0.12437
0.00000 0.73645 0.12311
0.00000 0.74015 0.12704
0.10535 0.74476 0.13211
0.30415 0.74696 0.13635
0.42153 0.74757 0.14313
0.51721 0.74746 0.15018
0.59285 0.74971 0.15971
0.65538 0.74665 0.16269
0.71212 0.74643 0.17260
0.76258 0.74662 0.17478
0.80961 0.74572 0.18163
0.84819 0.74441 0.18658
0.88358 0.73898 0.19107
0.91937 0.73509 0.19327
0.95736 0.72655 0.20071
0.99224 0.71481 0.19607
1.00000 0.70389 0.19225
1.00000 0.69002 0.17669
1.00000 0.67715 0.15692
1.00000 0.66551 0.13058
1.00000 0.65403 0.09422
1.00000 0.64407 0.04263
1.00000 0.63478 0.00000
0.00000 0.76232 0.22030
0.00000 0.76290 0.21531
0.00000 0.76354 0.20962
0.00000 0.76439 0.20150
0.00000 0.76540 0.19078
0.00000 0.76645 0.17754
0.00000 0.76736 0.16230
0.00000 0.76796 0.14684
0.00000 0.76843 0.13525
0.00000 0.76948 0.13034
0.00000 0.77164 0.13176
0.00000 0.77673 0.13655
0.22878 0.78049 0.14120
0.37616 0.77956 0.14495
0.48143 0.77852 0.15253
0.56601 0.77817 0.16011
0.63215 0.78061 0.16836
0.69119 0.77591 0.17160
0.74347 0.77754 0.17950
0.79069 0.77649 0.18347
0.83655 0.77747 0.18901
0.87297 0.77357 0.19460
0.90827 0.77002 0.19739
0.94430 0.76610 0.20273
0.98036 0.76080 0.20825
1.00000 0.75123 0.20564
1.00000 0.74113 0.20011
1.00000 0.72871 0.18702
1.00000 0.71821 0.17031
1.00000 0.70882 0.14630
1.00000 0.69964 0.11379
1.00000 0.69015 0.07004
0.00000 0.79279 0.23688
0.00000 0.79339 0.23224
0.00000 0.79405 0.22693
0.00000 0.79494 0.21929
0.00000 0.79601 0.20909
0.00000 0.79715 0.19627
0.00000 0.79822 0.18099
0.00000 0.79902 0.16414
0.00000 0.79956 0.14865
0.00000 0.80039 0.13913
0.00000 0.80167 0.13682
0.00000 0.80485 0.14067
0.10208 0.80935 0.14545
0.31858 0.80995 0.14931
0.44220 0.80743 0.15438
0.53421 0.80571 0.16243
0.60832 0.80675 0.17026
0.66887 0.80669 0.17627
0.72394 0.80327 0.17950
0.77184 0.80434 0.18645
0.81780 0.80459 0.19053
0.86159 0.80469 0.19576
0.89784 0.80185 0.20039
0.93424 0.79739 0.20554
0.96885 0.79492 0.20813
1.00000 0.79143 0.21536
1.00000 0.78364 0.21519
1.00000 0.77434 0.20675
1.00000 0.76424 0.19587
1.00000 0.75616 0.18185
1.00000 0.74841 0.16154
1.00000 0.74185 0.13525
0.00000 0.82126 0.25269
0.00000 0.82189 0.24839
0.00000 0.82257 0.24345
0.00000 0.82350 0.23631
0.00000 0.82464 0.22672
0.00000 0.82589 0.21452
0.00000 0.82711 0.19970
0.00000 0.82813 0.18269
0.00000 0.82887 0.16530
0.00000 0.82969 0.15193
0.00000 0.83101 0.14592
0.00000 0.83205 0.14724
0.00000 0.83548 0.15249
0.24132 0.83800 0.15583
0.39461 0.83533 0.15763
0.50004 0.83291 0.16416
0.58088 0.83164 0.17148
0.64662 0.83344 0.17880
0.70351 0.83163 0.18322
0.75428 0.82919 0.18725
0.79916 0.83151 0.19282
0.84406 0.83089 0.19706
0.88686 0.83100 0.20258
0.92373 0.82824 0.20819
0.95932 0.82329 0.21315
0.99151 0.82178 0.21685
1.00000 0.81926 0.22293
1.00000 0.81330 0.22457
1.00000 0.80465 0.21408
1.00000 0.79901 0.20716
1.00000 0.79108 0.19304
1.00000 0.78530 0.17678
0.00000 0.84788 0.26764
0.00000 0.84854 0.26366
0.00000 0.84927 0.25907
0.00000 0.85028 0.25241
0.00000 0.85152 0.24341
0.00000 0.85292 0.23186
0.00000 0.85435 0.21761
0.00000 0.85564 0.20073
0.00000 0.85667 0.18212
0.00000 0.85759 0.16489
0.00000 0.85903 0.15379
0.00000 0.86004 0.15064
0.00000 0.86163 0.15452
0.11899 0.86295 0.15851
0.33524 0.86274 0.16202
0.45995 0.85845 0.16289
0.55036 0.85693 0.17079
0.62235 0.85617 0.17758
0.68250 0.85791 0.18456
0.73570 0.85523 0.19003
0.78284 0.85443 0.19417
0.82576 0.85640 0.20081
0.86927 0.85521 0.20607
0.91100 0.85567 0.21215
0.94831 0.85383 0.21573
0.98188 0.84896 0.22400
1.00000 0.84617 0.22458
1.00000 0.84433 0.22935
1.00000 0.83940 0.23018
1.00000 0.83405 0.22280
1.00000 0.82969 0.21507
1.00000 0.82277 0.20630
0.00000 0.87251 0.28175
0.00000 0.87323 0.27807
0.00000 0.87403 0.27382
0.00000 0.87513 0.26764
0.00000 0.87653 0.25925
0.00000 0.87813 0.24842
0.00000 0.87984 0.23491
0.00000 0.88147 0.21860
0.00000 0.88286 0.19980
0.00000 0.88394 0.18031
0.00000 0.88508 0.16451
0.00000 0.88631 0.15611
0.00000 0.88612 0.15630
0.00000 0.88660 0.16113
0.25636 0.88573 0.16335
0.41042 0.88371 0.16566
0.51561 0.88035 0.16776
0.59437 0.87855 0.17644
0.65967 0.87911 0.18388
0.71532 0.88094 0.19197
0.76539 0.87783 0.19761
0.81004 0.87784 0.20353
0.85170 0.87965 0.20950
0.89377 0.87815 0.21484
0.93423 0.87929 0.21989
0.97060 0.87835 0.22420
1.00000 0.87309 0.23004
1.00000 0.86900 0.23211
1.00000 0.86695 0.23072
1.00000 0.86302 0.23361
1.00000 0.85840 0.22812
1.00000 0.85432 0.22346
0.00000 0.89475 0.29496
0.00000 0.89553 0.29157
0.00000 0.89641 0.28766
0.00000 0.89764 0.28195
0.00000 0.89921 0.27418
0.00000 0.90108 0.26410
0.00000 0.90313 0.25145
0.00000 0.90522 0.23600
0.00000 0.90712 0.21771
0.00000 0.90864 0.19740
0.00000 0.90984 0.17808
0.00000 0.91104 0.16449
0.00000 0.91089 0.15910
0.00000 0.90900 0.16183
0.13701 0.90781 0.16659
0.34844 0.90683 0.16947
0.47446 0.90381 0.17018
0.56500 0.90128 0.17490
0.63482 0.89968 0.18416
0.69449 0.90192 0.19214
0.74625 0.90303 0.19932
0.79370 0.90002 0.20549
0.83663 0.90082 0.21137
0.87754 0.90198 0.21495
0.91823 0.90068 0.22204
0.95715 0.90144 0.22628
0.99175 0.90240 0.22853
1.00000 0.89651 0.23517
1.00000 0.89098 0.23654
1.00000 0.88892 0.23211
1.00000 0.88459 0.23429
1.00000 0.87892 0.23145
0.00000 0.91404 0.30715
0.00000 0.91487 0.30403
0.00000 0.91581 0.30042
0.00000 0.91715 0.29515
0.00000 0.91889 0.28797
0.00000 0.92101 0.27864
0.00000 0.92342 0.26690
0.00000 0.92600 0.25248
0.00000 0.92855 0.23520
0.00000 0.93082 0.21532
0.00000 0.93266 0.19459
0.00000 0.93415 0.17711
0.00000 0.93503 0.16645
0.00000 0.93348 0.16469
0.00000 0.93109 0.16973
0.27365 0.92930 0.17463
0.42494 0.92782 0.17918
0.53062 0.92454 0.17896
0.60978 0.92241 0.18508
0.67230 0.92181 0.19327
0.72699 0.92471 0.19925
0.77554 0.92513 0.20460
0.82039 0.92210 0.21201
0.86236 0.92290 0.21652
0.90254 0.92461 0.21908
0.94180 0.92194 0.22776
0.97930 0.92362 0.23329
1.00000 0.92636 0.23429
1.00000 0.91996 0.23946
1.00000 0.91299 0.24067
1.00000 0.91036 0.23349
1.00000 0.90666 0.23518
0.00000 0.92980 0.31826
0.00000 0.93065 0.31537
0.00000 0.93162 0.31202
0.00000 0.93300 0.30712
0.00000 0.93484 0.30044
0.00000 0.93711 0.29175
0.00000 0.93979 0.28080
0.00000 0.94281 0.26731
0.00000 0.94600 0.25103
0.00000 0.94915 0.23198
0.00000 0.95198 0.21114
0.00000 0.95430 0.19158
0.00000 0.95603 0.17761
0.00000 0.95647 0.17148
0.00000 0.95491 0.17452
0.15922 0.95319 0.18123
0.36572 0.95072 0.18537
0.48977 0.94794 0.18773
0.57887 0.94539 0.18611
0.64888 0.94324 0.19285
0.70604 0.94366 0.19903
0.75682 0.94682 0.20241
0.80205 0.94571 0.20864
0.84540 0.94244 0.21847
0.88733 0.94400 0.22176
0.92625 0.94526 0.22452
0.96556 0.94435 0.23724
0.99517 0.94544 0.24399
1.00000 0.94958 0.23881
1.00000 0.94159 0.24330
1.00000 0.93469 0.24530
1.00000 0.93354 0.23823
0.00000 0.94181 0.32853
0.00000 0.94260 0.32582
0.00000 0.94352 0.32268
0.00000 0.94483 0.31810
0.00000 0.94658 0.31182
0.00000 0.94878 0.30365
0.00000 0.95144 0.29332
0.00000 0.95452 0.28054
0.00000 0.95797 0.26503
0.00000 0.96168 0.24660
0.00000 0.96553 0.22569
0.00000 0.96936 0.20435
0.00000 0.97296 0.18682
0.00000 0.97579 0.17641
0.00000 0.97616 0.17509
0.00000 0.97469 0.18035
0.28872 0.97247 0.18649
0.43984 0.96816 0.19092
0.54408 0.96510 0.19035
0.62150 0.96391 0.19060
0.68460 0.96187 0.19756
0.73775 0.96329 0.20245
0.78454 0.96608 0.20588
0.82858 0.96405 0.21663
0.87198 0.96237 0.22652
0.91270 0.96407 0.22966
0.95193 0.96715 0.23527
0.98522 0.96515 0.24797
1.00000 0.96500 0.25265
1.00000 0.96679 0.24430
1.00000 0.96139 0.24819
1.00000 0.95507 0.25122
0.00000 0.95058 0.33848
0.00000 0.95126 0.33593
0.00000 0.95204 0.33298
0.00000 0.95316 0.32866
0.00000 0.95466 0.32274
0.00000 0.95654 0.31501
0.00000 0.95882 0.30521
0.00000 0.96146 0.29306
0.00000 0.96443 0.27820
0.00000 0.96764 0.26037
0.00000 0.97096 0.23964
0.00000 0.97420 0.21725
0.00000 0.97711 0.19675
0.00000 0.97945 0.18270
0.00000 0.98102 0.17662
0.00000 0.98135 0.17905
0.19069 0.98082 0.18469
0.38582 0.97908 0.19046
0.50549 0.97741 0.19570
0.59295 0.97756 0.19446
0.66216 0.97769 0.19655
0.71890 0.97706 0.20240
0.76827 0.97952 0.20689
0.81353 0.98165 0.21236
0.85626 0.98109 0.22526
0.89856 0.97999 0.23511
0.93928 0.98236 0.23915
0.97413 0.98496 0.24139
0.99540 0.98115 0.25543
1.00000 0.98114 0.25887
1.00000 0.98415 0.24821
1.00000 0.97789 0.25073
0.00000 0.95724 0.34875
0.00000 0.95778 0.34636
0.00000 0.95839 0.34359
0.00000 0.95927 0.33952
