cube lut/astia_sRGB.cube
# sRGB
# github.com/abpy/FujifilmCameraProfiles
LUT_3D_SIZE 32
0.00000 0.00000 0.00000
0.01807 0.00043 0.00002
0.03715 0.00140 0.00000
0.05610 0.00508 0.00000
0.08222 0.00728 0.00000
0.11886 0.01062 0.00133
0.17163 0.01108 0.00065
0.23251 0.01048 0.00000
0.29993 0.01189 0.00000
0.37427 0.01245 0.00000
0.44620 0.01347 0.00000
0.51439 0.01720 0.00000
0.58121 0.01749 0.00000
0.64475 0.01907 0.00000
0.70358 0.02340 0.00000
0.75722 0.02383 0.00000
0.80674 0.02250 0.00000
0.85272 0.02449 0.00000
0.89493 0.03042 0.00000
0.93376 0.03907 0.00000
0.97002 0.04870 0.00000
1.00000 0.05275 0.00000
1.00000 0.05634 0.02628
1.00000 0.05831 0.08348
1.00000 0.06026 0.12095
1.00000 0.07139 0.15914
1.00000 0.09028 0.19388
1.00000 0.10945 0.21185
1.00000 0.12661 0.20329
1.00000 0.14270 0.18127
1.00000 0.16132 0.15079
1.00000 0.18033 0.10936
0.00000 0.01543 0.00000
0.01213 0.01555 0.00000
0.03231 0.01622 0.00000
0.05124 0.01721 0.00000
0.07789 0.01748 0.00011
0.11525 0.02158 0.00211
0.16868 0.02127 0.00191
0.23019 0.02058 0.00037
0.29845 0.02178 0.00000
0.37339 0.02331 0.00000
0.44587 0.02461 0.00000
0.51445 0.02762 0.00000
0.58143 0.02871 0.00000
0.64515 0.03037 0.00000
0.70414 0.03427 0.00000
0.75774 0.03554 0.00000
0.80710 0.03456 0.00000
0.85291 0.03653 0.00000
0.89491 0.04449 0.00000
0.93365 0.05184 0.00000
0.96986 0.05971 0.00000
1.00000 0.06359 0.00000
1.00000 0.06729 0.02391
1.00000 0.06939 0.08166
1.00000 0.07066 0.11952
1.00000 0.08020 0.15785
1.00000 0.09714 0.19268
1.00000 0.11508 0.21081
1.00000 0.13169 0.20243
1.00000 0.14746 0.18067
1.00000 0.16591 0.15041
1.00000 0.18477 0.10915
0.00000 0.02940 0.00136
0.00895 0.02903 0.00045
0.02730 0.03050 0.00025
0.04813 0.03082 0.00040
0.07443 0.03014 0.00170
0.11563 0.03378 0.00275
0.16824 0.03275 0.00182
0.23074 0.03093 0.00070
0.29906 0.03182 0.00302
0.37337 0.03475 0.00000
0.44579 0.03642 0.00000
0.51457 0.03847 0.00000
0.58154 0.04076 0.00000
0.64545 0.04241 0.00000
0.70470 0.04545 0.00000
0.75822 0.04773 0.00000
0.80741 0.04724 0.00000
0.85308 0.04879 0.00000
0.89482 0.05789 0.00000
0.93346 0.06382 0.00000
0.96962 0.07033 0.00000
1.00000 0.07421 0.00000
1.00000 0.07813 0.02381
1.00000 0.08041 0.08100
1.00000 0.08110 0.11879
1.00000 0.08927 0.15699
1.00000 0.10440 0.19175
1.00000 0.12115 0.20999
1.00000 0.13724 0.20179
1.00000 0.15269 0.18037
1.00000 0.17098 0.15038
1.00000 0.18971 0.10941
0.00000 0.04263 0.00463
0.00461 0.04362 0.00322
0.02033 0.04678 0.00265
0.04234 0.04787 0.00284
0.07348 0.04828 0.00370
0.11366 0.05179 0.00304
0.16655 0.05227 0.00269
0.23055 0.05052 0.00112
0.30043 0.05282 0.00279
0.37511 0.05201 0.00000
0.44740 0.05317 0.00000
0.51631 0.05286 0.00000
0.58264 0.05617 0.00000
0.64642 0.05728 0.00000
0.70577 0.05869 0.00000
0.75894 0.06244 0.00000
0.80781 0.06245 0.00000
0.85326 0.06303 0.00000
0.89456 0.07401 0.00000
0.93308 0.07837 0.00000
0.96918 0.08338 0.00000
1.00000 0.08743 0.00000
1.00000 0.09170 0.02831
1.00000 0.09425 0.08263
1.00000 0.09425 0.11942
1.00000 0.10093 0.15691
1.00000 0.11398 0.19125
1.00000 0.12928 0.20948
1.00000 0.14477 0.20155
1.00000 0.15986 0.18063
1.00000 0.17800 0.15113
1.00000 0.19659 0.11075
0.00000 0.06264 0.00575
0.00000 0.06422 0.00510
0.01082 0.06816 0.00432
0.03255 0.07024 0.00340
0.06911 0.07223 0.00353
0.11174 0.07523 0.00347
0.16336 0.07880 0.00283
0.22872 0.07817 0.00060
0.30002 0.07972 0.00156
0.37495 0.07896 0.00000
0.44847 0.07844 0.00000
0.51946 0.07282 0.00000
0.58530 0.07591 0.00000
0.64886 0.07640 0.00000
0.70819 0.07518 0.00000
0.76038 0.08049 0.00000
0.80860 0.08057 0.00000
0.85372 0.07916 0.00000
0.89420 0.09277 0.00000
0.93249 0.09534 0.00000
0.96848 0.09861 0.00000
1.00000 0.10303 0.00000
1.00000 0.10777 0.04115
1.00000 0.11061 0.08855
1.00000 0.10974 0.12292
1.00000 0.11492 0.15870
1.00000 0.12575 0.19199
1.00000 0.13939 0.20999
1.00000 0.15425 0.20239
1.00000 0.16896 0.18225
1.00000 0.18701 0.15352
1.00000 0.20548 0.11422
0.00000 0.09657 0.00662
0.00000 0.09890 0.00478
0.00000 0.10174 0.00423
0.01792 0.10239 0.00138
0.05160 0.10489 0.00257
0.10507 0.10758 0.00124
0.16020 0.11260 0.00081
0.22553 0.11431 0.00000
0.29807 0.11648 0.00000
0.37307 0.11440 0.00000
0.44787 0.11397 0.00000
0.52037 0.10811 0.00000
0.58727 0.10757 0.00000
0.65166 0.10479 0.00000
0.71172 0.09814 0.00000
0.76243 0.10411 0.00000
0.80975 0.10458 0.00000
0.85462 0.09979 0.00000
0.89392 0.11559 0.00000
0.93190 0.11563 0.00000
0.96768 0.11637 0.00000
1.00000 0.12123 0.00926
1.00000 0.12644 0.05892
1.00000 0.12951 0.09855
1.00000 0.12755 0.12977
1.00000 0.13123 0.16303
1.00000 0.13978 0.19461
1.00000 0.15154 0.21214
1.00000 0.16575 0.20504
1.00000 0.18005 0.18606
1.00000 0.19804 0.15851
1.00000 0.21645 0.12096
0.00000 0.13938 0.00404
0.00000 0.14026 0.00149
0.00000 0.14246 0.00048
0.00000 0.14486 0.00000
0.02547 0.14634 0.00000
0.08552 0.14986 0.00000
0.15057 0.15380 0.00000
0.22092 0.15848 0.00000
0.29340 0.16183 0.00000
0.36884 0.16010 0.00000
0.44556 0.16077 0.00000
0.51815 0.15527 0.00000
0.58681 0.15286 0.00000
0.65186 0.14871 0.00000
0.71291 0.14042 0.00000
0.76327 0.14042 0.00000
0.81025 0.13797 0.00000
0.85498 0.12939 0.00000
0.89361 0.14405 0.00000
0.93121 0.14205 0.00000
0.96681 0.13924 0.00000
0.99999 0.14390 0.02644
1.00000 0.14893 0.07242
1.00000 0.15161 0.10815
1.00000 0.14808 0.13742
1.00000 0.15024 0.16859
1.00000 0.15656 0.19852
1.00000 0.16615 0.21565
1.00000 0.17965 0.20946
1.00000 0.19341 0.19230
1.00000 0.21138 0.16650
1.00000 0.22972 0.13144
0.00000 0.19090 0.00000
0.00000 0.19126 0.00000
0.00000 0.19297 0.00000
0.00000 0.19523 0.00000
0.00000 0.19719 0.00000
0.04054 0.20048 0.00000
0.12650 0.20423 0.00000
0.20507 0.20820 0.00000
0.28709 0.21585 0.00000
0.36359 0.21461 0.00000
0.43839 0.21720 0.00000
0.51399 0.21231 0.00000
0.58269 0.21100 0.00000
0.64823 0.20715 0.00000
0.70793 0.19851 0.00000
0.76014 0.19465 0.00000
0.80747 0.18930 0.00000
0.85199 0.17657 0.00000
0.89214 0.18284 0.00000
0.92997 0.17664 0.00000
0.96579 0.16844 0.00000
0.99871 0.17258 0.02438
1.00000 0.17773 0.07386
1.00000 0.17954 0.11113
1.00000 0.17347 0.14103
1.00000 0.17349 0.17179
1.00000 0.17733 0.20117
1.00000 0.18428 0.21852
1.00000 0.19674 0.21395
1.00000 0.20966 0.19954
1.00000 0.22747 0.17623
1.00000 0.24566 0.14439
0.00000 0.25198 0.00000
0.00000 0.25246 0.00000
0.00000 0.25412 0.00000
0.00000 0.25621 0.00000
0.00000 0.25841 0.00000
0.00000 0.26189 0.00000
0.07443 0.26559 0.00000
0.17898 0.26952 0.00000
0.26952 0.27377 0.00000
0.35576 0.27747 0.00000
0.42907 0.27667 0.00000
0.50375 0.27938 0.00000
0.57436 0.27784 0.00000
0.64083 0.27456 0.00000
0.70039 0.26839 0.00000
0.75268 0.26240 0.00000
0.80111 0.25378 0.00000
0.84639 0.24348 0.00000
0.88749 0.23963 0.00000
0.92626 0.22802 0.00000
0.96303 0.21161 0.00000
0.99653 0.21046 0.01018
1.00000 0.21350 0.05913
1.00000 0.21367 0.10128
1.00000 0.20535 0.13474
1.00000 0.20329 0.16774
1.00000 0.20478 0.19884
1.00000 0.20836 0.21765
1.00000 0.21887 0.21557
1.00000 0.23010 0.20489
1.00000 0.24718 0.18464
1.00000 0.26480 0.15646
0.00000 0.31592 0.00000
0.00000 0.31664 0.00000
0.00000 0.31887 0.00000
0.00000 0.32147 0.00000
0.00000 0.32333 0.00000
0.00000 0.32633 0.00000
0.00000 0.32932 0.00000
0.12978 0.33167 0.00000
0.24021 0.33477 0.00000
0.33407 0.33810 0.00000
0.41655 0.34195 0.00000
0.49301 0.34446 0.00000
0.56347 0.34514 0.00000
0.62834 0.34532 0.00000
0.68996 0.33990 0.00000
0.74271 0.33467 0.00000
0.79162 0.32712 0.00000
0.83783 0.31746 0.00000
0.87992 0.30737 0.00000
0.91929 0.29536 0.00000
0.95650 0.27872 0.00000
0.99119 0.26786 0.00000
1.00000 0.26380 0.03815
1.00000 0.25879 0.08288
1.00000 0.24607 0.11805
1.00000 0.24010 0.15319
1.00000 0.23932 0.18772
1.00000 0.24004 0.20939
1.00000 0.24835 0.21083
1.00000 0.25715 0.20515
1.00000 0.27250 0.18846
1.00000 0.28848 0.16415
0.00000 0.37979 0.00000
0.00000 0.38015 0.00000
0.00000 0.38139 0.00000
0.00000 0.38364 0.00000
0.00000 0.38600 0.00000
0.00000 0.38878 0.00000
0.00000 0.39206 0.00000
0.00000 0.39427 0.00000
0.19255 0.39584 0.00000
0.30082 0.39974 0.00000
0.39359 0.40322 0.00000
0.47542 0.40718 0.00000
0.54954 0.40894 0.00000
0.61549 0.40959 0.00000
0.67457 0.41096 0.00000
0.73069 0.40448 0.00000
0.78005 0.39829 0.00000
0.82536 0.39058 0.00000
0.86831 0.38085 0.00000
0.90858 0.36917 0.00000
0.94706 0.35526 0.00000
0.98204 0.34201 0.00000
1.00000 0.33145 0.01991
1.00000 0.32006 0.06256
1.00000 0.30324 0.09476
1.00000 0.29102 0.13173
1.00000 0.28428 0.16886
1.00000 0.28022 0.19286
1.00000 0.28516 0.19706
1.00000 0.29123 0.19660
1.00000 0.30451 0.18373
1.00000 0.31814 0.16372
0.00000 0.44477 0.00000
0.00000 0.44506 0.00000
0.00000 0.44566 0.00000
0.00000 0.44691 0.00000
0.00000 0.44872 0.00000
0.00000 0.45098 0.00000
0.00000 0.45385 0.00000
0.00000 0.45664 0.00000
0.12310 0.45865 0.00000
0.26061 0.46092 0.00000
0.36214 0.46372 0.00000
0.45014 0.46541 0.00000
0.52893 0.46913 0.00000
0.60005 0.47146 0.00000
0.66094 0.47148 0.00000
0.71533 0.47136 0.00000
0.76411 0.46759 0.00000
0.81155 0.45786 0.00000
0.85364 0.45079 0.00000
0.89383 0.44092 0.00000
0.93241 0.43060 0.00000
0.96938 0.41790 0.00000
1.00000 0.40394 0.00000
1.00000 0.39136 0.03667
1.00000 0.37568 0.07281
1.00000 0.35953 0.10184
1.00000 0.34657 0.14168
1.00000 0.33548 0.17038
1.00000 0.33416 0.17669
1.00000 0.33468 0.17971
1.00000 0.34348 0.16892
1.00000 0.35322 0.15189
0.00000 0.50585 0.00000
0.00000 0.50614 0.00000
0.00000 0.50662 0.00000
0.00000 0.50748 0.00000
0.00000 0.50877 0.00000
0.00000 0.51061 0.00000
0.00000 0.51290 0.00000
0.00000 0.51529 0.00000
0.00000 0.51735 0.00000
0.21163 0.51934 0.00000
0.32593 0.52118 0.00000
0.42087 0.52331 0.00000
0.50391 0.52592 0.00000
0.57907 0.52954 0.00000
0.64480 0.53083 0.00000
0.70018 0.53047 0.00000
0.74901 0.52741 0.00000
0.79168 0.52535 0.00000
0.83786 0.51503 0.00000
0.87789 0.50714 0.00000
0.91532 0.49882 0.00000
0.95358 0.48792 0.00000
0.98876 0.47717 0.00000
1.00000 0.46363 0.00759
1.00000 0.44946 0.04489
1.00000 0.43472 0.08239
1.00000 0.41937 0.11618
1.00000 0.40651 0.14051
1.00000 0.40040 0.15075
1.00000 0.39334 0.15635
1.00000 0.39464 0.14829
1.00000 0.39739 0.13291
0.00000 0.56244 0.00000
0.00000 0.56280 0.00000
0.00000 0.56329 0.00000
0.00000 0.56408 0.00000
0.00000 0.56522 0.00000
0.00000 0.56684 0.00000
0.00000 0.56891 0.00000
0.00000 0.57110 0.00000
0.00000 0.57308 0.00000
0.11812 0.57493 0.00000
0.28503 0.57650 0.00000
0.38917 0.57790 0.00000
0.47754 0.57995 0.00000
0.55407 0.58317 0.00000
0.62357 0.58453 0.00000
0.68250 0.58402 0.00000
0.73329 0.58202 0.00000
0.77850 0.57876 0.00000
0.81969 0.57579 0.00000
0.86022 0.56870 0.00000
0.90016 0.55964 0.00000
0.93739 0.55129 0.00000
0.97335 0.54184 0.00000
1.00000 0.53185 0.00000
1.00000 0.52157 0.00918
1.00000 0.50687 0.05626
1.00000 0.49098 0.09280
1.00000 0.47760 0.12042
1.00000 0.47165 0.13077
1.00000 0.46310 0.13080
1.00000 0.45832 0.12419
1.00000 0.45482 0.10861
0.00000 0.61356 0.00000
0.00000 0.61397 0.00000
0.00000 0.61450 0.00000
0.00000 0.61533 0.00000
0.00000 0.61651 0.00000
0.00000 0.61809 0.00000
0.00000 0.61995 0.00000
0.00000 0.62190 0.00000
0.00000 0.62353 0.00000
0.00000 0.62478 0.00000
0.22495 0.62622 0.00000
0.35486 0.62686 0.00000
0.44810 0.62810 0.00000
0.52891 0.63016 0.00000
0.59870 0.63100 0.00000
0.66028 0.63080 0.00000
0.71527 0.63060 0.00000
0.76375 0.62702 0.00000
0.80542 0.62536 0.00000
0.84413 0.62241 0.00000
0.88177 0.61702 0.00000
0.92221 0.60764 0.00000
0.95860 0.59970 0.00000
0.99387 0.59209 0.00000
1.00000 0.58302 0.00000
1.00000 0.57362 0.01529
1.00000 0.56041 0.06719
1.00000 0.54586 0.10181
1.00000 0.53739 0.11052
1.00000 0.53008 0.11991
1.00000 0.52557 0.11075
1.00000 0.52034 0.08308
0.00000 0.65913 0.00000
0.00000 0.65954 0.00000
0.00000 0.66005 0.00000
0.00000 0.66077 0.00000
0.00000 0.66163 0.00000
0.00000 0.66291 0.00000
0.00000 0.66451 0.00000
0.00000 0.66634 0.00000
0.00000 0.66788 0.00000
0.00000 0.66907 0.00000
0.15595 0.66961 0.00000
0.31070 0.67062 0.00000
0.41876 0.67104 0.00000
0.50234 0.67234 0.00000
0.57448 0.67317 0.00000
0.63725 0.67290 0.00000
0.69417 0.67220 0.00000
0.74536 0.67167 0.00000
0.79082 0.66882 0.00000
0.83055 0.66752 0.00000
0.86805 0.66436 0.00000
0.90478 0.66017 0.00000
0.94281 0.65273 0.00000
0.97989 0.64495 0.00000
1.00000 0.63685 0.00000
1.00000 0.62946 0.00000
1.00000 0.61960 0.04699
1.00000 0.60934 0.07776
1.00000 0.60094 0.09645
1.00000 0.59224 0.10887
1.00000 0.58654 0.10130
1.00000 0.58140 0.08250
0.00000 0.69896 0.00000
0.00000 0.69935 0.00000
0.00000 0.69982 0.00000
0.00000 0.70050 0.00000
0.00000 0.70129 0.00000
0.00000 0.70222 0.00000
0.00000 0.70359 0.00000
0.00000 0.70529 0.00000
0.00000 0.70703 0.00000
0.00000 0.70815 0.00000
0.00000 0.70895 0.00000
0.25972 0.70960 0.00000
0.38438 0.71043 0.00000
0.47667 0.71101 0.00000
0.55024 0.71215 0.00000
0.61517 0.71184 0.00000
0.67276 0.71049 0.00000
0.72528 0.70972 0.00000
0.77325 0.70916 0.00000
0.81699 0.70711 0.00000
0.85509 0.70523 0.00000
0.89204 0.70240 0.00000
0.92723 0.69930 0.00000
0.96383 0.69370 0.00000
1.00000 0.68501 0.00000
1.00000 0.67757 0.00000
1.00000 0.67094 0.01569
1.00000 0.66212 0.07055
1.00000 0.65473 0.08253
1.00000 0.64849 0.09642
1.00000 0.64328 0.09821
1.00000 0.63705 0.07972
0.00000 0.73491 0.00000
0.00000 0.73525 0.00000
0.00000 0.73567 0.00000
0.00000 0.73627 0.00000
0.00000 0.73696 0.00000
0.00000 0.73768 0.00000
0.00000 0.73888 0.00000
0.00000 0.74062 0.00000
0.00000 0.74261 0.00000
0.00000 0.74408 0.00000
0.00000 0.74522 0.00000
0.20695 0.74557 0.00000
0.34231 0.74665 0.00000
0.44805 0.74692 0.00000
0.52666 0.74775 0.00000
0.59249 0.74833 0.00000
0.65213 0.74679 0.00000
0.70562 0.74485 0.00000
0.75442 0.74430 0.00000
0.80009 0.74344 0.00000
0.84176 0.74216 0.00000
0.87881 0.73939 0.00000
0.91510 0.73756 0.00000
0.95007 0.73418 0.00000
0.98531 0.72830 0.00000
1.00000 0.72194 0.00000
1.00000 0.71474 0.00000
1.00000 0.70797 0.02866
1.00000 0.70187 0.09005
1.00000 0.69505 0.09986
1.00000 0.69166 0.09298
1.00000 0.68795 0.08096
0.00000 0.76826 0.00000
0.00000 0.76857 0.00000
0.00000 0.76896 0.00000
0.00000 0.76951 0.00000
0.00000 0.77015 0.00000
0.00000 0.77076 0.00000
0.00000 0.77169 0.00000
0.00000 0.77335 0.00000
0.00000 0.77542 0.00000
0.00000 0.77735 0.00000
0.00000 0.77823 0.00000
0.10709 0.77924 0.00000
0.30699 0.77981 0.00000
0.41340 0.78045 0.00000
0.50235 0.78057 0.00000
0.57055 0.78170 0.00000
0.63108 0.78063 0.00000
0.68643 0.77830 0.00000
0.73605 0.77667 0.00000
0.78183 0.77601 0.00000
0.82545 0.77561 0.00000
0.86551 0.77411 0.00000
0.90189 0.77151 0.00000
0.93796 0.76936 0.00000
0.97310 0.76487 0.00000
1.00000 0.76059 0.00000
1.00000 0.75619 0.00000
1.00000 0.74898 0.00972
1.00000 0.74238 0.06542
1.00000 0.73632 0.09876
1.00000 0.73370 0.09785
1.00000 0.73097 0.08058
0.00000 0.79876 0.00000
0.00000 0.79905 0.00000
0.00000 0.79940 0.00000
0.00000 0.79992 0.00000
0.00000 0.80056 0.00000
0.00000 0.80121 0.00000
0.00000 0.80197 0.00000
0.00000 0.80340 0.00000
0.00000 0.80534 0.00000
0.00000 0.80724 0.00000
0.00000 0.80840 0.00000
0.00000 0.80923 0.00000
0.25698 0.80997 0.00000
0.38133 0.81066 0.00000
0.47345 0.81089 0.00000
0.54955 0.81106 0.00000
0.61034 0.81155 0.00000
0.66658 0.80973 0.00000
0.71820 0.80737 0.00000
0.76428 0.80659 0.00000
0.80816 0.80599 0.00000
0.85008 0.80571 0.00000
0.88857 0.80376 0.00000
0.92517 0.80112 0.00000
0.96044 0.79830 0.00000
0.99542 0.79440 0.00000
1.00000 0.79189 0.00000
1.00000 0.78742 0.01377
1.00000 0.78087 0.07005
1.00000 0.77346 0.08050
1.00000 0.77092 0.08019
1.00000 0.77062 0.08399
0.00000 0.82701 0.00000
0.00000 0.82730 0.00000
0.00000 0.82765 0.00000
0.00000 0.82815 0.00000
0.00000 0.82882 0.00000
0.00000 0.82961 0.00000
0.00000 0.83045 0.00000
0.00000 0.83180 0.00000
0.00000 0.83367 0.00000
0.00000 0.83546 0.00000
0.00000 0.83661 0.00000
0.00000 0.83679 0.00000
0.19305 0.83778 0.00000
0.34930 0.83857 0.00000
0.44332 0.83940 0.00000
0.52517 0.83909 0.00000
0.59148 0.83902 0.00000
0.64718 0.83888 0.00000
0.69982 0.83679 0.00000
0.74810 0.83505 0.00000
0.79185 0.83512 0.00000
0.83355 0.83403 0.00000
0.87364 0.83325 0.00000
0.91117 0.83126 0.00000
0.94784 0.82795 0.00000
0.98236 0.82611 0.00000
1.00000 0.82303 0.00000
1.00000 0.82003 0.00000
1.00000 0.81637 0.07756
1.00000 0.81027 0.10152
1.00000 0.80564 0.07787
1.00000 0.80460 0.04926
0.00000 0.85395 0.00000
0.00000 0.85427 0.00000
0.00000 0.85467 0.00000
0.00000 0.85524 0.00000
0.00000 0.85596 0.00000
0.00000 0.85675 0.00000
0.00000 0.85763 0.00000
0.00000 0.85898 0.00000
0.00000 0.86082 0.00000
0.00000 0.86242 0.00000
0.00000 0.86324 0.00000
0.00000 0.86326 0.00000
0.10554 0.86352 0.00000
0.30494 0.86482 0.00000
0.41867 0.86584 0.00000
0.49729 0.86599 0.00000
0.57032 0.86519 0.00000
0.62962 0.86512 0.00000
0.68142 0.86479 0.00000
0.73096 0.86280 0.00000
0.77641 0.86142 0.00000
0.81757 0.86107 0.00000
0.85727 0.85969 0.00000
0.89656 0.85893 0.00000
0.93375 0.85702 0.00000
0.96980 0.85403 0.00000
1.00000 0.85294 0.00000
1.00000 0.84970 0.00711
1.00000 0.84665 0.06260
1.00000 0.84304 0.10952
1.00000 0.83979 0.10924
1.00000 0.83677 0.07599
0.00000 0.87994 0.00000
0.00000 0.88030 0.00000
0.00000 0.88073 0.00000
0.00000 0.88137 0.00000
0.00000 0.88216 0.00000
0.00000 0.88298 0.00000
0.00000 0.88372 0.00000
0.00000 0.88459 0.00000
0.00000 0.88592 0.00000
0.00000 0.88719 0.00000
0.00000 0.88791 0.00000
0.00000 0.88810 0.00000
0.00000 0.88789 0.00000
0.26036 0.88894 0.00000
0.38497 0.89064 0.00000
0.47395 0.89156 0.00000
0.54546 0.89104 0.00000
0.61087 0.89041 0.00000
0.66478 0.89050 0.00000
0.71344 0.88970 0.00000
0.75997 0.88759 0.00000
0.80257 0.88615 0.00000
0.84194 0.88559 0.00000
0.88128 0.88436 0.00000
0.92043 0.88374 0.00000
0.95702 0.88215 0.00000
0.99219 0.87973 0.00000
1.00000 0.87810 0.01850
1.00000 0.87585 0.08597
1.00000 0.87261 0.10150
1.00000 0.87079 0.11421
1.00000 0.86882 0.11488
0.00000 0.90474 0.00000
0.00000 0.90509 0.00000
0.00000 0.90551 0.00000
0.00000 0.90614 0.00000
0.00000 0.90693 0.00000
0.00000 0.90778 0.00000
0.00000 0.90850 0.00000
0.00000 0.90903 0.00000
0.00000 0.90973 0.00000
0.00000 0.91061 0.00000
0.00000 0.91123 0.00000
0.00000 0.91147 0.00000
0.00000 0.91152 0.00000
0.20695 0.91207 0.00000
0.35002 0.91397 0.00000
0.44963 0.91626 0.00000
0.52250 0.91667 0.00000
0.58881 0.91599 0.00000
0.64754 0.91546 0.00000
0.69739 0.91518 0.00000
0.74335 0.91397 0.00000
0.78716 0.91179 0.00000
0.82822 0.91011 0.00000
0.86787 0.90972 0.00000
0.90691 0.90832 0.00000
0.94484 0.90760 0.00000
0.98035 0.90666 0.02488
1.00000 0.90396 0.02405
1.00000 0.90440 0.09191
1.00000 0.90215 0.12453
1.00000 0.89929 0.11736
1.00000 0.89785 0.11822
0.00000 0.92916 0.00000
0.00000 0.92952 0.00000
0.00000 0.92996 0.00000
0.00000 0.93059 0.00000
0.00000 0.93141 0.00000
0.00000 0.93232 0.00000
0.00000 0.93312 0.00000
0.00000 0.93358 0.00000
0.00000 0.93390 0.00000
0.00000 0.93448 0.00000
0.00000 0.93500 0.00000
0.00000 0.93529 0.00000
0.00000 0.93539 0.00000
0.12250 0.93557 0.00000
0.31716 0.93713 0.00000
0.41942 0.93988 0.00000
0.50145 0.94270 0.00000
0.56475 0.94229 0.00000
0.62701 0.94084 0.00000
0.68103 0.93984 0.00000
0.72768 0.93929 0.00000
0.77146 0.93731 0.00000
0.81409 0.93462 0.00000
0.85530 0.93291 0.00000
0.89413 0.93218 0.00000
0.93190 0.93135 0.00000
0.96851 0.93185 0.06682
0.99872 0.93156 0.10717
1.00000 0.93059 0.11329
1.00000 0.92938 0.12328
1.00000 0.92753 0.15194
1.00000 0.92611 0.13992
0.00000 0.95282 0.00000
0.00000 0.95320 0.00000
0.00000 0.95366 0.00000
0.00000 0.95433 0.00000
0.00000 0.95522 0.00000
0.00000 0.95627 0.00000
0.00000 0.95732 0.00000
0.00000 0.95812 0.00000
0.00000 0.95859 0.00000
0.00000 0.95909 0.00000
0.00000 0.95957 0.00000
0.00000 0.95974 0.00000
0.00000 0.95948 0.00000
0.00000 0.95923 0.00000
0.27367 0.95988 0.00000
0.38983 0.96230 0.00000
0.47432 0.96590 0.00000
0.54371 0.96761 0.00000
0.60386 0.96532 0.00000
0.66331 0.96240 0.00000
0.71304 0.96120 0.00000
0.75672 0.96027 0.00000
0.79992 0.95759 0.00000
0.84225 0.95517 0.00000
0.88232 0.95404 0.00000
0.91999 0.95461 0.00000
0.95624 0.95548 0.08786
0.98708 0.95558 0.12885
1.00000 0.95450 0.15389
1.00000 0.95258 0.15820
1.00000 0.95282 0.15845
1.00000 0.95343 0.17727
0.00000 0.97592 0.00000
0.00000 0.97636 0.00000
0.00000 0.97688 0.00000
0.00000 0.97763 0.00000
0.00000 0.97862 0.00000
0.00000 0.97977 0.00000
0.00000 0.98089 0.00000
0.00000 0.98160 0.00000
0.00000 0.98169 0.00000
0.00000 0.98149 0.00000
0.00000 0.98136 0.00000
0.00000 0.98088 0.00000
0.00000 0.98002 0.00000
0.00000 0.97924 0.00000
0.22002 0.97910 0.00000
0.36534 0.98037 0.00000
0.45283 0.98285 0.00000
0.52652 0.98554 0.00000
0.58881 0.98378 0.00000
0.64677 0.98030 0.00000
0.70024 0.97835 0.00000
0.74592 0.97777 0.00000
0.78845 0.97671 0.00000
0.83043 0.97502 0.00000
0.87107 0.97418 0.02764
0.90990 0.97479 0.07024
0.94537 0.97650 0.08603
0.97559 0.97622 0.14225
0.99778 0.97413 0.17300
1.00000 0.97253 0.19276
1.00000 0.97375 0.19994
1.00000 0.97594 0.18441
0.00000 0.98871 0.00000
0.00000 0.98900 0.00000
0.00000 0.98935 0.00000
0.00000 0.98984 0.00000
0.00000 0.99049 0.00000
0.00000 0.99125 0.00000
0.00000 0.99200 0.00000
0.00000 0.99254 0.00000
0.00000 0.99264 0.00000
0.00000 0.99235 0.00000
0.00000 0.99207 0.00000
0.00000 0.99172 0.00000
0.00000 0.99133 0.00000
0.00000 0.99097 0.00000
0.17273 0.99092 0.00000
0.34808 0.99137 0.00000
0.44443 0.99251 0.00000
0.51830 0.99342 0.00000
0.58492 0.99288 0.00000
0.63723 0.99166 0.00000
0.68922 0.99067 0.00000
0.73742 0.99040 0.00000
0.78028 0.99045 0.00000
0.82067 0.99009 0.00000
0.86108 0.98957 0.05420
0.90030 0.98994 0.10224
0.93612 0.99124 0.12920
0.96565 0.99158 0.14244
0.98753 0.98908 0.18626
1.00000 0.98721 0.21151
1.00000 0.98841 0.22526
1.00000 0.99107 0.22988
0.00000 0.99608 0.00000
0.00000 0.99620 0.00000
0.00000 0.99635 0.00000
0.00000 0.99654 0.00000
