cube lut/astia_sRGB.cube
# sRGB
# github.com/abpy/FujifilmCameraProfiles
LUT_3D_SIZE 5
DOMAIN_MIN 0.000000 0.000000 0.000000
DOMAIN_MAX 0.903226 0.903226 0.903226
0.00000 0.00000 0.00000
0.23251 0.01048 0.00000
0.70358 0.02340 0.00000
1.00000 0.05275 0.00000
1.00000 0.12661 0.20329
0.00000 0.19090 0.00000
0.20507 0.20820 0.00000
0.70793 0.19851 0.00000
0.99871 0.17258 0.02438
1.00000 0.19674 0.21395
0.00000 0.61356 0.00000
0.00000 0.62190 0.00000
0.59870 0.63100 0.00000
0.92221 0.60764 0.00000
1.00000 0.53739 0.11052
0.00000 0.85395 0.00000
0.00000 0.85898 0.00000
0.41867 0.86584 0.00000
0.81757 0.86107 0.00000
1.00000 0.84665 0.06260
0.00000 0.99608 0.00000
0.00000 0.99768 0.00000
0.13618 0.99782 0.00000
0.72943 0.99828 0.00000
0.97961 0.99820 0.18950
0.00627 0.00722 0.28643
0.25932 0.02020 0.27042
0.71559 0.02395 0.28558
0.99935 0.00000 0.37915
1.00000 0.00000 0.42184
0.00000 0.22883 0.24676
0.24008 0.24042 0.24008
0.70187 0.25971 0.26576
0.98275 0.23099 0.36165
1.00000 0.12761 0.42470
0.00000 0.61068 0.19592
0.00000 0.61619 0.17495
0.60820 0.62295 0.17963
0.91298 0.61613 0.26712
1.00000 0.57194 0.34944
0.00000 0.83979 0.20313
0.00000 0.84439 0.17014
0.46340 0.85526 0.18791
0.82183 0.84996 0.21487
1.00000 0.84385 0.31398
0.00000 0.99480 0.22078
0.00000 0.99569 0.17737
0.25292 0.99710 0.18793
0.74091 0.99693 0.25770
0.98045 0.99540 0.35947
0.00368 0.00823 0.86746
0.25852 0.01430 0.85117
0.73578 0.09379 0.78538
0.98773 0.15880 0.75972
1.00000 0.19031 0.76083
0.00000 0.30750 0.79512
0.31850 0.32872 0.75353
0.70571 0.34437 0.70250
0.96149 0.36130 0.70804
1.00000 0.39411 0.73380
0.00000 0.61239 0.71462
0.00000 0.61885 0.67826
0.62840 0.62816 0.62820
0.90780 0.63136 0.62912
1.00000 0.63173 0.66211
0.00000 0.82281 0.66636
0.00000 0.82786 0.63084
0.52401 0.83529 0.58653
0.83149 0.84007 0.58475
1.00000 0.84285 0.62189
0.00000 0.98969 0.64266
0.00000 0.99240 0.61768
0.41129 0.99272 0.57856
0.76697 0.99423 0.58468
0.98406 0.98697 0.61628
0.00000 0.07280 1.00000
0.21102 0.06358 1.00000
0.71001 0.11038 1.00000
0.98540 0.23325 1.00000
1.00000 0.32812 0.96373
0.00000 0.33151 1.00000
0.29337 0.35730 1.00000
0.71122 0.40208 1.00000
0.95404 0.45421 0.96064
1.00000 0.48854 0.93139
0.00000 0.64070 0.99542
0.26925 0.65036 0.97831
0.66005 0.66562 0.92530
0.90448 0.67241 0.89744
1.00000 0.68427 0.88449
0.00000 0.82924 0.95415
0.00000 0.83492 0.92786
0.57048 0.84087 0.87720
0.84748 0.84784 0.84787
1.00000 0.85477 0.84221
0.00000 0.98000 0.90901
0.00000 0.98262 0.88048
0.47587 0.98878 0.83763
0.78788 0.98602 0.82158
0.98282 0.98988 0.81469
0.00000 0.19218 1.00000
0.15064 0.18155 1.00000
0.66239 0.20019 1.00000
0.96547 0.25418 1.00000
1.00000 0.41428 1.00000
0.00000 0.37970 1.00000
0.17500 0.38266 1.00000
0.67954 0.41202 1.00000
0.95224 0.45734 1.00000
1.00000 0.56632 1.00000
0.22082 0.69157 1.00000
0.42140 0.70083 1.00000
0.70187 0.71771 1.00000
0.91232 0.73225 1.00000
1.00000 0.74263 1.00000
0.00000 0.84389 1.00000
0.33701 0.84804 1.00000
0.64363 0.85634 1.00000
0.86213 0.86348 1.00000
1.00000 0.86684 1.00000
0.00000 0.97213 1.00000
0.12736 0.97465 1.00000
0.56067 0.97759 0.99355
0.79150 0.97918 0.98434
0.97705 0.97698 0.97691
