cube lut/astia_DisplayP3.cube
# DisplayP3
# github.com/abpy/FujifilmCameraProfiles
LUT_3D_SIZE 5
DOMAIN_MIN 0.000000 0.000000 0.000000
DOMAIN_MAX 0.903226 0.903226 0.903226
0.00000 0.00000 0.00000
0.25919 0.03036 0.00516
0.70875 0.14229 0.00000
0.97797 0.20988 0.13817
1.00000 0.26675 0.14259
0.00000 0.21307 0.02500
0.20082 0.20400 0.02019
0.70371 0.22108 0.05902
0.97142 0.27135 0.08099
1.00000 0.32011 0.06764
0.00000 0.61290 0.14898
0.00000 0.61370 0.09256
0.60396 0.63162 0.13809
0.92181 0.58548 0.15888
1.00000 0.48786 0.04278
0.00000 0.84788 0.26764
0.00000 0.85564 0.20073
0.33524 0.86274 0.16202
0.82576 0.85640 0.20081
1.00000 0.83940 0.23018
0.00000 0.95724 0.34875
0.00000 0.96573 0.30582
0.00000 0.98031 0.17930
0.69932 0.98745 0.20235
0.98707 0.99458 0.24432
0.00573 0.00637 0.30065
0.28808 0.04442 0.28425
0.72161 0.13911 0.31079
0.98073 0.18472 0.38666
1.00000 0.24282 0.35942
0.00000 0.22793 0.25620
0.24013 0.24041 0.24014
0.69952 0.26986 0.28385
0.96425 0.25589 0.37966
1.00000 0.27893 0.34791
0.00000 0.60524 0.27599
0.00000 0.61009 0.19480
0.60887 0.62355 0.20963
0.91218 0.60321 0.27377
1.00000 0.51300 0.31097
0.00000 0.83933 0.35626
0.00000 0.83963 0.26748
0.38820 0.85311 0.18834
0.82569 0.85834 0.24175
1.00000 0.83929 0.30236
0.00000 0.95676 0.41699
0.00000 0.96484 0.36721
0.00000 0.97942 0.18901
0.70868 0.99018 0.22949
0.98344 0.99871 0.30450
0.00279 0.00941 0.86823
0.28093 0.04589 0.84959
0.73763 0.15773 0.79344
0.97623 0.22063 0.77098
1.00000 0.27716 0.72954
0.00000 0.30110 0.80767
0.32511 0.33364 0.75379
0.70366 0.36072 0.70517
0.94394 0.37464 0.72181
1.00000 0.38704 0.72503
0.00000 0.60396 0.73686
0.00000 0.61070 0.69422
0.62836 0.62817 0.62822
0.90379 0.62864 0.63735
1.00000 0.62614 0.66230
0.00000 0.80658 0.70795
0.00000 0.80962 0.67585
0.47513 0.83006 0.58230
0.83177 0.83999 0.57733
1.00000 0.84070 0.61891
0.00000 0.95033 0.67036
0.00000 0.95865 0.65679
0.00000 0.97886 0.57313
0.74581 0.98732 0.54419
0.98415 0.98998 0.58716
0.00000 0.08655 0.97170
0.23691 0.08077 0.97964
0.70827 0.17011 0.98375
0.96899 0.26499 0.98904
1.00000 0.35339 0.94779
0.00000 0.33509 0.97957
0.29793 0.35646 0.98163
0.70738 0.39912 0.97875
0.94443 0.45134 0.95427
1.00000 0.48548 0.92017
0.00000 0.62906 0.98086
0.26701 0.64312 0.97140
0.66425 0.66966 0.92261
0.90341 0.67835 0.89737
1.00000 0.70024 0.87403
0.00000 0.80667 0.98354
0.00000 0.81437 0.96604
0.53611 0.83569 0.88776
0.84755 0.84783 0.84786
1.00000 0.85689 0.84493
0.00000 0.94069 0.97424
0.00000 0.94811 0.97268
0.27692 0.97005 0.87110
0.76896 0.98399 0.81587
0.98522 0.98954 0.81220
0.00000 0.20662 0.97763
0.19928 0.18684 0.97865
0.67053 0.22871 0.98214
0.94772 0.30298 0.98649
1.00000 0.41555 0.98960
0.00000 0.38753 0.97963
0.21924 0.38674 0.98005
0.68051 0.42147 0.98348
0.94070 0.45764 0.98822
1.00000 0.55512 0.99158
0.18135 0.67546 0.98360
0.42572 0.69632 0.98505
0.70974 0.72226 0.98900
0.91415 0.73987 0.99519
1.00000 0.76144 0.99842
0.00000 0.82712 0.98575
0.24053 0.83504 0.98730
0.62784 0.85133 0.99052
0.86330 0.86454 0.99434
1.00000 0.87069 0.99394
0.00000 0.93825 0.98851
0.00000 0.94394 0.98924
0.44093 0.96253 0.99131
0.78095 0.97458 0.98172
0.97706 0.97697 0.97686
