cube lut/bleach bypass_sRGB.cube
# sRGB
# github.com/abpy/FujifilmCameraProfiles
LUT_3D_SIZE 32
0.01677 0.01766 0.01572
0.02327 0.01825 0.01586
0.02997 0.01866 0.01544
0.03772 0.01941 0.01580
0.05163 0.02087 0.01653
0.07330 0.02516 0.01896
0.09910 0.03031 0.01928
0.12745 0.03554 0.02008
0.15937 0.04174 0.02292
0.19985 0.04629 0.02429
0.24534 0.05257 0.02871
0.29316 0.06134 0.03697
0.34244 0.07062 0.04711
0.38913 0.08017 0.05950
0.43188 0.08949 0.07205
0.47179 0.09756 0.08269
0.50771 0.10661 0.09381
0.53951 0.11823 0.10551
0.56929 0.13337 0.11560
0.59576 0.14914 0.12698
0.61895 0.16497 0.13907
0.63954 0.18076 0.14972
0.65875 0.19719 0.16119
0.67925 0.21562 0.18254
0.69937 0.23341 0.21136
0.71550 0.24851 0.23532
0.72590 0.25989 0.24986
0.73287 0.26956 0.25768
0.73699 0.27788 0.26029
0.74002 0.28583 0.26081
0.74372 0.29639 0.26119
0.74771 0.30820 0.26135
0.01676 0.02735 0.01709
0.02673 0.02878 0.01987
0.03392 0.03065 0.01963
0.04231 0.03048 0.01972
0.05553 0.03083 0.02027
0.07736 0.03609 0.02268
0.10219 0.04181 0.02401
0.13021 0.04728 0.02500
0.16191 0.05374 0.02845
0.20175 0.05681 0.02941
0.24707 0.06240 0.03384
0.29471 0.06979 0.04206
0.34397 0.07856 0.05150
0.39068 0.08748 0.06344
0.43339 0.09611 0.07584
0.47345 0.10424 0.08643
0.50945 0.11321 0.09763
0.54122 0.12448 0.10939
0.57108 0.13977 0.11929
0.59759 0.15527 0.13064
0.62083 0.17090 0.14273
0.64147 0.18662 0.15329
0.66075 0.20304 0.16458
0.68144 0.22164 0.18584
0.70179 0.23952 0.21469
0.71806 0.25473 0.23857
0.72846 0.26610 0.25297
0.73540 0.27573 0.26069
0.73946 0.28392 0.26322
0.74241 0.29168 0.26368
0.74607 0.30211 0.26403
0.75001 0.31376 0.26416
0.01617 0.03652 0.01893
0.02641 0.03867 0.02182
0.03498 0.04115 0.02228
0.04667 0.04387 0.02261
0.05992 0.04369 0.02404
0.08107 0.05055 0.02514
0.10556 0.05310 0.02698
0.13334 0.05728 0.02786
0.16525 0.06480 0.03312
0.20425 0.06620 0.03471
0.24918 0.07150 0.03988
0.29647 0.07789 0.04809
0.34565 0.08639 0.05692
0.39235 0.09482 0.06838
0.43500 0.10284 0.08058
0.47528 0.11110 0.09100
0.51139 0.12007 0.10222
0.54312 0.13099 0.11402
0.57310 0.14655 0.12364
0.59967 0.16180 0.13491
0.62296 0.17728 0.14697
0.64366 0.19298 0.15740
0.66302 0.20943 0.16847
0.68393 0.22825 0.18962
0.70456 0.24628 0.21849
0.72099 0.26163 0.24227
0.73139 0.27302 0.25651
0.73830 0.28262 0.26413
0.74229 0.29068 0.26656
0.74517 0.29825 0.26695
0.74878 0.30853 0.26726
0.75265 0.32001 0.26736
0.01477 0.04803 0.02202
0.02432 0.05008 0.02385
0.03523 0.05358 0.02581
0.04935 0.05632 0.02706
0.06430 0.05880 0.02854
0.08437 0.06432 0.02916
0.10879 0.06769 0.03195
0.13691 0.07145 0.03257
0.16944 0.07801 0.03697
0.20839 0.07834 0.03908
0.25289 0.08278 0.04488
0.29961 0.08814 0.05427
0.34857 0.09615 0.06315
0.39503 0.10409 0.07467
0.43741 0.11147 0.08720
0.47794 0.12011 0.09761
0.51420 0.12920 0.10900
0.54588 0.13967 0.12099
0.57601 0.15574 0.13013
0.60267 0.17067 0.14126
0.62606 0.18599 0.15324
0.64685 0.20171 0.16345
0.66630 0.21822 0.17412
0.68753 0.23739 0.19507
0.70858 0.25567 0.22398
0.72524 0.27126 0.24761
0.73565 0.28270 0.26161
0.74252 0.29228 0.26908
0.74641 0.30017 0.27137
0.74916 0.30748 0.27164
0.75271 0.31759 0.27191
0.75648 0.32886 0.27195
0.01463 0.06248 0.02676
0.02327 0.06487 0.02904
0.03638 0.06825 0.03057
0.05265 0.07102 0.03330
0.06731 0.07489 0.03393
0.08751 0.07911 0.03606
0.11121 0.08406 0.03869
0.14032 0.08827 0.04038
0.17281 0.09306 0.04281
0.21323 0.09587 0.04631
0.25773 0.09908 0.05131
0.30383 0.10213 0.05926
0.35298 0.10845 0.06799
0.39915 0.11573 0.08007
0.44105 0.12245 0.09436
0.48184 0.13139 0.10512
0.51818 0.14062 0.11710
0.54972 0.15050 0.12995
0.58004 0.16744 0.13864
0.60681 0.18204 0.14977
0.63035 0.19723 0.16180
0.65125 0.21305 0.17171
0.67081 0.22966 0.18183
0.69247 0.24929 0.20246
0.71409 0.26792 0.23143
0.73109 0.28387 0.25486
0.74150 0.29538 0.26851
0.74829 0.30493 0.27577
0.75203 0.31262 0.27784
0.75461 0.31959 0.27796
0.75806 0.32949 0.27815
0.76170 0.34050 0.27812
0.01374 0.08485 0.03541
0.02524 0.08660 0.03721
0.04012 0.08883 0.03998
0.05583 0.09049 0.04324
0.07131 0.09364 0.04566
0.09055 0.09758 0.04629
0.11481 0.10317 0.04849
0.14343 0.10785 0.05009
0.17635 0.11318 0.05192
0.21798 0.11657 0.05680
0.26297 0.11989 0.06151
0.31006 0.12317 0.06582
0.35889 0.12732 0.07574
0.40480 0.13239 0.08605
0.44612 0.13705 0.10134
0.48712 0.14581 0.11213
0.52359 0.15550 0.12520
0.55499 0.16452 0.14005
0.58552 0.18237 0.14842
0.61236 0.19635 0.15977
0.63609 0.21128 0.17216
0.65709 0.22720 0.18190
0.67680 0.24398 0.19147
0.69899 0.26418 0.21183
0.72139 0.28330 0.24101
0.73885 0.29973 0.26420
0.74923 0.31134 0.27740
0.75592 0.32084 0.28438
0.75943 0.32827 0.28618
0.76178 0.33480 0.28609
0.76507 0.34444 0.28618
0.76853 0.35513 0.28603
0.01528 0.10933 0.04782
0.02655 0.11030 0.04912
0.04201 0.11243 0.05204
0.05927 0.11502 0.05544
0.07447 0.11748 0.05676
0.09376 0.12118 0.05939
0.11785 0.12545 0.06119
0.14758 0.13171 0.06261
0.18066 0.13731 0.06385
0.22247 0.14178 0.06987
0.26817 0.14511 0.07450
0.31669 0.14798 0.07889
0.36572 0.15253 0.08726
0.41165 0.15684 0.09556
0.45342 0.16078 0.10998
0.49448 0.16778 0.12161
0.53084 0.17612 0.13417
0.56170 0.18316 0.14922
0.59263 0.20159 0.15864
0.61974 0.21527 0.17076
0.64381 0.22973 0.18417
0.66484 0.24537 0.19372
0.68463 0.26197 0.20264
0.70735 0.28251 0.22285
0.73067 0.30197 0.25247
0.74868 0.31898 0.27546
0.75904 0.33072 0.28818
0.76565 0.34021 0.29492
0.76890 0.34738 0.29643
0.77094 0.35339 0.29613
0.77403 0.36273 0.29612
0.77725 0.37305 0.29585
0.01424 0.13841 0.05753
0.02383 0.13868 0.05780
0.03921 0.14033 0.06020
0.05684 0.14313 0.06279
0.07519 0.14608 0.06483
0.09592 0.14948 0.06823
0.12004 0.15396 0.07166
0.14898 0.15917 0.07311
0.18524 0.16613 0.07778
0.22808 0.17207 0.08279
0.27437 0.17739 0.08994
0.32394 0.17974 0.09637
0.37312 0.18493 0.10326
0.41966 0.18904 0.10993
0.46129 0.19307 0.11931
0.50430 0.20054 0.13568
0.54144 0.20848 0.14845
0.57142 0.21283 0.16028
0.60263 0.22898 0.17190
0.62949 0.24052 0.18299
0.65365 0.25318 0.19729
0.67484 0.26864 0.20678
0.69496 0.28541 0.21523
0.71831 0.30610 0.23560
0.74245 0.32522 0.26582
0.76084 0.34226 0.28841
0.77098 0.35372 0.30046
0.77745 0.36303 0.30697
0.78040 0.36985 0.30824
0.78215 0.37534 0.30783
0.78507 0.38444 0.30781
0.78801 0.39439 0.30749
0.00889 0.17483 0.06773
0.01739 0.17458 0.06714
0.03257 0.17544 0.06925
0.05145 0.17739 0.07155
0.07278 0.18045 0.07528
0.09627 0.18399 0.08029
0.12300 0.18846 0.08487
0.15273 0.19355 0.08730
0.18826 0.19942 0.09148
0.23335 0.20844 0.09870
0.28194 0.21489 0.10203
0.33044 0.22140 0.11117
0.38139 0.22693 0.12170
0.42853 0.23039 0.12794
0.47212 0.23493 0.13787
0.51687 0.24495 0.15654
0.55547 0.25230 0.16809
0.58613 0.25660 0.17623
0.61795 0.27109 0.19165
0.64440 0.27910 0.20035
0.66791 0.28712 0.21433
0.68865 0.30027 0.22285
0.70815 0.31511 0.22912
0.73183 0.33518 0.24934
0.75678 0.35374 0.28043
0.77568 0.37078 0.30297
0.78553 0.38170 0.31434
0.79171 0.39035 0.32056
0.79407 0.39622 0.32140
0.79536 0.40077 0.32080
0.79803 0.40946 0.32079
0.80069 0.41897 0.32048
0.00000 0.21830 0.07713
0.00178 0.21747 0.07533
0.01570 0.21692 0.07589
0.03667 0.21821 0.07757
0.06332 0.22130 0.08230
0.09267 0.22578 0.09192
0.12214 0.23012 0.09573
0.15618 0.23555 0.09999
0.19292 0.24170 0.10662
0.23716 0.24972 0.11665
0.28913 0.26027 0.12643
0.34051 0.26928 0.13387
0.39206 0.27743 0.14289
0.43913 0.28305 0.15322
0.48396 0.28862 0.16148
0.53222 0.30012 0.18512
0.57383 0.30986 0.19748
0.60614 0.31433 0.20007
0.63876 0.32594 0.21713
0.66571 0.33287 0.22336
0.69049 0.33976 0.23326
0.70992 0.34804 0.24262
0.72750 0.35803 0.24745
0.74995 0.37416 0.26603
0.77434 0.38960 0.29624
0.79267 0.40439 0.31808
0.80192 0.41399 0.32880
0.80807 0.42213 0.33511
0.80999 0.42716 0.33575
0.81084 0.43070 0.33507
0.81316 0.43868 0.33504
0.81532 0.44725 0.33460
0.00000 0.26968 0.09333
0.00000 0.26896 0.09144
0.00000 0.26791 0.09046
0.01384 0.26742 0.09114
0.04772 0.26918 0.09653
0.08504 0.27439 0.10659
0.12003 0.27961 0.11268
0.15526 0.28414 0.11290
0.19767 0.29001 0.12339
0.24361 0.29869 0.13793
0.29445 0.30878 0.15155
0.34937 0.32086 0.16351
0.40448 0.33337 0.17517
0.45265 0.34067 0.18401
0.49876 0.34961 0.19619
0.54945 0.36161 0.21768
0.59435 0.37398 0.23171
0.63183 0.38306 0.24025
0.66575 0.39359 0.25267
0.69339 0.39990 0.25521
0.71632 0.40393 0.25621
0.73690 0.41073 0.26516
0.75401 0.41747 0.27083
0.77428 0.42777 0.28707
0.79754 0.43874 0.31487
0.81444 0.44989 0.33493
0.82175 0.45511 0.34455
0.82651 0.45932 0.35043
0.82718 0.46159 0.35035
0.82752 0.46396 0.34954
0.82974 0.47163 0.34974
0.83166 0.47946 0.34950
0.00000 0.32234 0.11169
0.00000 0.32190 0.11014
0.00000 0.32145 0.10941
0.00000 0.32115 0.11180
0.02142 0.32199 0.11744
0.07192 0.32497 0.12496
0.11794 0.33155 0.13523
0.15939 0.33594 0.13759
0.20246 0.34139 0.14337
0.25130 0.35111 0.16071
0.30356 0.36166 0.18037
0.35705 0.37266 0.19506
0.41389 0.38789 0.21145
0.46787 0.40090 0.22212
0.51744 0.41169 0.23442
0.56880 0.42725 0.25272
0.61668 0.44254 0.26978
0.65662 0.45099 0.27838
0.69358 0.46436 0.29307
0.72272 0.47249 0.29599
0.74468 0.47758 0.29018
0.76457 0.48107 0.29513
0.78133 0.48396 0.29789
0.80053 0.49090 0.31053
0.82349 0.49947 0.33520
0.84012 0.50654 0.35572
0.84558 0.50829 0.36267
0.84928 0.50879 0.36777
0.84801 0.50559 0.36716
0.84600 0.50301 0.36481
0.84689 0.50778 0.36412
0.84829 0.51381 0.36390
0.00000 0.37557 0.13598
0.00000 0.37527 0.13469
0.00000 0.37517 0.13424
0.00000 0.37575 0.13712
0.00000 0.37752 0.14411
0.05952 0.38076 0.15271
0.11452 0.38604 0.16229
0.16290 0.39163 0.16909
0.20951 0.39676 0.17392
0.26195 0.40567 0.19105
0.31476 0.41585 0.20958
0.37047 0.42865 0.23056
0.42412 0.44160 0.24574
0.48307 0.46083 0.26417
0.53719 0.47506 0.27360
0.59015 0.49157 0.28935
0.63871 0.50744 0.30512
0.67865 0.52014 0.31611
0.71753 0.53121 0.33012
0.74780 0.54068 0.33477
0.77171 0.54876 0.33673
0.79057 0.55179 0.33275
0.80730 0.55451 0.33111
0.82430 0.55637 0.33543
0.84422 0.55995 0.35231
0.86153 0.56567 0.37209
0.86948 0.56752 0.38179
0.87235 0.56484 0.38627
0.86993 0.55855 0.38392
0.86699 0.55215 0.38110
0.86619 0.55211 0.37953
0.86632 0.55379 0.37922
0.00000 0.43037 0.16493
0.00000 0.43018 0.16370
0.00000 0.43023 0.16324
0.00000 0.43111 0.16593
0.00000 0.43358 0.17452
0.04953 0.43715 0.18461
0.11228 0.44225 0.19520
0.16956 0.44894 0.20597
0.22097 0.45532 0.21359
0.27245 0.46270 0.22318
0.33215 0.47469 0.24587
0.38680 0.48565 0.26328
0.44347 0.50177 0.28500
0.49901 0.51890 0.30108
0.55642 0.53727 0.31760
0.61019 0.55351 0.32764
0.65921 0.56956 0.34086
0.69953 0.58180 0.35117
0.73679 0.59528 0.36401
0.76697 0.60305 0.36774
0.79185 0.60918 0.36856
0.81319 0.61584 0.37000
0.82980 0.61866 0.36521
0.84560 0.62054 0.36321
0.86134 0.62079 0.36641
0.87857 0.62220 0.38349
0.88818 0.62296 0.39391
0.89324 0.62237 0.39963
0.89118 0.61686 0.39860
0.88815 0.60832 0.39633
0.88645 0.60464 0.39409
0.88539 0.60206 0.39355
0.00000 0.48519 0.19792
0.00000 0.48497 0.19641
0.00000 0.48498 0.19554
0.00000 0.48586 0.19762
0.00000 0.48881 0.20738
0.04437 0.49299 0.21957
0.11355 0.49849 0.23188
0.17357 0.50546 0.24371
0.23296 0.51368 0.25465
0.29069 0.52266 0.26557
0.34577 0.53274 0.28002
0.40673 0.54603 0.30237
0.46244 0.55997 0.32064
0.51869 0.57700 0.33992
0.57236 0.59297 0.35419
0.62585 0.60983 0.36633
0.67590 0.62655 0.37677
0.71426 0.63583 0.37653
0.75189 0.64857 0.38841
0.78195 0.65811 0.39410
0.80631 0.66449 0.39475
0.82970 0.66936 0.39618
0.84758 0.67398 0.39315
0.86321 0.67737 0.38999
0.87786 0.67744 0.38794
0.89225 0.67713 0.39340
0.90360 0.67750 0.40237
0.91026 0.67601 0.40849
0.90865 0.67089 0.40788
0.90657 0.66458 0.40684
0.90535 0.66068 0.40584
0.90391 0.65588 0.40472
0.00000 0.54063 0.23391
0.00000 0.54032 0.23198
0.00000 0.54017 0.23036
0.00000 0.54072 0.23079
0.00000 0.54354 0.23950
0.03467 0.54826 0.25412
0.11514 0.55401 0.26840
0.18009 0.56116 0.28173
0.24512 0.57022 0.29501
0.30351 0.57900 0.30488
0.36243 0.58876 0.31557
0.42115 0.60114 0.33535
0.48088 0.61520 0.35641
0.53538 0.62971 0.37337
0.58866 0.64530 0.38901
0.63845 0.65954 0.39807
0.68636 0.67406 0.40571
0.72906 0.68727 0.41114
0.76278 0.69550 0.40841
0.79419 0.70530 0.41618
0.81897 0.71180 0.41668
0.84142 0.71822 0.41944
0.85994 0.72148 0.41583
0.87536 0.72361 0.41005
0.88985 0.72598 0.40666
0.90456 0.72713 0.40896
0.91521 0.72585 0.41120
0.92268 0.72495 0.41430
0.92231 0.72165 0.41483
0.92088 0.71590 0.41417
0.91966 0.71151 0.41351
0.91842 0.70717 0.41281
0.00000 0.59413 0.27497
0.00000 0.59403 0.27361
0.00000 0.59404 0.27247
0.00000 0.59444 0.27234
0.00000 0.59603 0.27684
0.03614 0.59970 0.28907
0.11699 0.60467 0.30304
0.18583 0.61154 0.31756
0.25151 0.62039 0.33119
0.31785 0.63072 0.34439
0.37640 0.64020 0.35401
0.43232 0.65018 0.36412
0.49400 0.66464 0.38765
0.55032 0.67798 0.40483
0.60175 0.69174 0.41841
0.65061 0.70509 0.42867
0.69455 0.71613 0.43220
0.73620 0.72756 0.43692
0.77291 0.73837 0.43853
0.80351 0.74621 0.43653
0.82846 0.75334 0.43715
0.84958 0.75770 0.43528
0.86763 0.76246 0.43485
0.88306 0.76496 0.42998
0.89799 0.76575 0.42407
0.91181 0.76714 0.42083
0.92334 0.76777 0.42055
0.93157 0.76653 0.42135
0.93142 0.76329 0.42094
0.93057 0.76003 0.42027
0.93000 0.75652 0.41982
0.92897 0.75213 0.41924
0.00000 0.64251 0.31408
0.00000 0.64246 0.31293
0.00000 0.64249 0.31187
0.00000 0.64277 0.31140
0.00000 0.64376 0.31384
0.05032 0.64639 0.32300
0.12252 0.65079 0.33625
0.19084 0.65723 0.35111
0.25870 0.66589 0.36587
0.32724 0.67650 0.38021
0.38861 0.68669 0.39089
0.44791 0.69714 0.40048
0.50117 0.70757 0.41163
0.56047 0.72081 0.43259
0.61239 0.73298 0.44539
0.65958 0.74495 0.45573
0.70290 0.75507 0.46169
0.74130 0.76318 0.46078
0.77780 0.77260 0.46284
0.80929 0.78162 0.46239
0.83433 0.78807 0.45695
0.85457 0.79251 0.45177
0.87286 0.79563 0.44961
0.88799 0.79907 0.44683
0.90192 0.80148 0.44140
0.91629 0.80149 0.43474
0.92831 0.80113 0.42909
0.93731 0.80158 0.42785
0.93816 0.79895 0.42852
0.93720 0.79518 0.42768
0.93658 0.79247 0.42676
0.93597 0.78977 0.42531
0.00000 0.68464 0.34982
0.00000 0.68457 0.34860
0.00000 0.68453 0.34737
0.00470 0.68464 0.34642
0.02353 0.68524 0.34763
0.07089 0.68707 0.35452
0.13159 0.69085 0.36702
0.19538 0.69671 0.38128
0.26284 0.70503 0.39652
0.32933 0.71498 0.41029
0.39677 0.72590 0.42313
0.45382 0.73535 0.43093
0.51109 0.74503 0.43909
0.56359 0.75589 0.45240
0.61905 0.76859 0.47079
0.66617 0.77923 0.48019
0.70854 0.78869 0.48740
0.74687 0.79613 0.48920
0.78051 0.80246 0.48478
0.81117 0.81025 0.48596
0.83744 0.81731 0.48267
0.85871 0.82185 0.47527
0.87583 0.82471 0.46384
0.89127 0.82773 0.46192
0.90470 0.82959 0.45649
0.91787 0.83163 0.44966
0.93145 0.83266 0.44334
0.94106 0.83085 0.43768
0.94225 0.82827 0.43559
0.94189 0.82569 0.43548
0.94152 0.82260 0.43544
0.94068 0.81950 0.43307
0.05170 0.72037 0.38321
0.05312 0.72026 0.38179
0.05486 0.72017 0.38028
0.05900 0.72013 0.37880
0.07018 0.72043 0.37916
0.09737 0.72173 0.38476
0.14520 0.72494 0.39642
0.20193 0.73014 0.40945
0.26574 0.73778 0.42390
0.33181 0.74730 0.43791
0.39815 0.75785 0.45073
0.45986 0.76802 0.46032
0.51580 0.77742 0.46723
0.56825 0.78694 0.47481
0.62019 0.79778 0.48908
0.67001 0.80853 0.50362
0.71182 0.81693 0.50949
0.74977 0.82386 0.51373
0.78334 0.82969 0.51353
0.81194 0.83518 0.50843
0.83834 0.84124 0.50771
0.86093 0.84647 0.50214
0.87837 0.84966 0.48977
0.89260 0.85207 0.47525
0.90633 0.85352 0.47478
0.91950 0.85495 0.46635
0.93250 0.85843 0.45953
0.94335 0.85936 0.45406
0.94595 0.85480 0.45089
0.94524 0.85060 0.44583
0.94499 0.84896 0.44359
0.94477 0.84672 0.44315
0.09246 0.75076 0.41231
0.09304 0.75053 0.41030
0.09364 0.75026 0.40788
0.09508 0.74989 0.40450
0.10083 0.74991 0.40360
0.11826 0.75118 0.41011
0.15611 0.75422 0.42187
0.20901 0.75935 0.43549
0.26945 0.76659 0.44973
0.33421 0.77575 0.46412
0.39841 0.78578 0.47670
0.46409 0.79652 0.48832
0.51912 0.80559 0.49370
0.57353 0.81463 0.49913
0.62042 0.82311 0.50558
0.67039 0.83280 0.52116
0.71442 0.84099 0.53200
0.75156 0.84742 0.53586
0.78489 0.85269 0.53839
0.81393 0.85750 0.53683
0.83922 0.86249 0.53110
0.86111 0.86654 0.52772
0.87950 0.86987 0.51851
0.89416 0.87220 0.50596
0.90657 0.87272 0.49192
0.92021 0.87504 0.48899
0.93345 0.87715 0.47812
0.94400 0.87981 0.47186
0.94815 0.87896 0.47309
0.94879 0.87492 0.46772
0.94803 0.87119 0.45890
0.94750 0.86963 0.45309
0.12384 0.77827 0.44057
0.12447 0.77806 0.43872
0.12516 0.77782 0.43657
0.12658 0.77752 0.43375
0.13055 0.77744 0.43188
0.14189 0.77831 0.43512
0.16988 0.78090 0.44497
0.21735 0.78574 0.45910
0.27352 0.79233 0.47341
0.33630 0.80079 0.48840
0.40057 0.81040 0.50217
0.46384 0.82045 0.51381
0.52378 0.82997 0.52191
0.57461 0.83789 0.52402
0.62551 0.84603 0.52826
0.66903 0.85324 0.53526
0.71499 0.86105 0.55008
0.75346 0.86743 0.55776
0.78590 0.87239 0.55954
0.81511 0.87651 0.56115
0.84019 0.88044 0.55856
0.86084 0.88358 0.55033
0.87922 0.88623 0.54535
0.89502 0.88858 0.53595
0.90794 0.88996 0.52558
0.92006 0.89122 0.50809
0.93334 0.89349 0.50235
0.94391 0.89474 0.49331
0.94908 0.89535 0.49071
0.95120 0.89534 0.49125
0.95123 0.89285 0.48668
0.95027 0.88922 0.47686
0.15795 0.80241 0.47094
0.15863 0.80224 0.46926
0.15938 0.80206 0.46734
0.16072 0.80184 0.46481
0.16382 0.80175 0.46262
0.17170 0.80226 0.46334
0.19173 0.80420 0.47024
0.23143 0.80833 0.48339
0.28277 0.81418 0.49764
0.34171 0.82174 0.51245
0.40364 0.83053 0.52656
0.46422 0.83972 0.53836
0.52572 0.84919 0.54850
0.57795 0.85705 0.55117
0.62685 0.86452 0.55114
0.67210 0.87142 0.55390
0.71336 0.87771 0.56276
0.75418 0.88413 0.57568
0.78753 0.88894 0.58071
0.81577 0.89245 0.58148
0.84059 0.89561 0.58184
0.86151 0.89839 0.57768
0.87928 0.90080 0.56810
0.89520 0.90274 0.56342
0.90879 0.90421 0.55434
0.92112 0.90600 0.54296
0.93286 0.90742 0.52188
0.94348 0.90867 0.51635
0.95010 0.90942 0.51318
0.95266 0.90960 0.50928
0.95320 0.90985 0.51161
0.95287 0.90757 0.51136
0.18775 0.82523 0.50061
0.18844 0.82510 0.49898
0.18919 0.82497 0.49711
0.19044 0.82481 0.49458
0.19304 0.82475 0.49204
0.19916 0.82512 0.49131
0.21433 0.82656 0.49562
0.24694 0.82982 0.50669
0.29467 0.83484 0.52085
0.34956 0.84129 0.53507
0.40903 0.84904 0.54930
0.46850 0.85732 0.56188
0.52550 0.86539 0.57138
0.58128 0.87337 0.57712
0.62816 0.88033 0.57585
0.67537 0.88768 0.57578
0.71456 0.89340 0.57800
0.75359 0.89904 0.58897
0.78892 0.90372 0.59950
0.81722 0.90685 0.60213
0.84108 0.90930 0.60160
0.86207 0.91167 0.60079
0.88018 0.91385 0.59583
0.89539 0.91539 0.58602
0.90899 0.91668 0.58126
0.92148 0.91835 0.57032
0.93327 0.92064 0.55680
0.94330 0.92144 0.53898
0.95099 0.92307 0.53520
0.95423 0.92319 0.53452
0.95445 0.92274 0.53200
0.95424 0.92173 0.53629
0.21499 0.85152 0.53568
0.21585 0.85147 0.53416
0.21681 0.85142 0.53240
0.21833 0.85138 0.52996
0.22111 0.85141 0.52724
0.22687 0.85168 0.52541
0.23977 0.85252 0.52688
0.26744 0.85455 0.53446
0.31234 0.85820 0.54718
0.36473 0.86328 0.56048
0.42202 0.86970 0.57438
0.47866 0.87654 0.58662
0.53158 0.88300 0.59537
0.58471 0.88955 0.60192
0.63330 0.89634 0.60319
0.67726 0.90322 0.60054
0.72068 0.91034 0.60022
0.75473 0.91451 0.60324
0.78956 0.91826 0.61512
0.81873 0.92076 0.62188
0.84222 0.92256 0.62176
0.86254 0.92418 0.62056
0.88061 0.92581 0.61847
0.89610 0.92719 0.61257
0.90901 0.92805 0.60157
0.92143 0.92961 0.59605
0.93330 0.93215 0.58408
0.94380 0.93466 0.57316
0.95171 0.93585 0.56103
0.95509 0.93525 0.55531
0.95585 0.93576 0.56119
0.95534 0.93482 0.55904
0.24136 0.87669 0.57078
0.24222 0.87663 0.56911
0.24317 0.87656 0.56714
0.24460 0.87646 0.56432
0.24708 0.87637 0.56091
0.25208 0.87643 0.55793
0.26306 0.87691 0.55757
0.28712 0.87837 0.56295
0.32963 0.88139 0.57469
0.38186 0.88582 0.58814
0.43760 0.89135 0.60163
0.49278 0.89723 0.61389
0.54451 0.90262 0.62348
0.59254 0.90754 0.62979
0.64157 0.91327 0.63418
0.68380 0.91929 0.63160
0.72487 0.92604 0.62853
0.76096 0.93107 0.62771
0.79000 0.93274 0.63015
0.81951 0.93414 0.63935
0.84371 0.93539 0.64248
0.86356 0.93660 0.63985
0.88106 0.93763 0.63615
0.89653 0.93863 0.63174
0.90983 0.93945 0.62513
0.92148 0.94042 0.61358
0.93311 0.94293 0.60879
0.94343 0.94549 0.59910
0.95138 0.94697 0.59111
0.95556 0.94673 0.58598
0.95635 0.94716 0.58273
0.95662 0.94738 0.58944
0.26279 0.89873 0.60049
0.26384 0.89873 0.59885
0.26499 0.89871 0.59687
0.26669 0.89867 0.59399
0.26942 0.89865 0.59039
0.27445 0.89872 0.58696
0.28461 0.89909 0.58568
0.30599 0.90017 0.58960
0.34533 0.90257 0.60020
0.39758 0.90635 0.61403
0.45171 0.91090 0.62691
0.50604 0.91578 0.63900
0.55654 0.92014 0.64871
0.60244 0.92397 0.65547
0.64804 0.92821 0.66105
0.69058 0.93317 0.66151
0.72730 0.93828 0.65638
0.76378 0.94361 0.65309
0.79242 0.94538 0.64971
0.81908 0.94587 0.65351
0.84461 0.94698 0.66042
0.86507 0.94826 0.65860
0.88199 0.94936 0.65061
0.89709 0.95007 0.64474
0.91047 0.95064 0.63992
0.92231 0.95147 0.63388
0.93279 0.95289 0.62386
0.94266 0.95493 0.62162
0.95058 0.95625 0.61392
0.95558 0.95692 0.61184
0.95742 0.95736 0.61477
0.95732 0.95739 0.61008
0.27240 0.90728 0.61675
0.27354 0.90726 0.61521
0.27481 0.90722 0.61336
0.27664 0.90715 0.61061
0.27943 0.90706 0.60705
0.28422 0.90701 0.60334
0.29328 0.90721 0.60113
0.31163 0.90805 0.60310
0.34643 0.91018 0.61140
0.39721 0.91390 0.62466
0.45139 0.91849 0.63766
0.50611 0.92363 0.65018
0.55783 0.92869 0.66114
0.60560 0.93334 0.67034
0.64918 0.93764 0.67706
0.69318 0.94241 0.68282
0.73020 0.94685 0.68097
0.76348 0.95085 0.67599
0.79533 0.95397 0.67360
0.81964 0.95521 0.67123
0.84419 0.95641 0.67649
0.86591 0.95799 0.67697
0.88322 0.95957 0.66727
0.89766 0.96045 0.65474
0.91076 0.96068 0.64814
0.92245 0.96099 0.64412
0.93285 0.96186 0.64091
0.94161 0.96277 0.63209
0.94971 0.96395 0.63102
0.95541 0.96473 0.62845
0.95818 0.96529 0.63244
0.95895 0.96569 0.64046
0.27489 0.90804 0.62243
0.27600 0.90799 0.62096
0.27722 0.90792 0.61918
0.27897 0.90781 0.61653
