cube lut/bleach bypass_sRGB.cube
# sRGB
# github.com/abpy/FujifilmCameraProfiles
LUT_3D_SIZE 8
DOMAIN_MIN 0.000000 0.000000 0.000000
DOMAIN_MAX 0.903226 0.903226 0.903226
0.01677 0.01766 0.01572
0.05163 0.02087 0.01653
0.15937 0.04174 0.02292
0.34244 0.07062 0.04711
0.50771 0.10661 0.09381
0.61895 0.16497 0.13907
0.69937 0.23341 0.21136
0.73699 0.27788 0.26029
0.01463 0.06248 0.02676
0.06731 0.07489 0.03393
0.17281 0.09306 0.04281
0.35298 0.10845 0.06799
0.51818 0.14062 0.11710
0.63035 0.19723 0.16180
0.71409 0.26792 0.23143
0.75203 0.31262 0.27784
0.00889 0.17483 0.06773
0.07278 0.18045 0.07528
0.18826 0.19942 0.09148
0.38139 0.22693 0.12170
0.55547 0.25230 0.16809
0.66791 0.28712 0.21433
0.75678 0.35374 0.28043
0.79407 0.39622 0.32140
0.00000 0.37557 0.13598
0.00000 0.37752 0.14411
0.20951 0.39676 0.17392
0.42412 0.44160 0.24574
0.63871 0.50744 0.30512
0.77171 0.54876 0.33673
0.84422 0.55995 0.35231
0.86993 0.55855 0.38392
0.00000 0.59413 0.27497
0.00000 0.59603 0.27684
0.25151 0.62039 0.33119
0.49400 0.66464 0.38765
0.69455 0.71613 0.43220
0.82846 0.75334 0.43715
0.89799 0.76575 0.42407
0.93142 0.76329 0.42094
0.09246 0.75076 0.41231
0.10083 0.74991 0.40360
0.26945 0.76659 0.44973
0.51912 0.80559 0.49370
0.71442 0.84099 0.53200
0.83922 0.86249 0.53110
0.90657 0.87272 0.49192
0.94815 0.87896 0.47309
0.21499 0.85152 0.53568
0.22111 0.85141 0.52724
0.31234 0.85820 0.54718
0.53158 0.88300 0.59537
0.72068 0.91034 0.60022
0.84222 0.92256 0.62176
0.90901 0.92805 0.60157
0.95171 0.93585 0.56103
0.27489 0.90804 0.62243
0.28153 0.90768 0.61301
0.33779 0.91043 0.61310
0.55008 0.93124 0.66448
0.73133 0.95264 0.70070
0.84317 0.96281 0.69725
0.91046 0.96805 0.65222
0.94886 0.96983 0.63729
0.02122 0.01865 0.05029
0.07310 0.03405 0.06872
0.17145 0.04969 0.08425
0.35316 0.08478 0.11960
0.51589 0.11047 0.14216
0.62233 0.15671 0.16956
0.70034 0.22142 0.22921
0.73654 0.26700 0.27303
0.03828 0.07710 0.07297
0.08600 0.08645 0.08544
0.18739 0.10417 0.10526
0.36593 0.12767 0.13834
0.52917 0.15425 0.16505
0.63583 0.19443 0.19071
0.71685 0.25933 0.24891
0.75305 0.30434 0.29024
0.04270 0.18840 0.11788
0.09706 0.19533 0.12721
0.21031 0.21650 0.15052
0.39868 0.25284 0.18951
0.57246 0.28708 0.22951
0.68148 0.31259 0.23675
0.76524 0.36099 0.29595
0.80159 0.40118 0.33525
0.00000 0.39118 0.19864
0.08078 0.39655 0.20710
0.24259 0.41428 0.22778
0.44530 0.46031 0.29211
0.65116 0.52372 0.34307
0.78272 0.56788 0.37652
0.85144 0.57861 0.36762
0.87863 0.57730 0.39365
0.01413 0.60461 0.32375
0.07961 0.60756 0.33097
0.28850 0.63087 0.36554
0.51256 0.67346 0.42207
0.70158 0.72037 0.45904
0.83254 0.75843 0.46545
0.90108 0.77166 0.44875
0.93495 0.77108 0.43429
0.13218 0.75665 0.45332
0.14520 0.75670 0.45021
0.30279 0.77270 0.47997
0.53500 0.80974 0.51813
0.72194 0.84346 0.55940
0.84168 0.86348 0.55656
0.90858 0.87516 0.52177
0.95033 0.88185 0.50464
0.23384 0.85416 0.56919
0.24248 0.85392 0.56071
0.34220 0.85999 0.57764
0.54445 0.88416 0.61501
0.73027 0.91300 0.62725
0.84621 0.92394 0.64758
0.91103 0.92927 0.63030
0.95345 0.93731 0.59709
0.29265 0.91120 0.65452
0.29910 0.91079 0.64485
0.36879 0.91435 0.64520
0.56629 0.93343 0.68752
0.74021 0.95407 0.72140
0.84725 0.96353 0.71703
0.91297 0.96907 0.67902
0.95147 0.97130 0.67418
0.04502 0.03479 0.14871
0.09657 0.04760 0.16061
0.20801 0.08312 0.18628
0.38271 0.12649 0.22747
0.54249 0.16033 0.26037
0.65422 0.21651 0.29000
0.72101 0.25123 0.29179
0.74630 0.27312 0.30621
0.08368 0.11321 0.17115
0.12518 0.12385 0.18168
0.22247 0.14487 0.20425
0.39468 0.17919 0.24983
0.56068 0.22829 0.29846
0.67981 0.28263 0.32875
0.74922 0.31737 0.32478
0.77366 0.33418 0.33223
0.09258 0.22749 0.22117
0.13978 0.23485 0.22941
0.25664 0.25947 0.25635
0.43174 0.29698 0.29961
0.60995 0.35482 0.35682
0.73579 0.41451 0.39165
0.80748 0.44506 0.38497
0.83541 0.46497 0.38650
0.08925 0.42826 0.31194
0.15366 0.43468 0.32047
0.30440 0.45763 0.35102
0.49446 0.50229 0.40175
0.68453 0.56566 0.45828
0.81152 0.61009 0.48639
0.88170 0.63601 0.47414
0.90662 0.63604 0.44888
0.11989 0.62954 0.42993
0.19024 0.63528 0.43869
0.35750 0.65772 0.46873
0.55339 0.69737 0.51863
0.72472 0.73818 0.55166
0.84723 0.77303 0.55973
0.91383 0.78810 0.54633
0.94813 0.78992 0.50697
0.18768 0.76924 0.53631
0.23681 0.77342 0.54192
0.38702 0.79183 0.56450
0.57630 0.82223 0.59928
0.74122 0.84981 0.63556
0.85150 0.86792 0.63405
0.91672 0.88161 0.61839
0.95729 0.88714 0.59650
0.26276 0.85586 0.62225
0.29730 0.85787 0.62593
0.41366 0.86852 0.64491
0.58759 0.89149 0.67454
0.75183 0.91707 0.69569
0.85655 0.92600 0.71570
0.91722 0.93317 0.70133
0.95809 0.94086 0.68567
0.29654 0.91354 0.69213
0.32383 0.91488 0.69304
0.44130 0.92285 0.71045
0.61010 0.93978 0.74244
0.76202 0.95731 0.77055
0.85829 0.96528 0.76741
0.91994 0.97175 0.74904
0.95823 0.97457 0.75756
0.08443 0.06392 0.32393
0.13249 0.07527 0.33386
0.25238 0.11434 0.35952
0.43615 0.16990 0.39921
0.59091 0.23237 0.43281
0.70049 0.29465 0.45861
0.77574 0.35329 0.46004
0.81735 0.41182 0.47068
0.12671 0.15005 0.34630
0.17786 0.16604 0.35760
0.29138 0.19926 0.38229
0.45395 0.24876 0.42027
0.61257 0.31067 0.46709
0.73203 0.37936 0.50677
0.81260 0.43619 0.51422
0.85323 0.48328 0.51686
0.17197 0.29038 0.38740
0.21910 0.30212 0.39752
0.33669 0.33237 0.42739
0.49636 0.37584 0.47240
0.66073 0.43421 0.52556
0.78207 0.49568 0.56373
0.86267 0.55139 0.57573
0.90349 0.58687 0.57254
0.19431 0.48226 0.45996
0.25225 0.49223 0.47178
0.38595 0.51792 0.50522
0.55730 0.55968 0.55658
0.72241 0.60988 0.60473
0.84070 0.64865 0.63113
0.90955 0.67934 0.62844
0.94765 0.69938 0.61507
0.22530 0.66107 0.54734
0.28708 0.66918 0.55858
0.42774 0.69385 0.59172
0.59888 0.72931 0.63766
0.75482 0.76319 0.67323
0.86506 0.78928 0.68651
0.93131 0.80409 0.68263
0.96926 0.81414 0.66557
0.26144 0.78644 0.62338
0.31728 0.79231 0.63226
0.45174 0.81070 0.65929
0.61767 0.83671 0.69897
0.76615 0.86039 0.73124
0.86644 0.87585 0.73872
0.92836 0.88961 0.73779
0.96778 0.89417 0.71810
0.31813 0.86254 0.68560
0.36588 0.86710 0.69363
0.48765 0.88162 0.71771
0.63905 0.90248 0.75116
0.77561 0.91953 0.77831
0.87085 0.93023 0.79869
0.92772 0.93995 0.79448
0.96566 0.94514 0.78743
0.40690 0.92309 0.74972
0.44217 0.92596 0.75611
0.53449 0.93484 0.77454
0.66855 0.94981 0.80408
0.79086 0.96099 0.82807
0.87522 0.96910 0.83593
0.93095 0.97545 0.84370
0.96622 0.97673 0.84009
0.13008 0.10759 0.49832
0.17603 0.11605 0.50550
0.30004 0.15007 0.52631
0.48034 0.20689 0.56574
0.64821 0.30407 0.61791
0.75571 0.37657 0.64722
0.82917 0.43660 0.65800
0.86121 0.48014 0.65807
0.16903 0.18449 0.50642
0.22180 0.19929 0.51909
0.34628 0.23398 0.54525
0.51658 0.29958 0.58917
0.67684 0.39436 0.64223
0.78414 0.45862 0.67621
0.85562 0.50799 0.69048
0.89420 0.54924 0.69547
0.28313 0.38731 0.55188
0.33142 0.40022 0.56409
0.44341 0.43301 0.59754
0.58466 0.48041 0.64281
0.72266 0.52540 0.68939
0.82725 0.57739 0.72423
0.89462 0.61356 0.73681
0.93783 0.65096 0.73912
0.31990 0.54768 0.60489
0.36867 0.55789 0.61770
0.47929 0.58337 0.65038
0.62546 0.62253 0.69813
0.76372 0.66164 0.74284
0.86164 0.69458 0.76925
0.92809 0.71743 0.77063
0.96510 0.74084 0.76900
0.33625 0.70183 0.66113
0.38969 0.71019 0.67377
0.50401 0.73113 0.70524
0.64948 0.75986 0.74802
0.78394 0.78702 0.78330
0.88006 0.80771 0.80205
0.94190 0.82206 0.80225
0.97925 0.83131 0.79659
0.35921 0.81007 0.71154
0.40883 0.81628 0.72184
0.51871 0.83159 0.74731
0.66087 0.85316 0.78384
0.79120 0.87199 0.81546
0.88144 0.88578 0.83028
0.93891 0.89751 0.83299
0.97671 0.90197 0.82499
0.40922 0.87859 0.75375
0.45066 0.88330 0.76222
0.54825 0.89519 0.78398
0.67971 0.91174 0.81635
0.79898 0.92543 0.84514
0.88467 0.93790 0.86497
0.93797 0.94542 0.86901
0.97274 0.94886 0.86345
0.47172 0.93154 0.79665
0.50851 0.93486 0.80405
0.59386 0.94345 0.82276
0.70987 0.95519 0.85027
0.81485 0.96482 0.87482
0.88893 0.97301 0.88868
0.93984 0.97713 0.89975
0.97206 0.97795 0.89757
0.16428 0.12170 0.63903
0.20408 0.12735 0.65489
0.33006 0.17573 0.67382
0.50689 0.24048 0.71516
0.67453 0.33458 0.76517
0.80177 0.44423 0.81342
0.88220 0.51993 0.84213
0.91071 0.55819 0.81557
0.21275 0.22854 0.64514
0.26288 0.24293 0.65875
0.38778 0.28161 0.68369
0.55898 0.34960 0.73076
0.71004 0.42252 0.78174
0.82759 0.52017 0.82807
0.90212 0.58319 0.85152
0.93003 0.60963 0.82988
0.34386 0.44254 0.66459
0.39949 0.46143 0.68134
0.51401 0.49818 0.71873
0.64562 0.54433 0.76831
0.77141 0.58981 0.81520
0.86292 0.63853 0.85097
0.92559 0.67509 0.85584
0.95652 0.69984 0.85941
0.44098 0.62134 0.71567
0.48097 0.63109 0.72908
0.57182 0.65518 0.76104
0.69269 0.68707 0.80135
0.80347 0.71681 0.84179
0.88551 0.74108 0.87105
0.94249 0.76040 0.87229
0.97341 0.78086 0.88056
0.45548 0.74292 0.75324
0.49596 0.75045 0.76472
0.58437 0.76725 0.79140
0.70265 0.79056 0.82848
0.81501 0.81371 0.86255
0.89323 0.82928 0.88030
0.94804 0.84283 0.89026
0.98144 0.85106 0.89338
0.46314 0.83301 0.78367
0.50516 0.83890 0.79436
0.59430 0.85230 0.81781
0.70946 0.87005 0.84877
0.81820 0.88546 0.87737
0.89524 0.89643 0.89476
0.94738 0.90662 0.90220
0.98062 0.91128 0.90217
0.49750 0.89409 0.81169
0.53478 0.89857 0.82037
0.61708 0.90859 0.84053
0.72410 0.92075 0.86744
0.82442 0.93441 0.89343
0.89640 0.94421 0.91041
0.94632 0.95013 0.91779
0.97823 0.95410 0.91707
0.54745 0.94111 0.84232
0.58303 0.94441 0.85047
0.65616 0.95113 0.86780
0.74767 0.95940 0.88970
0.83558 0.96833 0.91032
0.90074 0.97518 0.92479
0.94679 0.97787 0.93387
0.97664 0.98099 0.93417
0.21458 0.16811 0.65942
0.25804 0.17722 0.66867
0.37712 0.21932 0.69257
0.53907 0.28612 0.73594
0.69342 0.36406 0.79301
0.80984 0.45747 0.85054
0.89946 0.54861 0.89636
0.94090 0.62309 0.91457
0.26561 0.26802 0.67026
0.31415 0.27876 0.67940
0.42987 0.31453 0.70795
0.58373 0.37563 0.75971
0.73211 0.45030 0.82198
0.83551 0.52474 0.87378
0.91806 0.60595 0.91252
0.95750 0.67148 0.92973
0.38266 0.47137 0.72054
0.43304 0.48711 0.73691
0.54360 0.52337 0.77679
0.67004 0.56119 0.82525
0.80056 0.62525 0.88538
0.87931 0.65663 0.91740
0.94290 0.70957 0.93492
0.97426 0.74315 0.94486
0.53454 0.68193 0.80942
0.56699 0.68977 0.82073
0.64642 0.71360 0.84987
0.74499 0.73704 0.88336
0.83616 0.76274 0.91629
0.90542 0.78176 0.93607
0.95483 0.79520 0.94569
0.98188 0.81745 0.95190
0.55747 0.78283 0.83478
0.58792 0.78861 0.84405
0.65733 0.80192 0.86594
0.75473 0.82279 0.89733
0.84389 0.84129 0.92559
0.90864 0.85237 0.93793
0.95718 0.86409 0.94903
0.98317 0.87312 0.95364
0.57009 0.85724 0.85033
0.60017 0.86159 0.85869
0.66698 0.87147 0.87750
0.75727 0.88484 0.90183
0.84526 0.89880 0.92393
0.90957 0.91000 0.94103
0.95592 0.91708 0.95233
0.98263 0.92215 0.95209
0.59511 0.91170 0.86515
0.62330 0.91471 0.87204
0.68625 0.92179 0.88807
0.76988 0.93260 0.91040
0.85054 0.94350 0.93132
0.91097 0.95101 0.94635
0.95496 0.95721 0.95450
0.98095 0.95849 0.95621
0.62045 0.94663 0.88109
0.64617 0.94910 0.88724
0.70405 0.95489 0.90142
0.78118 0.96322 0.92063
0.85588 0.97201 0.93911
0.91292 0.97625 0.95268
0.95261 0.98124 0.95962
0.97837 0.98209 0.96082
0.28127 0.22666 0.67130
0.32162 0.23451 0.68031
0.42804 0.26971 0.70440
0.57281 0.32737 0.74748
0.71474 0.39426 0.80271
0.81174 0.45547 0.84688
0.90490 0.55514 0.89470
0.94219 0.63102 0.92168
0.32830 0.31049 0.68390
0.37120 0.32093 0.69439
0.47462 0.35260 0.72327
0.61294 0.40571 0.77240
0.74885 0.47048 0.82991
0.84293 0.53060 0.87532
0.92360 0.60757 0.91349
0.95735 0.67836 0.93727
0.43000 0.48957 0.73632
0.47600 0.50420 0.75206
0.57366 0.53591 0.78810
0.69599 0.57655 0.83740
0.81195 0.62922 0.88866
0.89381 0.67402 0.92544
0.95104 0.71446 0.94513
0.97857 0.76810 0.96066
0.57231 0.69791 0.82824
0.60559 0.70768 0.84076
0.68716 0.73587 0.87259
0.78150 0.76328 0.90783
0.85702 0.78107 0.93477
0.92046 0.81066 0.95552
0.96344 0.81835 0.96360
0.98516 0.84190 0.97047
0.66061 0.82292 0.88383
0.68290 0.82716 0.89103
0.73195 0.83619 0.90652
0.80844 0.85437 0.93042
0.87306 0.86666 0.94991
0.92354 0.87718 0.96256
0.96404 0.88724 0.97064
0.98370 0.89301 0.97290
0.66880 0.88043 0.89687
0.68967 0.88346 0.90283
0.73802 0.89060 0.91654
0.80584 0.90095 0.93503
0.87250 0.91263 0.95246
0.92264 0.92086 0.96484
0.96077 0.92634 0.97406
0.98137 0.93124 0.97583
0.68465 0.92480 0.90589
0.70516 0.92723 0.91128
0.75121 0.93266 0.92340
0.81335 0.93999 0.93977
0.87435 0.94750 0.95607
0.92221 0.95372 0.96848
0.95900 0.95773 0.97588
0.98124 0.96003 0.97971
0.69439 0.95217 0.91130
0.71346 0.95421 0.91593
0.75748 0.95898 0.92678
0.81762 0.96544 0.94219
0.87320 0.97161 0.95693
0.91853 0.97635 0.96866
0.95435 0.97968 0.97588
0.97882 0.97909 0.97879
