cube lut/bleach bypass_DisplayP3.cube
# DisplayP3
# github.com/abpy/FujifilmCameraProfiles
LUT_3D_SIZE 5
DOMAIN_MIN 0.000000 0.000000 0.000000
DOMAIN_MAX 0.903226 0.903226 0.903226
0.01693 0.01763 0.01587
0.13474 0.03568 0.01864
0.43823 0.11610 0.08848
0.60954 0.20980 0.17115
0.66061 0.25588 0.22218
0.00370 0.15105 0.05302
0.14613 0.15526 0.07319
0.45983 0.20177 0.13604
0.64676 0.30407 0.22586
0.70310 0.35913 0.27918
0.14773 0.49891 0.24139
0.19498 0.48436 0.23114
0.56506 0.58263 0.36661
0.80630 0.64529 0.40231
0.82487 0.58772 0.40287
0.30240 0.76510 0.46746
0.35238 0.77340 0.46890
0.55444 0.81766 0.52957
0.86048 0.87733 0.55411
0.93336 0.87303 0.49932
0.32092 0.86686 0.57504
0.38229 0.87632 0.58716
0.46724 0.88936 0.58288
0.82759 0.95149 0.67326
0.94396 0.96047 0.55442
0.03806 0.03175 0.12186
0.17437 0.06913 0.15568
0.46589 0.14955 0.21621
0.61702 0.20283 0.23412
0.65788 0.23993 0.26638
0.08194 0.17661 0.16885
0.19831 0.20041 0.19762
0.50157 0.27116 0.27984
0.66837 0.32177 0.28975
0.70344 0.34170 0.31194
0.20774 0.51804 0.32917
0.25910 0.52385 0.34520
0.60173 0.61306 0.44422
0.82823 0.68070 0.46856
0.85443 0.63405 0.43873
0.32934 0.77339 0.50941
0.36929 0.77868 0.51174
0.59053 0.82617 0.56872
0.86550 0.88301 0.59653
0.93945 0.88937 0.53377
0.34208 0.87228 0.60589
0.39824 0.88146 0.61855
0.46999 0.89129 0.59965
0.84091 0.95645 0.70407
0.94803 0.96577 0.60974
0.11125 0.09383 0.42780
0.24922 0.13234 0.45148
0.55346 0.25201 0.52445
0.69786 0.32397 0.51832
0.73021 0.36646 0.47557
0.21378 0.29849 0.46474
0.35444 0.34680 0.50352
0.61395 0.43634 0.58686
0.78566 0.51975 0.63213
0.83385 0.54998 0.60545
0.29942 0.59387 0.56003
0.39264 0.61288 0.58726
0.68886 0.69104 0.68754
0.87707 0.74154 0.72334
0.93323 0.76097 0.70323
0.37843 0.79630 0.65644
0.41033 0.80278 0.66691
0.67334 0.85532 0.74566
0.88986 0.89656 0.78921
0.96186 0.90795 0.76679
0.38673 0.88579 0.70422
0.43480 0.89467 0.72405
0.59647 0.92053 0.77525
0.87785 0.96460 0.84576
0.96718 0.97616 0.84300
0.17942 0.14343 0.62645
0.31476 0.18762 0.65946
0.59352 0.29980 0.74230
0.79558 0.46655 0.83728
0.83130 0.51934 0.81182
0.31475 0.39697 0.66158
0.45742 0.44530 0.71076
0.70555 0.54079 0.81536
0.86026 0.62914 0.87359
0.89918 0.66072 0.85660
0.45762 0.68478 0.73526
0.56404 0.71319 0.77613
0.77531 0.77121 0.85725
0.90720 0.80413 0.90132
0.95372 0.82705 0.89968
0.43381 0.82355 0.76069
0.50612 0.83685 0.78291
0.75191 0.88515 0.86529
0.91333 0.91434 0.91269
0.97316 0.92493 0.91883
0.47235 0.90355 0.79744
0.51314 0.91135 0.81002
0.69757 0.94046 0.86659
0.90330 0.97235 0.92747
0.97757 0.98094 0.93928
0.29293 0.24810 0.65105
0.40648 0.27788 0.68062
0.64008 0.37542 0.76521
0.80609 0.49055 0.84010
0.88677 0.61231 0.89614
0.39950 0.44412 0.69689
0.52077 0.48513 0.74377
0.73380 0.56483 0.83755
0.86839 0.63357 0.89675
0.92968 0.72539 0.93325
0.60743 0.76208 0.83477
0.69827 0.79062 0.87249
0.84292 0.83280 0.92913
0.93346 0.85899 0.95820
0.96676 0.87597 0.96656
0.61152 0.87033 0.85862
0.68360 0.88451 0.88434
0.82857 0.91138 0.93349
0.93411 0.93294 0.96594
0.97514 0.94030 0.97460
0.53011 0.90758 0.84102
0.59490 0.91945 0.86179
0.78067 0.95166 0.92125
0.91978 0.97448 0.96570
0.97890 0.97908 0.97873
