cube lut/bleach bypass_DisplayP3.cube
# DisplayP3
# github.com/abpy/FujifilmCameraProfiles
LUT_3D_SIZE 32
0.01693 0.01763 0.01587
0.02302 0.01797 0.01561
0.02898 0.01798 0.01492
0.03689 0.01847 0.01539
0.05414 0.02046 0.01574
0.07752 0.02495 0.01701
0.10440 0.02999 0.01780
0.13474 0.03568 0.01864
0.17326 0.04286 0.02090
0.21775 0.05247 0.02651
0.26522 0.06559 0.03643
0.31367 0.07934 0.04968
0.35907 0.09258 0.06375
0.40049 0.10491 0.07686
0.43823 0.11610 0.08848
0.47156 0.12703 0.09913
0.50166 0.13998 0.10966
0.52885 0.15533 0.12096
0.55242 0.16950 0.13173
0.57285 0.18293 0.14170
0.59127 0.19619 0.15271
0.60954 0.20980 0.17115
0.62674 0.22263 0.19547
0.63986 0.23215 0.21519
0.64802 0.23805 0.22607
0.65281 0.24198 0.22968
0.65539 0.24511 0.22859
0.65767 0.24937 0.22562
0.66061 0.25588 0.22218
0.66447 0.26446 0.21841
0.67101 0.27773 0.21469
0.68659 0.30562 0.21660
0.01544 0.02738 0.01576
0.02663 0.02849 0.01958
0.03346 0.02995 0.01902
0.04117 0.02850 0.01847
0.05752 0.03127 0.01970
0.08060 0.03773 0.02142
0.10743 0.04445 0.02233
0.13708 0.05034 0.02319
0.17496 0.05662 0.02521
0.21920 0.06489 0.03068
0.26645 0.07616 0.04034
0.31496 0.08881 0.05286
0.36051 0.10130 0.06663
0.40205 0.11310 0.07982
0.43999 0.12405 0.09165
0.47343 0.13493 0.10244
0.50363 0.14787 0.11310
0.53091 0.16303 0.12449
0.55460 0.17713 0.13539
0.57514 0.19054 0.14543
0.59364 0.20382 0.15641
0.61209 0.21758 0.17482
0.62950 0.23057 0.19922
0.64274 0.24022 0.21899
0.65092 0.24617 0.22985
0.65567 0.25007 0.23346
0.65815 0.25305 0.23234
0.66034 0.25712 0.22936
0.66319 0.26341 0.22592
0.66692 0.27168 0.22212
0.67328 0.28450 0.21828
0.68861 0.31177 0.21988
0.01330 0.03664 0.01638
0.02582 0.03735 0.02124
0.03522 0.04061 0.02201
0.04640 0.04263 0.02241
0.06103 0.04378 0.02312
0.08337 0.04965 0.02418
0.10989 0.05556 0.02604
0.13867 0.06075 0.02821
0.17585 0.06704 0.03053
0.21998 0.07497 0.03599
0.26712 0.08525 0.04505
0.31584 0.09747 0.05679
0.36170 0.10965 0.07020
0.40349 0.12119 0.08345
0.44176 0.13210 0.09549
0.47541 0.14310 0.10642
0.50576 0.15618 0.11720
0.53319 0.17122 0.12865
0.55704 0.18534 0.13967
0.57773 0.19882 0.14979
0.59634 0.21216 0.16070
0.61499 0.22614 0.17905
0.63267 0.23934 0.20353
0.64607 0.24917 0.22335
0.65426 0.25519 0.23419
0.65896 0.25908 0.23779
0.66134 0.26190 0.23663
0.66341 0.26576 0.23363
0.66616 0.27181 0.23019
0.66975 0.27976 0.22635
0.67590 0.29209 0.22238
0.69094 0.31869 0.22363
0.01071 0.04914 0.01852
0.02225 0.04808 0.02252
0.03393 0.05199 0.02465
0.04927 0.05608 0.02670
0.06451 0.05860 0.02766
0.08569 0.06480 0.02860
0.11233 0.06939 0.02898
0.14123 0.07328 0.03213
0.17749 0.07843 0.03577
0.22109 0.08601 0.04309
0.26760 0.09508 0.05181
0.31650 0.10697 0.06267
0.36281 0.11902 0.07553
0.40499 0.13049 0.08876
0.44385 0.14171 0.10102
0.47792 0.15318 0.11215
0.50856 0.16669 0.12314
0.53628 0.18182 0.13468
0.56043 0.19617 0.14587
0.58136 0.20990 0.15610
0.60016 0.22342 0.16689
0.61913 0.23778 0.18511
0.63720 0.25136 0.20969
0.65086 0.26150 0.22958
0.65909 0.26766 0.24041
0.66374 0.27156 0.24399
0.66596 0.27418 0.24277
0.66788 0.27777 0.23974
0.67047 0.28353 0.23629
0.67386 0.29106 0.23239
0.67970 0.30273 0.22823
0.69432 0.32842 0.22900
0.00791 0.06636 0.02205
0.02198 0.06297 0.02720
0.03199 0.06466 0.02931
0.04999 0.06935 0.03158
0.06611 0.07319 0.03280
0.08745 0.07929 0.03462
0.11331 0.08501 0.03544
0.14363 0.08994 0.03847
0.17987 0.09472 0.04183
0.22333 0.10041 0.04843
0.26900 0.10659 0.05747
0.31772 0.11751 0.06904
0.36411 0.12916 0.08237
0.40652 0.14042 0.09601
0.44612 0.15204 0.10840
0.48075 0.16418 0.11964
0.51180 0.17831 0.13088
0.53998 0.19387 0.14247
0.56463 0.20883 0.15393
0.58598 0.22312 0.16434
0.60507 0.23706 0.17500
0.62449 0.25207 0.19300
0.64317 0.26632 0.21774
0.65724 0.27700 0.23778
0.66556 0.28343 0.24861
0.67016 0.28740 0.25218
0.67219 0.28982 0.25088
0.67390 0.29310 0.24781
0.67629 0.29853 0.24434
0.67942 0.30558 0.24037
0.68486 0.31648 0.23598
0.69887 0.34103 0.23613
0.00411 0.08939 0.02837
0.01950 0.08576 0.03364
0.03147 0.08509 0.03594
0.05206 0.08858 0.03887
0.06912 0.09203 0.04154
0.08899 0.09551 0.04237
0.11394 0.10280 0.04350
0.14519 0.10841 0.04754
0.18130 0.11433 0.05071
0.22489 0.11942 0.05443
0.27142 0.12416 0.06444
0.32008 0.13161 0.07445
0.36644 0.14143 0.08818
0.40880 0.15177 0.10357
0.44900 0.16350 0.11685
0.48414 0.17618 0.12876
0.51552 0.19069 0.14052
0.54423 0.20676 0.15209
0.56951 0.22249 0.16371
0.59140 0.23758 0.17431
0.61088 0.25217 0.18479
0.63089 0.26812 0.20247
0.65043 0.28342 0.22744
0.66513 0.29498 0.24775
0.67364 0.30191 0.25865
0.67823 0.30610 0.26226
0.68006 0.30837 0.26090
0.68153 0.31137 0.25778
0.68370 0.31651 0.25432
0.68653 0.32309 0.25027
0.69147 0.33314 0.24563
0.70468 0.35635 0.24504
0.00332 0.11712 0.03941
0.02019 0.11239 0.04451
0.03525 0.10954 0.04825
0.05355 0.11045 0.05129
0.07338 0.11416 0.05505
0.09165 0.11835 0.05761
0.11592 0.12281 0.05889
0.14645 0.13006 0.05788
0.18250 0.13666 0.06305
0.22631 0.14127 0.06701
0.27456 0.14736 0.07540
0.32353 0.15323 0.08404
0.37033 0.16049 0.09623
0.41249 0.16772 0.11132
0.45317 0.17832 0.12488
0.48874 0.19076 0.13812
0.52021 0.20483 0.15116
0.54941 0.22114 0.16327
0.57535 0.23753 0.17529
0.59780 0.25331 0.18614
0.61762 0.26843 0.19630
0.63821 0.28530 0.21336
0.65883 0.30190 0.23856
0.67436 0.31462 0.25922
0.68318 0.32228 0.27025
0.68783 0.32690 0.27398
0.68950 0.32917 0.27258
0.69072 0.33198 0.26945
0.69268 0.33692 0.26603
0.69519 0.34313 0.26194
0.69956 0.35235 0.25708
0.71180 0.37408 0.25566
0.00370 0.15105 0.05302
0.02074 0.14544 0.05625
0.03737 0.14057 0.05914
0.05289 0.13787 0.06110
0.07372 0.14054 0.06533
0.09376 0.14486 0.06842
0.11697 0.14934 0.07138
0.14613 0.15526 0.07319
0.18386 0.16349 0.07729
0.22847 0.17030 0.08287
0.27786 0.17556 0.09062
0.32757 0.18091 0.09836
0.37533 0.18692 0.10736
0.41823 0.19297 0.12182
0.45983 0.20177 0.13604
0.49548 0.21159 0.14887
0.52666 0.22360 0.16223
0.55629 0.23936 0.17541
0.58278 0.25556 0.18804
0.60567 0.27136 0.19941
0.62572 0.28659 0.20954
0.64676 0.30407 0.22586
0.66859 0.32198 0.25127
0.68505 0.33586 0.27226
0.69419 0.34423 0.28335
0.69889 0.34927 0.28715
0.70038 0.35159 0.28571
0.70135 0.35426 0.28255
0.70310 0.35913 0.27918
0.70531 0.36510 0.27512
0.70911 0.37359 0.27010
0.72017 0.39374 0.26781
0.00640 0.19240 0.06990
0.02291 0.18681 0.07143
0.03987 0.18111 0.07279
0.05657 0.17566 0.07354
0.07291 0.17400 0.07513
0.09476 0.17790 0.07952
0.11882 0.18206 0.08423
0.14844 0.18800 0.08934
0.18404 0.19460 0.09392
0.23158 0.20462 0.10159
0.28224 0.21205 0.10935
0.33137 0.21647 0.11719
0.38238 0.22221 0.12537
0.42632 0.22782 0.13642
0.46948 0.23656 0.15239
0.50659 0.24495 0.16614
0.53698 0.25283 0.17800
0.56625 0.26545 0.19046
0.59284 0.27965 0.20234
0.61600 0.29444 0.21404
0.63603 0.30871 0.22428
0.65710 0.32568 0.23975
0.68010 0.34446 0.26542
0.69761 0.35938 0.28693
0.70706 0.36833 0.29815
0.71173 0.37360 0.30201
0.71290 0.37577 0.30039
0.71347 0.37809 0.29707
0.71494 0.38282 0.29370
0.71681 0.38858 0.28963
0.72001 0.39642 0.28448
0.72975 0.41488 0.28131
0.01503 0.23991 0.09061
0.03086 0.23514 0.09112
0.04704 0.22987 0.09157
0.06331 0.22349 0.09155
0.07632 0.21864 0.09132
0.09529 0.21835 0.09417
0.12166 0.22362 0.09960
0.15215 0.22861 0.10598
0.18788 0.23527 0.11250
0.23139 0.24315 0.12031
0.28585 0.25454 0.13090
0.33822 0.26398 0.14137
0.38970 0.26961 0.15155
0.43667 0.27498 0.16108
0.48230 0.28376 0.17702
0.52255 0.29137 0.19065
0.55356 0.29705 0.20138
0.58288 0.30698 0.21328
0.60865 0.31627 0.22265
0.63064 0.32655 0.23213
0.64975 0.33773 0.24118
0.67033 0.35289 0.25542
0.69409 0.37138 0.28098
0.71232 0.38627 0.30278
0.72192 0.39519 0.31414
0.72656 0.40045 0.31826
0.72740 0.40232 0.31665
0.72746 0.40404 0.31320
0.72851 0.40842 0.30978
0.72992 0.41378 0.30563
0.73241 0.42086 0.30033
0.74059 0.43736 0.29619
0.03240 0.29080 0.11415
0.04730 0.28718 0.11393
0.06075 0.28314 0.11373
0.07535 0.27783 0.11335
0.08827 0.27260 0.11253
0.10074 0.26843 0.11321
0.12423 0.27193 0.11797
0.15597 0.27747 0.12564
0.19304 0.28377 0.13400
0.23641 0.29122 0.14455
0.28714 0.30035 0.15614
0.34483 0.31412 0.17039
0.40215 0.32702 0.18545
0.44971 0.33318 0.19637
0.49742 0.34104 0.21009
0.54345 0.35194 0.22615
0.57850 0.35746 0.23558
0.60734 0.36452 0.24410
0.63270 0.36990 0.25101
0.65362 0.37505 0.25806
0.67042 0.38006 0.26431
0.68841 0.38955 0.27477
0.71128 0.40487 0.29815
0.72968 0.41847 0.31971
0.73925 0.42657 0.33118
0.74356 0.43084 0.33545
0.74383 0.43167 0.33380
0.74330 0.43243 0.33036
0.74397 0.43635 0.32713
0.74489 0.44125 0.32310
0.74664 0.44750 0.31777
0.75302 0.46167 0.31267
0.05818 0.34228 0.14045
0.06885 0.33950 0.13957
0.07907 0.33639 0.13865
0.09096 0.33219 0.13746
0.10256 0.32752 0.13602
0.11150 0.32366 0.13506
0.12703 0.32151 0.13833
0.15974 0.32696 0.14728
0.19858 0.33448 0.15754
0.24338 0.34292 0.17017
0.29443 0.35285 0.18603
0.34838 0.36292 0.20040
0.41269 0.38389 0.22235
0.46564 0.39389 0.23525
0.51518 0.40467 0.24913
0.56600 0.41970 0.26801
0.60748 0.42918 0.27960
0.63859 0.43482 0.28557
0.66434 0.43826 0.28879
0.68384 0.43857 0.29055
0.69969 0.43924 0.29426
0.71499 0.44235 0.30095
0.73472 0.45084 0.32007
0.75117 0.45918 0.33916
0.75930 0.46384 0.34934
0.76289 0.46608 0.35343
0.76249 0.46531 0.35175
0.76112 0.46430 0.34822
0.76115 0.46698 0.34507
0.76152 0.47103 0.34123
0.76266 0.47650 0.33620
0.76726 0.48823 0.33051
0.08695 0.39391 0.17044
0.09478 0.39162 0.16911
0.10264 0.38900 0.16765
0.11222 0.38531 0.16568
0.12221 0.38085 0.16336
0.13051 0.37663 0.16137
0.13944 0.37418 0.16238
0.16395 0.37609 0.17142
0.20461 0.38442 0.18458
0.24907 0.39266 0.19692
0.30127 0.40334 0.21435
0.35820 0.41610 0.23431
0.41656 0.43200 0.25351
0.48051 0.45389 0.27536
0.53473 0.46804 0.28975
0.58896 0.48669 0.30804
0.63428 0.49962 0.32325
0.66925 0.50625 0.33024
0.69887 0.51338 0.33536
0.71907 0.51375 0.33323
0.73267 0.50898 0.32948
0.74638 0.50752 0.33132
0.76395 0.51049 0.34653
0.77884 0.51313 0.36344
0.78477 0.51224 0.37153
0.78593 0.50918 0.37369
0.78343 0.50415 0.37053
0.78075 0.50031 0.36640
0.78011 0.50137 0.36335
0.77985 0.50402 0.35971
0.78027 0.50821 0.35491
0.78314 0.51718 0.34884
0.11726 0.44633 0.20443
0.12346 0.44457 0.20302
0.12988 0.44250 0.20142
0.13796 0.43951 0.19918
0.14680 0.43565 0.19640
0.15486 0.43155 0.19362
0.16117 0.42862 0.19259
0.17519 0.42930 0.19928
0.21049 0.43566 0.21420
0.25816 0.44625 0.22993
0.31065 0.45772 0.24635
0.36972 0.47161 0.26722
0.42983 0.48735 0.28937
0.49114 0.50785 0.31116
0.55334 0.52929 0.33064
0.60990 0.54910 0.34764
0.65659 0.56440 0.36226
0.69522 0.57469 0.37202
0.72838 0.58262 0.37933
0.75090 0.58619 0.37926
0.76591 0.58283 0.37162
0.77776 0.57810 0.36582
0.79240 0.57500 0.37319
0.80743 0.57421 0.38804
0.81440 0.57139 0.39689
0.81424 0.56405 0.39794
0.80899 0.55312 0.39260
0.80342 0.54342 0.38636
0.80067 0.54011 0.38191
0.79930 0.54020 0.37790
0.79917 0.54299 0.37339
0.80057 0.54919 0.36721
0.14773 0.49891 0.24139
0.15302 0.49778 0.24021
0.15859 0.49642 0.23884
0.16575 0.49437 0.23688
0.17385 0.49155 0.23430
0.18175 0.48816 0.23136
0.18812 0.48510 0.22917
0.19498 0.48436 0.23114
0.21901 0.48897 0.24495
0.26570 0.49949 0.26381
0.32155 0.51294 0.28146
0.38119 0.52766 0.30147
0.44340 0.54341 0.32343
0.50488 0.56243 0.34651
0.56506 0.58263 0.36661
0.62409 0.60431 0.38365
0.67667 0.62304 0.39784
0.71529 0.63327 0.40607
0.74816 0.64248 0.41212
0.77463 0.64799 0.41444
0.79278 0.64776 0.41028
0.80630 0.64529 0.40231
0.81880 0.64045 0.40072
0.83283 0.63641 0.40998
0.84169 0.63200 0.41926
0.84336 0.62482 0.42175
0.83796 0.61198 0.41652
0.83038 0.59722 0.40915
0.82487 0.58772 0.40287
0.82101 0.58234 0.39718
0.81905 0.58116 0.39153
0.81875 0.58374 0.38479
0.17718 0.54992 0.27935
0.18198 0.54944 0.27855
0.18712 0.54884 0.27761
0.19387 0.54787 0.27622
0.20175 0.54642 0.27434
0.20988 0.54444 0.27202
0.21709 0.54222 0.26983
0.22272 0.54089 0.26949
0.23172 0.54278 0.27608
0.27114 0.55110 0.29586
0.32931 0.56521 0.31663
0.39089 0.58022 0.33543
0.45405 0.59674 0.35690
0.51637 0.61367 0.37785
0.57639 0.63298 0.39923
0.63246 0.65141 0.41506
0.68794 0.67233 0.42855
0.73192 0.68566 0.43555
0.76342 0.69254 0.43832
0.79083 0.69989 0.44128
0.81234 0.70253 0.44036
0.82840 0.70200 0.43420
0.84149 0.69973 0.42874
0.85476 0.69576 0.43097
0.86498 0.69102 0.43788
0.86887 0.68388 0.44103
0.86498 0.67181 0.43706
0.85810 0.65720 0.43096
0.85175 0.64427 0.42485
0.84582 0.63341 0.41811
0.84149 0.62655 0.41113
0.83857 0.62326 0.40293
0.20447 0.59733 0.31640
0.20898 0.59739 0.31596
0.21388 0.59741 0.31543
0.22040 0.59737 0.31464
0.22818 0.59718 0.31349
0.23648 0.59671 0.31195
0.24420 0.59591 0.31014
0.25020 0.59515 0.30898
0.25536 0.59558 0.31077
0.27569 0.59949 0.32407
0.33008 0.61052 0.34702
0.39564 0.62671 0.36806
0.45954 0.64291 0.38662
0.52321 0.65985 0.40714
0.58396 0.67760 0.42608
0.64038 0.69531 0.44300
0.69150 0.71121 0.45335
0.73962 0.72755 0.46111
0.77572 0.73669 0.46296
0.80360 0.74327 0.46425
0.82514 0.74719 0.46321
0.84335 0.74903 0.45974
0.85754 0.74782 0.45335
0.87247 0.74733 0.45203
0.88325 0.74297 0.45414
0.88883 0.73686 0.45582
0.88783 0.72751 0.45358
0.88225 0.71472 0.44865
0.87647 0.70174 0.44354
0.87076 0.68965 0.43770
0.86545 0.67900 0.43081
0.86048 0.66998 0.42210
0.22910 0.63985 0.35132
0.23342 0.64026 0.35116
0.23815 0.64069 0.35095
0.24454 0.64125 0.35061
0.25229 0.64186 0.35005
0.26080 0.64237 0.34915
0.26904 0.64257 0.34780
0.27567 0.64229 0.34621
0.28022 0.64204 0.34577
0.28878 0.64360 0.35133
0.32810 0.65140 0.37225
0.39354 0.66670 0.39646
0.46055 0.68331 0.41476
0.52439 0.69988 0.43298
0.58679 0.71651 0.45040
0.64432 0.73385 0.46610
0.69533 0.74796 0.47797
0.74015 0.75966 0.48300
0.78066 0.77213 0.48627
0.81223 0.77954 0.48568
0.83464 0.78445 0.48280
0.85263 0.78562 0.47868
0.86688 0.78665 0.47340
0.88172 0.78524 0.46917
0.89580 0.78480 0.46863
0.90269 0.77934 0.46793
0.90421 0.77272 0.46600
0.90066 0.76380 0.46269
0.89651 0.75342 0.45867
0.89182 0.74250 0.45377
0.88709 0.73168 0.44785
0.88203 0.72062 0.44024
0.25088 0.67729 0.38368
0.25506 0.67789 0.38372
0.25966 0.67855 0.38374
0.26593 0.67943 0.38371
0.27366 0.68050 0.38355
0.28235 0.68160 0.38315
0.29118 0.68250 0.38227
0.29884 0.68288 0.38076
0.30408 0.68269 0.37919
0.30851 0.68289 0.38005
0.32795 0.68674 0.39207
0.38534 0.70000 0.41839
0.45595 0.71840 0.44076
0.52130 0.73373 0.45569
0.58297 0.74878 0.47157
0.64324 0.76489 0.48685
0.69648 0.78043 0.49996
0.74147 0.79079 0.50674
0.78109 0.80014 0.50773
0.81357 0.80812 0.50608
0.84004 0.81445 0.50187
0.85878 0.81614 0.49638
0.87320 0.81641 0.48950
0.88735 0.81806 0.48530
0.90111 0.81564 0.48045
0.91156 0.81264 0.47814
0.91534 0.80748 0.47623
0.91293 0.80108 0.47365
0.91023 0.79323 0.47079
0.90742 0.78565 0.46706
0.90448 0.77836 0.46253
0.89993 0.76764 0.45605
0.27010 0.71013 0.41360
0.27414 0.71081 0.41377
0.27861 0.71156 0.41393
0.28473 0.71258 0.41412
0.29236 0.71384 0.41425
0.30107 0.71521 0.41420
0.31018 0.71647 0.41375
0.31862 0.71729 0.41261
0.32513 0.71743 0.41084
0.32959 0.71729 0.40982
0.33654 0.71808 0.41310
0.37515 0.72669 0.43346
0.44299 0.74406 0.45989
0.51320 0.76138 0.47782
0.57651 0.77529 0.49028
0.63585 0.78949 0.50446
0.69208 0.80423 0.51712
0.73913 0.81573 0.52599
0.77912 0.82406 0.52858
0.81235 0.83140 0.52561
0.84042 0.83753 0.52178
0.86203 0.84123 0.51518
0.87790 0.84245 0.50633
0.89122 0.84297 0.49914
0.90406 0.84247 0.49272
0.91677 0.84085 0.48832
0.92354 0.83616 0.48543
0.92169 0.83055 0.48315
0.91979 0.82426 0.48056
0.91755 0.81725 0.47779
0.91599 0.81248 0.47437
0.91377 0.80743 0.47038
0.28721 0.73914 0.44138
0.29116 0.73984 0.44164
0.29553 0.74063 0.44191
0.30157 0.74170 0.44224
0.30914 0.74304 0.44257
0.31792 0.74453 0.44279
0.32734 0.74601 0.44269
0.33653 0.74718 0.44202
0.34443 0.74776 0.44069
0.35054 0.74789 0.43961
0.35492 0.74792 0.43978
0.36866 0.75018 0.44671
0.42822 0.76470 0.47392
0.50000 0.78323 0.49691
0.56711 0.79852 0.51057
0.62770 0.81134 0.52112
0.68365 0.82420 0.53294
0.73422 0.83595 0.54167
0.77555 0.84371 0.54654
0.80979 0.85040 0.54598
0.83920 0.85686 0.54159
0.86207 0.86081 0.53479
0.88050 0.86403 0.52505
0.89397 0.86436 0.51494
0.90662 0.86438 0.50699
0.91956 0.86429 0.49923
0.92949 0.86237 0.49455
0.92876 0.85568 0.49261
0.92702 0.84983 0.48925
0.92535 0.84369 0.48765
0.92373 0.83837 0.48410
0.92263 0.83525 0.48191
0.30240 0.76510 0.46746
0.30629 0.76581 0.46779
0.31061 0.76659 0.46815
0.31659 0.76767 0.46859
0.32416 0.76901 0.46906
0.33301 0.77052 0.46942
0.34266 0.77206 0.46946
0.35238 0.77340 0.46890
0.36115 0.77427 0.46747
0.36808 0.77463 0.46545
0.37379 0.77513 0.46487
0.37743 0.77504 0.46520
0.41243 0.78268 0.48232
0.48294 0.80016 0.51063
0.55444 0.81766 0.52957
0.61735 0.83053 0.53940
0.67432 0.84199 0.54834
0.72603 0.85253 0.55730
0.77062 0.86124 0.56210
0.80614 0.86685 0.56419
0.83640 0.87287 0.56195
0.86048 0.87733 0.55411
0.87979 0.87974 0.54492
0.89511 0.88131 0.53358
0.90797 0.88168 0.52283
0.92079 0.88192 0.51304
0.93224 0.88165 0.50521
0.93471 0.87907 0.50243
0.93336 0.87303 0.49932
0.93177 0.86722 0.49603
0.93022 0.86155 0.49338
0.92926 0.85837 0.49148
0.31571 0.78871 0.49221
0.31958 0.78943 0.49266
0.32391 0.79024 0.49314
0.32991 0.79135 0.49376
0.33754 0.79274 0.49446
0.34655 0.79431 0.49509
0.35649 0.79592 0.49543
0.36673 0.79734 0.49515
0.37633 0.79826 0.49383
0.38424 0.79847 0.49131
0.39014 0.79829 0.48869
0.39444 0.79824 0.48768
0.40571 0.79995 0.49228
0.46445 0.81347 0.51882
0.53680 0.83027 0.54334
0.60409 0.84458 0.55692
0.66272 0.85579 0.56367
0.71498 0.86529 0.57085
0.76232 0.87467 0.57727
0.80130 0.88184 0.57932
0.83230 0.88615 0.58015
0.85771 0.89104 0.57490
0.87804 0.89397 0.56436
0.89456 0.89519 0.55367
0.90792 0.89580 0.54142
0.92085 0.89625 0.52861
0.93280 0.89626 0.51842
0.93796 0.89475 0.51381
0.93841 0.89286 0.51110
0.93721 0.88789 0.50810
0.93568 0.88209 0.50401
0.93476 0.87840 0.50193
0.32676 0.81006 0.51529
0.33069 0.81085 0.51590
0.33508 0.81174 0.51658
0.34120 0.81298 0.51749
0.34903 0.81455 0.51859
0.35835 0.81639 0.51975
0.36878 0.81837 0.52076
0.37975 0.82029 0.52130
0.39044 0.82184 0.52089
0.39979 0.82272 0.51905
0.40698 0.82290 0.51598
0.41243 0.82303 0.51366
0.41616 0.82315 0.51289
0.44825 0.82914 0.52680
0.52071 0.84399 0.55498
0.58876 0.85722 0.57253
0.64976 0.86795 0.58037
0.70377 0.87686 0.58439
0.75120 0.88475 0.58998
0.79413 0.89305 0.59473
0.82760 0.89810 0.59497
0.85392 0.90199 0.59361
0.87594 0.90608 0.58645
0.89329 0.90784 0.57314
0.90714 0.90815 0.56064
0.92007 0.90937 0.54703
0.93277 0.91041 0.52969
0.93993 0.90895 0.52450
0.94196 0.90740 0.52205
0.94164 0.90546 0.51923
0.94051 0.90095 0.51686
0.93933 0.89634 0.51367
0.33464 0.82854 0.53553
0.33866 0.82941 0.53633
0.34316 0.83039 0.53722
0.34947 0.83177 0.53845
0.35758 0.83358 0.54001
0.36733 0.83576 0.54179
0.37839 0.83824 0.54365
0.39028 0.84087 0.54528
0.40226 0.84341 0.54626
0.41337 0.84556 0.54601
0.42249 0.84707 0.54409
0.42908 0.84805 0.54130
0.43367 0.84888 0.53953
0.44574 0.85092 0.54316
0.50688 0.86172 0.56740
0.58171 0.87478 0.59183
0.64020 0.88254 0.59949
0.69362 0.88967 0.60191
0.74207 0.89631 0.60387
0.78480 0.90303 0.60849
0.82206 0.90939 0.61073
0.84990 0.91269 0.60801
0.87275 0.91577 0.60570
0.89166 0.91869 0.59553
0.90622 0.91977 0.57781
0.91904 0.92050 0.56559
0.93169 0.92399 0.54517
0.94079 0.92447 0.52835
0.94467 0.92247 0.52768
0.94523 0.92046 0.52823
0.94450 0.91859 0.52386
0.94376 0.91528 0.52289
0.33824 0.84335 0.55170
0.34235 0.84425 0.55262
0.34697 0.84527 0.55367
0.35346 0.84674 0.55514
0.36185 0.84868 0.55704
0.37202 0.85108 0.55932
0.38368 0.85391 0.56186
0.39644 0.85707 0.56444
0.40967 0.86038 0.56666
0.42247 0.86355 0.56792
0.43365 0.86616 0.56742
0.44210 0.86785 0.56486
0.44779 0.86878 0.56178
0.45177 0.86963 0.56035
0.48566 0.87578 0.57347
0.56908 0.89064 0.60452
0.63517 0.89976 0.62059
0.68642 0.90416 0.62195
0.73451 0.90974 0.62233
0.77739 0.91466 0.62389
0.81495 0.91991 0.62654
0.84612 0.92416 0.62508
0.86933 0.92591 0.62053
0.88897 0.92780 0.61456
0.90521 0.93007 0.59983
0.91805 0.93076 0.58108
0.93050 0.93410 0.56442
0.94100 0.93815 0.54323
0.94659 0.93875 0.52533
0.94832 0.93643 0.52975
0.94795 0.93466 0.53253
0.94741 0.93349 0.52674
0.33688 0.85416 0.56318
0.34104 0.85501 0.56415
0.34574 0.85600 0.56524
0.35235 0.85741 0.56679
0.36093 0.85929 0.56881
0.37137 0.86165 0.57129
0.38345 0.86449 0.57413
0.39683 0.86776 0.57719
0.41099 0.87138 0.58016
0.42521 0.87516 0.58257
0.43846 0.87884 0.58371
0.44953 0.88202 0.58288
0.45781 0.88449 0.58059
0.46331 0.88627 0.57873
0.47207 0.88813 0.58021
0.53788 0.89964 0.60505
0.62359 0.91407 0.63371
0.67849 0.91812 0.63999
0.72616 0.92182 0.64019
0.77038 0.92684 0.64106
0.80784 0.93026 0.64203
0.84093 0.93468 0.64297
0.86678 0.93738 0.63777
0.88637 0.93803 0.62734
0.90352 0.93952 0.61721
0.91730 0.94099 0.59879
0.92901 0.94281 0.57562
0.94002 0.94694 0.55970
0.94787 0.95063 0.54304
0.95075 0.95140 0.52721
0.95089 0.95085 0.53214
0.95058 0.94866 0.53662
0.33078 0.86157 0.57051
0.33498 0.86231 0.57143
0.33971 0.86316 0.57247
0.34638 0.86439 0.57394
0.35505 0.86602 0.57588
0.36561 0.86808 0.57825
0.37788 0.87055 0.58098
0.39153 0.87341 0.58394
0.40611 0.87659 0.58689
0.42099 0.87993 0.58940
0.43525 0.88321 0.59083
0.44768 0.88603 0.59034
0.45718 0.88801 0.58751
0.46413 0.88915 0.58396
0.46673 0.88973 0.58094
0.49481 0.89505 0.59068
0.58424 0.91145 0.62290
0.66074 0.92378 0.64519
0.71282 0.92920 0.65022
0.76039 0.93562 0.65513
0.80144 0.94074 0.65773
0.83483 0.94414 0.65895
0.86306 0.94746 0.65645
0.88478 0.94936 0.64224
0.90176 0.94970 0.62676
0.91613 0.95043 0.61278
0.92759 0.95152 0.58806
0.93735 0.95273 0.56422
0.94680 0.95679 0.55571
0.95209 0.95980 0.54428
0.95219 0.95987 0.52846
0.95204 0.95822 0.53466
0.32092 0.86686 0.57504
0.32515 0.86746 0.57587
0.32992 0.86814 0.57681
0.33664 0.86912 0.57815
