cube lut/bleach bypass_sRGB.cube
# sRGB
# github.com/abpy/FujifilmCameraProfiles
LUT_3D_SIZE 5
DOMAIN_MIN 0.000000 0.000000 0.000000
DOMAIN_MAX 0.903226 0.903226 0.903226
0.01677 0.01766 0.01572
0.12745 0.03554 0.02008
0.43188 0.08949 0.07205
0.63954 0.18076 0.14972
0.73699 0.27788 0.26029
0.01424 0.13841 0.05753
0.14898 0.15917 0.07311
0.46129 0.19307 0.11931
0.67484 0.26864 0.20678
0.78040 0.36985 0.30824
0.00000 0.48519 0.19792
0.17357 0.50546 0.24371
0.57236 0.59297 0.35419
0.82970 0.66936 0.39618
0.90865 0.67089 0.40788
0.12384 0.77827 0.44057
0.21735 0.78574 0.45910
0.62551 0.84603 0.52826
0.86084 0.88358 0.55033
0.94908 0.89535 0.49071
0.27489 0.90804 0.62243
0.30846 0.90845 0.60688
0.64692 0.94260 0.68567
0.86516 0.96449 0.69656
0.94886 0.96983 0.63729
0.03674 0.03045 0.11777
0.16380 0.06348 0.14811
0.45860 0.12959 0.21383
0.65821 0.19727 0.24371
0.74000 0.26196 0.29312
0.07708 0.17767 0.17136
0.19783 0.20049 0.19739
0.50093 0.26474 0.27661
0.71968 0.34668 0.32433
0.80539 0.40300 0.35131
0.08563 0.52433 0.34129
0.26718 0.54419 0.36747
0.61094 0.62310 0.45666
0.85143 0.69974 0.49647
0.92577 0.70827 0.45027
0.18718 0.79155 0.53945
0.32180 0.80350 0.55487
0.65896 0.85484 0.61049
0.86861 0.88648 0.62752
0.95480 0.90056 0.57679
0.28848 0.91266 0.68131
0.37626 0.91722 0.68495
0.67821 0.94735 0.74253
0.87515 0.96671 0.75263
0.95613 0.97363 0.73345
0.10918 0.08681 0.41785
0.23562 0.11962 0.44061
0.54750 0.23323 0.51341
0.74822 0.35222 0.56279
0.83959 0.44721 0.56212
0.21585 0.29981 0.46442
0.34396 0.33536 0.49549
0.60539 0.41898 0.57465
0.81123 0.51618 0.63883
0.91444 0.59957 0.65609
0.26458 0.60292 0.57123
0.41265 0.62907 0.60718
0.68834 0.69112 0.68728
0.88540 0.74448 0.72952
0.97067 0.77479 0.71753
0.32372 0.81929 0.68276
0.45554 0.83534 0.70875
0.71515 0.87342 0.77159
0.89157 0.89885 0.79953
0.97116 0.91245 0.78778
0.44435 0.92809 0.77487
0.54082 0.93722 0.79438
0.75014 0.95853 0.84192
0.89862 0.97312 0.86953
0.96937 0.97721 0.87219
0.17598 0.13348 0.64958
0.30147 0.17157 0.68125
0.60227 0.29805 0.75885
0.83057 0.47612 0.84518
0.91982 0.57707 0.84720
0.31345 0.39590 0.67948
0.45447 0.44030 0.72014
0.70751 0.53884 0.81463
0.88012 0.63291 0.87772
0.95622 0.69028 0.88001
0.47602 0.69807 0.75903
0.57339 0.71952 0.79060
0.77058 0.76552 0.85436
0.91026 0.79957 0.89749
0.98010 0.82293 0.90778
0.49544 0.85540 0.80575
0.59330 0.86904 0.83114
0.77765 0.89540 0.87956
0.91306 0.91438 0.91262
0.98118 0.92507 0.91836
0.56692 0.94241 0.85262
0.65110 0.95057 0.87289
0.80059 0.96499 0.90869
0.91645 0.97615 0.93523
0.97744 0.98166 0.94160
0.28127 0.22666 0.67130
0.39525 0.25734 0.69666
0.64594 0.36066 0.77618
0.83415 0.47594 0.85776
0.94219 0.63102 0.92168
0.39945 0.43824 0.71779
0.51559 0.47318 0.75654
0.73695 0.55373 0.84578
0.89650 0.64231 0.91814
0.97435 0.74520 0.95571
0.63642 0.77710 0.86673
0.70253 0.79334 0.88962
0.83850 0.82730 0.93580
0.93515 0.85364 0.96321
0.98491 0.86908 0.97194
0.67251 0.89289 0.89952
0.72630 0.90033 0.91439
0.84083 0.91678 0.94488
0.93309 0.93192 0.96810
0.98114 0.93909 0.97690
0.69439 0.95217 0.91130
0.74425 0.95754 0.92348
0.84666 0.96858 0.94988
0.92819 0.97718 0.97096
0.97882 0.97909 0.97879
