cube lut/bleach bypass_DisplayP3.cube
# DisplayP3
# github.com/abpy/FujifilmCameraProfiles
LUT_3D_SIZE 8
DOMAIN_MIN 0.000000 0.000000 0.000000
DOMAIN_MAX 0.903226 0.903226 0.903226
0.01693 0.01763 0.01587
0.05414 0.02046 0.01574
0.17326 0.04286 0.02090
0.35907 0.09258 0.06375
0.50166 0.13998 0.10966
0.59127 0.19619 0.15271
0.64802 0.23805 0.22607
0.66061 0.25588 0.22218
0.00791 0.06636 0.02205
0.06611 0.07319 0.03280
0.17987 0.09472 0.04183
0.36411 0.12916 0.08237
0.51180 0.17831 0.13088
0.60507 0.23706 0.17500
0.66556 0.28343 0.24861
0.67629 0.29853 0.24434
0.00640 0.19240 0.06990
0.07291 0.17400 0.07513
0.18404 0.19460 0.09392
0.38238 0.22221 0.12537
0.53698 0.25283 0.17800
0.63603 0.30871 0.22428
0.70706 0.36833 0.29815
0.71494 0.38282 0.29370
0.08695 0.39391 0.17044
0.12221 0.38085 0.16336
0.20461 0.38442 0.18458
0.41656 0.43200 0.25351
0.63428 0.49962 0.32325
0.73267 0.50898 0.32948
0.78477 0.51224 0.37153
0.78011 0.50137 0.36335
0.20447 0.59733 0.31640
0.22818 0.59718 0.31349
0.25536 0.59558 0.31077
0.45954 0.64291 0.38662
0.69150 0.71121 0.45335
0.82514 0.74719 0.46321
0.88325 0.74297 0.45414
0.87647 0.70174 0.44354
0.28721 0.73914 0.44138
0.30914 0.74304 0.44257
0.34443 0.74776 0.44069
0.42822 0.76470 0.47392
0.68365 0.82420 0.53294
0.83920 0.85686 0.54159
0.90662 0.86438 0.50699
0.92702 0.84983 0.48925
0.33464 0.82854 0.53553
0.35758 0.83358 0.54001
0.40226 0.84341 0.54626
0.43367 0.84888 0.53953
0.64020 0.88254 0.59949
0.82206 0.90939 0.61073
0.90622 0.91977 0.57781
0.94467 0.92247 0.52768
0.32092 0.86686 0.57504
0.34537 0.87043 0.57990
0.39719 0.87884 0.58982
0.45232 0.88789 0.59066
0.52910 0.90060 0.60141
0.79057 0.94672 0.66933
0.89995 0.95891 0.64075
0.94396 0.96047 0.55442
0.02176 0.01954 0.05171
0.07561 0.03367 0.07089
0.18459 0.05250 0.08685
0.37023 0.10450 0.12503
0.50857 0.14195 0.15214
0.59308 0.19007 0.17887
0.64804 0.22894 0.24417
0.65953 0.24940 0.24060
0.03259 0.07533 0.06903
0.08609 0.08643 0.08551
0.19467 0.10721 0.10808
0.37672 0.13912 0.13980
0.51789 0.17457 0.16729
0.60513 0.22469 0.19465
0.66513 0.27228 0.26381
0.67529 0.29126 0.26046
0.04638 0.19256 0.11256
0.09956 0.19037 0.12235
0.20667 0.21214 0.14620
0.39761 0.24286 0.18033
0.54991 0.26852 0.20969
0.63964 0.30307 0.24036
0.70924 0.35973 0.31136
0.71531 0.37588 0.30648
0.11589 0.39592 0.19743
0.14254 0.38644 0.19101
0.22964 0.39857 0.21267
0.43307 0.44650 0.28153
0.64250 0.51420 0.34289
0.74395 0.52877 0.34512
0.79773 0.52586 0.38783
0.78811 0.50661 0.37778
0.22138 0.60178 0.33535
0.24123 0.60126 0.33029
0.25866 0.59666 0.31471
0.47348 0.64765 0.39338
0.69664 0.71445 0.46088
0.82652 0.75052 0.46842
0.88625 0.75167 0.45919
0.88499 0.71755 0.45331
0.29869 0.74262 0.45556
0.31868 0.74601 0.45549
0.34790 0.74811 0.44749
0.44203 0.76821 0.48325
0.69122 0.82692 0.53866
0.84143 0.86025 0.55069
0.90749 0.86813 0.51358
0.92886 0.85625 0.49254
0.34420 0.83161 0.54835
0.36601 0.83640 0.55236
0.40743 0.84509 0.55664
0.43188 0.84790 0.53885
0.64959 0.88469 0.60832
0.82704 0.91310 0.61906
0.90809 0.92305 0.58956
0.94609 0.92697 0.53708
0.32915 0.86889 0.58587
0.35286 0.87243 0.59061
0.40291 0.88067 0.60013
0.45359 0.88883 0.59775
0.54415 0.90327 0.61000
0.79659 0.94856 0.67888
0.90236 0.96145 0.64507
0.94489 0.96249 0.56453
0.04706 0.03878 0.15537
0.09937 0.05143 0.16699
0.22533 0.09318 0.19790
0.39932 0.14067 0.23398
0.53496 0.17964 0.26017
0.60771 0.20523 0.25256
0.65111 0.21850 0.27881
0.65776 0.23733 0.27561
0.08378 0.11315 0.17480
0.12889 0.12736 0.18708
0.23256 0.15201 0.21220
0.40618 0.19258 0.25938
0.55357 0.23863 0.29702
0.63004 0.25815 0.28541
0.66886 0.26049 0.29451
0.67355 0.27609 0.29060
0.10845 0.22686 0.21904
0.14379 0.23322 0.22803
0.25715 0.25939 0.25659
0.43625 0.30049 0.30396
0.60095 0.35782 0.35644
0.69190 0.38837 0.36029
0.73573 0.39408 0.35477
0.72649 0.38091 0.34037
0.17869 0.42492 0.30934
0.19352 0.42636 0.31163
0.29292 0.44512 0.33684
0.48849 0.49534 0.39515
0.68080 0.56272 0.45378
0.78637 0.59275 0.46154
0.82964 0.58535 0.43266
0.81579 0.54711 0.41496
0.26255 0.61895 0.41380
0.27942 0.62127 0.41947
0.32148 0.62854 0.43330
0.52535 0.67597 0.49031
0.71749 0.72960 0.53559
0.83956 0.76614 0.53740
0.89582 0.77094 0.50553
0.89989 0.74784 0.47963
0.32371 0.75115 0.50397
0.34047 0.75402 0.50675
0.36822 0.75802 0.51949
0.49260 0.78397 0.54724
0.71339 0.83575 0.59602
0.84710 0.86348 0.60466
0.91198 0.87612 0.57060
0.93561 0.87000 0.53142
0.36451 0.83823 0.58574
0.38380 0.84244 0.59074
0.42091 0.84953 0.60250
0.45288 0.85114 0.59106
0.67434 0.88990 0.64990
0.83975 0.92046 0.66716
0.91298 0.92779 0.64633
0.95082 0.93381 0.59889
0.34748 0.87380 0.61569
0.36938 0.87729 0.62095
0.41547 0.88535 0.63318
0.46658 0.89435 0.64484
0.58915 0.91259 0.66177
0.81206 0.95291 0.71738
0.90869 0.96551 0.68362
0.94989 0.96722 0.63681
0.08884 0.07204 0.33578
0.13674 0.08345 0.34396
0.26819 0.12700 0.37261
0.45194 0.19068 0.41461
0.58201 0.24047 0.43217
0.65691 0.27995 0.42286
0.69456 0.29664 0.39919
0.68631 0.28957 0.35860
0.12804 0.15234 0.35221
0.18092 0.17065 0.36659
0.30161 0.20526 0.39410
0.46867 0.26832 0.43677
0.60635 0.31750 0.46926
0.68826 0.34847 0.46668
0.72977 0.36763 0.44048
0.72115 0.35974 0.40147
0.18199 0.29312 0.38938
0.22410 0.30481 0.39981
0.34371 0.33988 0.43389
0.50646 0.39018 0.48417
0.66124 0.45102 0.53499
0.75880 0.50056 0.55831
0.81732 0.53123 0.54372
0.81997 0.53364 0.52328
0.23893 0.47851 0.45564
0.25943 0.48207 0.46078
0.37793 0.51094 0.49648
0.55775 0.55961 0.55680
0.72316 0.61419 0.60755
0.82703 0.64775 0.62533
0.88310 0.66729 0.60118
0.88888 0.66601 0.58012
0.30827 0.65054 0.53748
0.31939 0.65276 0.54045
0.38981 0.66649 0.56021
0.58077 0.71542 0.62242
0.75284 0.75996 0.66822
0.86210 0.78813 0.67997
0.92049 0.79807 0.65673
0.93502 0.79644 0.63550
0.35500 0.76716 0.60010
0.36835 0.77019 0.60568
0.39365 0.77433 0.61405
0.56007 0.80954 0.66178
0.74745 0.85016 0.71306
0.86398 0.87290 0.72420
0.92546 0.88716 0.71248
0.95288 0.88556 0.68152
0.38995 0.84636 0.65532
0.40657 0.84953 0.66230
0.43999 0.85343 0.67479
0.51574 0.86292 0.69225
0.72199 0.90301 0.74530
0.85799 0.92493 0.77065
0.92425 0.93562 0.76227
0.95966 0.94061 0.73570
0.37224 0.88144 0.67161
0.39175 0.88489 0.67902
0.43375 0.89291 0.69861
0.48618 0.90234 0.72136
0.66219 0.92917 0.76409
0.83853 0.95791 0.80196
0.92124 0.97027 0.79256
0.96176 0.97430 0.78612
0.13360 0.11266 0.50746
0.18063 0.12278 0.51617
0.31439 0.16364 0.53715
0.49212 0.23278 0.58457
0.63783 0.31288 0.62838
0.71748 0.35968 0.64132
0.75026 0.37688 0.60600
0.76046 0.41236 0.58070
0.17205 0.19045 0.50617
0.22526 0.20629 0.52014
0.35605 0.24606 0.55064
0.52264 0.31169 0.59872
0.66785 0.39463 0.64879
0.74813 0.43662 0.66789
0.78785 0.45045 0.64421
0.79389 0.47422 0.61920
0.27528 0.38201 0.54497
0.33745 0.40599 0.56362
0.45450 0.44509 0.60349
0.59751 0.49664 0.65479
0.72490 0.54227 0.69940
0.80838 0.58044 0.72277
0.86592 0.60964 0.72112
0.87457 0.62379 0.71493
0.32098 0.54115 0.59174
0.36501 0.55122 0.60539
0.47608 0.58116 0.64372
0.63058 0.62790 0.70135
0.76677 0.66990 0.74831
0.85241 0.69553 0.76710
0.91086 0.72045 0.76605
0.92815 0.73859 0.76719
0.34907 0.68596 0.64083
0.36864 0.68890 0.64596
0.47228 0.71086 0.67875
0.63765 0.75191 0.73804
0.78451 0.78692 0.78353
0.87814 0.80835 0.80197
0.93639 0.81914 0.79476
0.95484 0.82671 0.79155
0.38473 0.78586 0.68435
0.39594 0.78842 0.68803
0.44633 0.79791 0.70304
0.61318 0.83198 0.75560
0.77793 0.86539 0.80698
0.88059 0.88438 0.82671
0.93812 0.89667 0.82533
0.96560 0.89811 0.81513
0.41763 0.85379 0.72085
0.43140 0.85609 0.72511
0.46122 0.86016 0.73317
0.57397 0.87938 0.76613
0.75774 0.91273 0.82328
0.87596 0.93247 0.85492
0.93695 0.94388 0.86012
0.96929 0.94645 0.84818
0.40450 0.89044 0.73453
0.42227 0.89372 0.74107
0.46261 0.90133 0.75591
0.53987 0.91364 0.77918
0.72664 0.94434 0.83514
0.86508 0.96415 0.87310
0.93443 0.97490 0.88775
0.97089 0.97697 0.88295
0.16693 0.13210 0.62386
0.20982 0.13986 0.64000
0.33855 0.18514 0.66749
0.51291 0.26123 0.71342
0.66824 0.35669 0.77088
0.76939 0.43926 0.81271
0.81570 0.47377 0.80049
0.81603 0.49442 0.77624
0.21907 0.23953 0.63578
0.26864 0.25291 0.64992
0.39474 0.29286 0.67983
0.56178 0.36094 0.73426
0.70237 0.43477 0.78928
0.79774 0.50723 0.82787
0.84659 0.53945 0.82057
0.84683 0.55693 0.79945
0.33747 0.44080 0.65506
0.39658 0.46338 0.67596
0.51827 0.50661 0.72164
0.65575 0.55971 0.78038
0.76710 0.59369 0.82283
0.85153 0.65035 0.85524
0.89874 0.66475 0.85706
0.90860 0.68490 0.84410
0.42599 0.61098 0.69699
0.47782 0.62849 0.71715
0.57130 0.65587 0.75613
0.70125 0.69640 0.80562
0.80877 0.72922 0.84937
0.87954 0.74590 0.87501
0.92958 0.76543 0.87510
0.94182 0.77973 0.87106
0.42673 0.72261 0.72139
0.46471 0.73092 0.73452
0.56278 0.75412 0.76996
0.69615 0.78638 0.82044
0.81737 0.81606 0.86388
0.89303 0.83211 0.88321
0.94330 0.84369 0.89078
0.95876 0.85156 0.88740
0.41789 0.80314 0.74254
0.43642 0.80654 0.74797
0.52169 0.82277 0.77514
0.67376 0.85438 0.82735
0.80931 0.88119 0.87121
0.89548 0.89640 0.89482
0.94685 0.90693 0.90134
0.97052 0.91014 0.90197
0.45195 0.86471 0.77140
0.46296 0.86662 0.77464
0.49675 0.87177 0.78425
0.63927 0.89694 0.82872
0.79145 0.92219 0.87679
0.89132 0.94129 0.90673
0.94616 0.94934 0.91628
0.97549 0.95272 0.91443
0.45764 0.90105 0.78652
0.47418 0.90423 0.79174
0.50952 0.91098 0.80285
0.58991 0.92376 0.82630
0.76542 0.95051 0.88086
0.88110 0.96848 0.91425
0.94250 0.97618 0.92990
0.97645 0.97998 0.93080
0.22288 0.18416 0.63711
0.26770 0.19341 0.64701
0.38980 0.24059 0.67562
0.54359 0.30368 0.72301
0.67086 0.35927 0.77260
0.77881 0.45621 0.82850
0.84340 0.52511 0.86305
0.86338 0.56970 0.87758
0.27349 0.27954 0.64773
0.32058 0.28918 0.65901
0.43727 0.32719 0.69237
0.58533 0.38562 0.74770
0.71061 0.44322 0.80205
0.80738 0.51861 0.85220
0.87002 0.58106 0.88661
0.88704 0.62216 0.89515
0.37939 0.46741 0.69493
0.43146 0.48576 0.71405
0.54672 0.52784 0.76148
0.67243 0.56628 0.81530
0.79117 0.62042 0.87194
0.86346 0.65917 0.90578
0.91704 0.69899 0.92489
0.92912 0.72990 0.92293
0.50955 0.66593 0.77831
0.56273 0.68603 0.80130
0.64460 0.71184 0.83624
0.75168 0.74436 0.88065
0.84111 0.77296 0.91640
0.89969 0.78276 0.93512
0.94353 0.80010 0.94330
0.95529 0.82091 0.94181
0.52916 0.76588 0.80481
0.56768 0.77581 0.81921
0.64391 0.79407 0.84812
0.75148 0.82129 0.88921
0.84763 0.84530 0.92452
0.90950 0.85783 0.93880
0.95334 0.86657 0.94960
0.96503 0.87716 0.94911
0.49871 0.82763 0.80449
0.53327 0.83441 0.81623
0.61710 0.85133 0.84552
0.73210 0.87443 0.88587
0.83985 0.89615 0.91932
0.91097 0.91119 0.94144
0.95579 0.91809 0.95307
0.97297 0.92353 0.95201
0.49001 0.87622 0.81024
0.51022 0.88033 0.81677
0.58445 0.89450 0.84126
0.70644 0.91372 0.87970
0.82707 0.93508 0.91918
0.90750 0.94909 0.94371
0.95540 0.95713 0.95463
0.97868 0.95809 0.95541
0.49933 0.90907 0.82329
0.51347 0.91194 0.82773
0.54990 0.91784 0.83830
0.65441 0.93299 0.86924
0.79952 0.95614 0.91527
0.89691 0.97223 0.94457
0.94964 0.97899 0.95787
0.97907 0.98206 0.96031
0.29293 0.24810 0.65105
0.33206 0.25403 0.66155
0.43923 0.29134 0.68987
0.57457 0.34588 0.73798
0.69378 0.40047 0.78736
0.78177 0.46108 0.82686
0.83843 0.51366 0.85067
0.88677 0.61231 0.89614
0.33542 0.32488 0.66325
0.37917 0.33718 0.67671
0.48396 0.37255 0.71142
0.61502 0.42312 0.76359
0.73030 0.47507 0.81501
0.80973 0.52324 0.85128
0.86778 0.57712 0.87787
0.90572 0.65679 0.91269
0.42506 0.48989 0.71303
0.47562 0.50886 0.73320
0.57781 0.54590 0.77612
0.69720 0.58670 0.82865
0.80363 0.63535 0.87881
0.87007 0.66357 0.90726
0.92353 0.70780 0.93019
0.93826 0.75335 0.94048
0.55663 0.68818 0.80004
0.59710 0.70259 0.81788
0.68059 0.73248 0.85478
0.78443 0.76823 0.89906
0.85778 0.78815 0.92808
0.91499 0.81126 0.94771
0.95130 0.82200 0.95501
0.96278 0.85155 0.96248
0.62564 0.80609 0.85015
0.66488 0.81788 0.86595
0.72960 0.83488 0.89141
0.80849 0.85489 0.92057
0.87722 0.87176 0.94474
0.92494 0.88338 0.95881
0.95952 0.88992 0.96543
0.96930 0.89554 0.96922
0.61892 0.86052 0.85914
0.64697 0.86635 0.86934
0.70874 0.87879 0.89165
0.79070 0.89479 0.92026
0.87011 0.91107 0.94597
0.92392 0.92243 0.96206
0.96002 0.92839 0.97214
0.97394 0.93270 0.97351
0.57636 0.89218 0.85130
0.60445 0.89750 0.86072
0.67382 0.91022 0.88432
0.77037 0.92701 0.91673
0.85903 0.94165 0.94538
0.91975 0.95196 0.96484
0.95908 0.95783 0.97497
0.97873 0.96010 0.97829
0.53011 0.90758 0.84102
0.54730 0.91094 0.84640
0.61796 0.92367 0.86947
0.72383 0.94209 0.90348
0.83416 0.96042 0.93819
0.90652 0.97252 0.96156
0.95175 0.97843 0.97441
0.97890 0.97908 0.97873
