cube lut/classic chrome_DisplayP3.cube
# DisplayP3
# github.com/abpy/FujifilmCameraProfiles
LUT_3D_SIZE 8
DOMAIN_MIN 0.000000 0.000000 0.000000
DOMAIN_MAX 0.903226 0.903226 0.903226
0.00000 0.00000 0.00000
0.04487 0.00000 0.00000
0.25917 0.02380 0.00254
0.52858 0.09904 0.03933
0.72475 0.15650 0.06255
0.84702 0.19943 0.03548
0.93012 0.22991 0.00000
0.94823 0.24971 0.00000
0.00000 0.03901 0.00000
0.04327 0.04323 0.00773
0.25671 0.08152 0.02017
0.53229 0.14507 0.05120
0.73088 0.20218 0.06121
0.85367 0.24579 0.01416
0.93716 0.27537 0.00000
0.95348 0.29176 0.00000
0.00000 0.20777 0.00000
0.00000 0.19193 0.01628
0.23308 0.22520 0.03954
0.53674 0.26705 0.08136
0.74066 0.28639 0.09348
0.86501 0.32263 0.08077
0.95168 0.35569 0.00000
0.96604 0.37170 0.00000
0.00000 0.42395 0.03675
0.00000 0.41819 0.05038
0.05953 0.42993 0.06344
0.47534 0.46249 0.10390
0.73197 0.48866 0.14052
0.87692 0.48347 0.13007
0.96832 0.47588 0.07367
0.98380 0.47594 0.00000
0.00000 0.60502 0.09486
0.00000 0.60761 0.09768
0.00000 0.61108 0.09558
0.33379 0.63792 0.11758
0.68223 0.66090 0.15636
0.85592 0.67476 0.18727
0.96471 0.67047 0.17692
0.99811 0.64399 0.07138
0.00000 0.73190 0.13554
0.00000 0.73554 0.13595
0.00000 0.74211 0.13106
0.00000 0.75590 0.13228
0.57441 0.77888 0.16771
0.81084 0.79603 0.19541
0.94284 0.80349 0.22068
1.00000 0.79612 0.21278
0.00000 0.82189 0.16040
0.00000 0.82504 0.16115
0.00000 0.83166 0.15915
0.00000 0.83780 0.14577
0.37531 0.85773 0.17208
0.74021 0.87723 0.20342
0.90269 0.88786 0.22285
0.99618 0.89373 0.24494
0.00000 0.88748 0.18301
0.00000 0.88998 0.18455
0.00000 0.89601 0.18513
0.00000 0.90396 0.17150
0.00000 0.91383 0.16187
0.62461 0.94031 0.21297
0.85391 0.95342 0.22890
0.97414 0.96177 0.24076
0.00098 0.00141 0.03860
0.06642 0.01476 0.05885
0.28029 0.05153 0.09922
0.53765 0.11235 0.14908
0.73056 0.16149 0.17785
0.85089 0.19995 0.18027
0.93404 0.22915 0.16956
0.94957 0.24897 0.01930
0.00132 0.05097 0.04761
0.06971 0.06990 0.06984
0.27811 0.11078 0.10967
0.54346 0.16242 0.15540
0.73625 0.20456 0.17964
0.85767 0.24278 0.17492
0.94136 0.27290 0.16011
0.95518 0.29013 0.00000
0.00000 0.21159 0.07364
0.00000 0.21698 0.07802
0.25527 0.25003 0.11069
0.53972 0.29201 0.15194
0.74463 0.30970 0.17965
0.87032 0.32735 0.19495
0.95685 0.35479 0.18270
0.96860 0.36937 0.03145
0.00000 0.42867 0.10590
0.00000 0.42740 0.09726
0.11096 0.44338 0.10809
0.48518 0.47541 0.14586
0.73361 0.50566 0.18736
0.87801 0.50182 0.19723
0.97252 0.48879 0.19501
0.98748 0.48140 0.13302
0.00000 0.60977 0.14585
0.00000 0.61294 0.13608
0.00000 0.61853 0.11135
0.35525 0.64458 0.14376
0.68442 0.66835 0.18589
0.85592 0.68289 0.21663
0.96443 0.68030 0.22831
0.99943 0.65616 0.18721
0.00000 0.73540 0.17818
0.00000 0.73906 0.17208
0.00000 0.74579 0.15057
0.00000 0.75925 0.14915
0.58330 0.78216 0.19167
0.81244 0.79870 0.21827
0.94173 0.80745 0.24426
1.00000 0.80055 0.24714
0.00000 0.82427 0.19793
0.00000 0.82736 0.19465
0.00000 0.83374 0.18163
0.00000 0.83954 0.15357
0.39279 0.86015 0.19253
0.74478 0.87921 0.22806
0.90378 0.88965 0.24598
0.99683 0.89670 0.26613
0.00000 0.88907 0.21780
0.00000 0.89157 0.21668
0.00000 0.89760 0.21010
0.00000 0.90555 0.18397
0.00000 0.91584 0.17311
0.63260 0.94170 0.23465
0.85647 0.95453 0.24889
0.97431 0.96358 0.26083
0.00858 0.01494 0.23089
0.09217 0.02653 0.24448
0.32811 0.08616 0.29101
0.56993 0.14058 0.32149
0.74311 0.18956 0.35517
0.86081 0.21575 0.36536
0.94356 0.23595 0.36501
0.95429 0.25154 0.30619
0.01569 0.10218 0.23650
0.11390 0.12315 0.25246
0.31950 0.15734 0.28844
0.56530 0.21090 0.33455
0.74572 0.25463 0.37043
0.86878 0.27714 0.38313
0.95118 0.27864 0.36546
0.96063 0.28956 0.30481
0.00000 0.25446 0.24592
0.01450 0.26544 0.25871
0.29270 0.29246 0.29241
0.55125 0.32968 0.33070
0.74984 0.36638 0.37126
0.87925 0.38842 0.39280
0.96738 0.39066 0.39298
0.97713 0.38027 0.33045
0.00000 0.44959 0.25942
0.00000 0.45339 0.25806
0.17481 0.47296 0.28418
0.50851 0.50233 0.32202
0.73611 0.53418 0.36381
0.87447 0.54749 0.38417
0.97308 0.53933 0.38201
0.99385 0.51293 0.34732
0.00000 0.62266 0.27173
0.00000 0.62657 0.26770
0.00000 0.63789 0.27635
0.40546 0.66048 0.31389
0.69201 0.68202 0.35030
0.85385 0.69982 0.37392
0.96176 0.70253 0.38140
1.00000 0.68366 0.35072
0.00000 0.74394 0.28004
0.00000 0.74759 0.27341
0.00000 0.75439 0.26708
0.11943 0.76898 0.28201
0.60763 0.79021 0.33076
0.81698 0.80593 0.35365
0.93921 0.81597 0.37805
0.99907 0.81163 0.36733
0.00000 0.82988 0.28376
0.00000 0.83278 0.27764
0.00000 0.83862 0.26124
0.00000 0.84524 0.22873
0.44449 0.86733 0.29972
0.75626 0.88425 0.35104
0.90656 0.89417 0.36706
0.99526 0.90302 0.37898
0.00000 0.89294 0.29508
0.00000 0.89545 0.29122
0.00000 0.90152 0.27834
0.00000 0.91031 0.24434
0.00000 0.92260 0.25256
0.65421 0.94539 0.32542
0.86313 0.95775 0.35783
0.97673 0.96766 0.38105
0.01778 0.03825 0.46536
0.11142 0.05160 0.48161
0.34124 0.10473 0.51456
0.59525 0.17870 0.55448
0.76348 0.22563 0.56841
0.87488 0.26707 0.57375
0.95682 0.30090 0.58959
0.96541 0.30175 0.53971
0.02178 0.14321 0.47235
0.14616 0.16690 0.49295
0.36137 0.20710 0.51789
0.58965 0.26982 0.54732
0.76412 0.30430 0.57332
0.87993 0.33415 0.58710
0.96497 0.35832 0.60009
0.97386 0.35681 0.55568
0.00000 0.31321 0.48098
0.11098 0.32476 0.49339
0.34155 0.35265 0.51613
0.57806 0.38488 0.54442
0.76187 0.42192 0.57240
0.88101 0.46289 0.60206
0.97320 0.48738 0.62340
0.99046 0.49276 0.60189
0.00000 0.49069 0.47813
0.00000 0.49451 0.48501
0.23737 0.51173 0.50778
0.53689 0.53716 0.53682
0.74608 0.56279 0.56563
0.87519 0.58667 0.59273
0.97173 0.60444 0.61450
0.99683 0.60925 0.60481
0.00000 0.64532 0.47460
0.00000 0.64952 0.47637
0.00000 0.66119 0.49312
0.44401 0.67971 0.52369
0.70452 0.69950 0.55589
0.85469 0.71849 0.58372
0.95821 0.73100 0.60604
0.99949 0.73264 0.60895
0.00000 0.75674 0.46617
0.00000 0.75957 0.46920
0.00000 0.76515 0.47796
0.26826 0.78114 0.50996
0.63923 0.80169 0.54484
0.82176 0.81564 0.57051
0.93878 0.82901 0.60029
0.99720 0.83378 0.60954
0.00000 0.83869 0.44297
0.00000 0.84123 0.44601
0.00000 0.84640 0.46262
0.00000 0.85681 0.48621
0.51818 0.87634 0.52313
0.77494 0.89231 0.56187
0.91186 0.90352 0.57949
0.99384 0.91446 0.59444
0.00000 0.89921 0.42825
0.00000 0.90167 0.42862
0.00000 0.90759 0.43486
0.00000 0.91655 0.46140
0.21208 0.93300 0.47732
0.69591 0.95142 0.52754
0.87482 0.96426 0.57123
0.98138 0.97404 0.59603
0.03238 0.07831 0.64614
0.13040 0.08764 0.66222
0.35592 0.13092 0.69495
0.60049 0.20026 0.72802
0.77924 0.27095 0.75066
0.89055 0.31237 0.75418
0.96496 0.33811 0.74971
0.97403 0.38091 0.72401
0.03160 0.17930 0.65753
0.15745 0.19463 0.67581
0.37678 0.23205 0.70282
0.61006 0.28440 0.73016
0.78037 0.35174 0.74777
0.89226 0.38690 0.75485
0.97237 0.40098 0.75725
0.98052 0.43176 0.73105
0.05207 0.38314 0.67191
0.20432 0.40139 0.68112
0.40543 0.42889 0.70060
0.61355 0.45882 0.72083
0.77374 0.48696 0.73717
0.88747 0.51690 0.75120
0.97564 0.54290 0.76542
0.99295 0.56200 0.75457
0.00000 0.53793 0.66897
0.00000 0.54318 0.67627
0.32409 0.55779 0.69359
0.57552 0.58296 0.71470
0.75783 0.60636 0.73264
0.88024 0.62500 0.74627
0.97165 0.65040 0.76223
0.99735 0.67474 0.76527
0.00000 0.67363 0.65925
0.00000 0.67597 0.66369
0.08588 0.68555 0.67731
0.49094 0.70280 0.69923
0.72242 0.72255 0.72197
0.86265 0.73791 0.73956
0.96059 0.75180 0.75738
0.99786 0.76645 0.76643
0.00000 0.77254 0.64670
0.00000 0.77410 0.64952
0.00000 0.77954 0.65866
0.34550 0.79705 0.68452
0.66205 0.81472 0.71132
0.83149 0.82875 0.73245
0.94290 0.84400 0.75371
0.99659 0.85168 0.76822
0.00000 0.85041 0.62925
0.00000 0.85250 0.63331
0.00000 0.85674 0.64315
0.00000 0.86797 0.66609
0.56503 0.88706 0.70064
0.79413 0.90268 0.73045
0.91962 0.91533 0.74892
0.99362 0.92536 0.76992
0.00000 0.90780 0.60702
0.00000 0.91015 0.61284
0.00000 0.91590 0.62858
0.00000 0.92478 0.64743
0.39996 0.94229 0.68547
0.73481 0.95933 0.71956
0.88866 0.97211 0.75334
0.98260 0.97749 0.76689
0.05118 0.11912 0.77049
0.14710 0.12721 0.78492
0.36203 0.16597 0.81188
0.60336 0.22865 0.84360
0.77807 0.29756 0.86433
0.89835 0.36427 0.87427
0.97195 0.40659 0.87305
0.98004 0.43691 0.84495
0.04904 0.21787 0.78176
0.16794 0.22756 0.79641
0.38521 0.25960 0.82046
0.61909 0.31274 0.84911
0.78548 0.37117 0.86494
0.90063 0.43192 0.87178
0.97667 0.46976 0.87265
0.98608 0.49578 0.84926
0.08314 0.42067 0.79597
0.22631 0.43726 0.80575
0.43841 0.46749 0.82617
0.63719 0.50172 0.84257
0.78805 0.52318 0.85631
0.89558 0.57614 0.86050
0.97816 0.59383 0.86817
0.99562 0.62101 0.85627
0.04497 0.58864 0.79783
0.22356 0.59914 0.80370
0.41220 0.61209 0.81627
0.62125 0.63833 0.83202
0.77484 0.65930 0.84447
0.88642 0.67355 0.85491
0.97230 0.69826 0.86278
0.99818 0.71854 0.85930
0.00000 0.69954 0.78757
0.00000 0.70337 0.79221
0.28149 0.71403 0.80433
0.55105 0.73107 0.82204
0.74498 0.75172 0.83833
0.86960 0.76608 0.85091
0.96326 0.78302 0.86156
0.99770 0.79652 0.86185
0.00000 0.79097 0.77504
0.00000 0.79264 0.77709
0.00000 0.80014 0.78729
0.42973 0.81632 0.80869
0.69316 0.83255 0.82885
0.84604 0.84606 0.84616
0.94958 0.86072 0.86037
0.99663 0.86940 0.86742
0.00000 0.86358 0.76332
0.00000 0.86498 0.76574
0.00000 0.86895 0.77256
0.20000 0.88226 0.79349
0.61505 0.90056 0.81996
0.81104 0.91539 0.84179
0.92850 0.92579 0.85842
0.99571 0.93418 0.87005
0.00000 0.91821 0.75080
0.00000 0.92011 0.75410
0.00000 0.92446 0.76190
0.00000 0.93308 0.77677
0.47066 0.95086 0.80709
0.75683 0.96712 0.83334
0.89965 0.97467 0.85644
0.98449 0.98071 0.86672
0.07197 0.17066 0.86311
0.16906 0.17578 0.87561
0.37316 0.21026 0.90130
0.60585 0.26459 0.92996
0.77763 0.31464 0.94989
0.89924 0.39001 0.95835
0.97677 0.46693 0.95942
0.98942 0.50478 0.93648
0.07146 0.26203 0.87456
0.18491 0.26926 0.88655
0.39389 0.29471 0.90995
0.62068 0.34158 0.93486
0.78614 0.38853 0.95079
0.90413 0.45125 0.95751
0.98069 0.52150 0.95825
0.99305 0.55841 0.93635
0.10498 0.44485 0.88646
0.23432 0.45833 0.89610
0.44144 0.48715 0.91668
0.64293 0.51432 0.93224
0.79797 0.55489 0.94454
0.90515 0.59356 0.95025
0.98267 0.63907 0.95295
0.99681 0.67028 0.93453
0.21808 0.63472 0.89192
0.33662 0.64777 0.89812
0.49382 0.66331 0.90912
0.66591 0.68445 0.92293
0.79693 0.70767 0.93047
0.89781 0.72016 0.94108
0.97665 0.74356 0.94642
0.99729 0.76543 0.93343
0.04527 0.73340 0.88440
0.22422 0.73871 0.88954
0.41589 0.74847 0.90058
0.61893 0.76604 0.91517
0.77572 0.78560 0.92639
0.88402 0.80008 0.93577
0.96903 0.81604 0.94461
0.99657 0.82730 0.93405
0.00000 0.81040 0.87203
0.00000 0.81358 0.87613
0.23494 0.82268 0.88728
0.52789 0.83786 0.90405
0.73239 0.85289 0.91987
0.86345 0.86724 0.93216
0.95634 0.87903 0.94189
0.99724 0.88735 0.93803
0.00000 0.87902 0.85867
0.00000 0.87984 0.86165
0.00000 0.88532 0.87195
0.38034 0.90082 0.89171
0.66164 0.91714 0.91158
0.82954 0.92759 0.92543
0.93526 0.93545 0.93510
0.99504 0.94122 0.93801
0.00000 0.93108 0.85022
0.00000 0.93275 0.85246
0.00000 0.93644 0.85795
0.00000 0.94420 0.87166
0.53837 0.95944 0.89494
0.77978 0.97238 0.91290
0.90341 0.97717 0.92541
0.98243 0.98311 0.93315
0.10713 0.22973 0.90764
0.19828 0.23352 0.91717
0.38922 0.26112 0.94413
0.60586 0.30477 0.97000
0.77842 0.36179 0.98447
0.89617 0.40956 0.98693
0.98330 0.47182 0.98909
0.99190 0.55608 0.98838
0.10004 0.30877 0.91951
0.20663 0.31452 0.92880
0.40851 0.34291 0.95222
0.61983 0.37869 0.97343
0.78728 0.42893 0.98560
0.90121 0.47009 0.98758
0.98611 0.53227 0.98981
0.99452 0.60138 0.98848
0.04579 0.46420 0.93809
0.20853 0.47340 0.94636
0.44529 0.50858 0.96155
0.64848 0.53933 0.97598
0.80075 0.57920 0.98603
0.90790 0.60669 0.98918
0.98799 0.65775 0.99148
0.99687 0.70033 0.98717
0.27237 0.66106 0.94750
0.36543 0.67095 0.95277
0.52559 0.69166 0.96307
0.69137 0.71563 0.97397
0.80901 0.73119 0.98242
0.90915 0.75672 0.98879
0.98307 0.77171 0.99289
0.99757 0.80274 0.98434
0.30944 0.77094 0.94887
0.40324 0.77976 0.95386
0.54119 0.79208 0.96145
0.68670 0.80677 0.96972
0.80818 0.82202 0.97839
0.89887 0.83596 0.98594
0.97423 0.84675 0.99099
0.99843 0.85309 0.98423
0.14343 0.83787 0.94279
0.25982 0.84140 0.94653
0.43530 0.84951 0.95499
0.62283 0.86098 0.96646
0.77514 0.87478 0.97521
0.87839 0.88700 0.98408
0.95876 0.89658 0.98893
0.99744 0.90172 0.98479
0.00000 0.89210 0.92977
0.00000 0.89454 0.93281
0.22518 0.90176 0.94144
0.51383 0.91335 0.95541
0.71665 0.92395 0.96822
0.84684 0.93271 0.97802
0.93710 0.94160 0.98304
0.99188 0.94332 0.98475
0.00000 0.93582 0.90925
0.00000 0.93652 0.91094
0.00000 0.94068 0.91897
0.29058 0.94981 0.93381
0.62434 0.96255 0.95312
0.79450 0.97148 0.96440
0.90431 0.97791 0.97431
0.98060 0.98052 0.98053
