cube lut/classic neg_DisplayP3.cube
# DisplayP3
# github.com/abpy/FujifilmCameraProfiles
LUT_3D_SIZE 5
DOMAIN_MIN 0.000000 0.000000 0.000000
DOMAIN_MAX 0.903226 0.903226 0.903226
0.00962 0.01134 0.00946
0.18464 0.02942 0.00078
0.66767 0.16049 0.03309
0.83929 0.22300 0.00000
0.87682 0.27973 0.00000
0.00000 0.16105 0.06452
0.12995 0.16365 0.04176
0.66338 0.23640 0.08845
0.84402 0.26775 0.03368
0.87831 0.30947 0.00000
0.00000 0.51699 0.26547
0.00000 0.50501 0.23789
0.55500 0.57889 0.23514
0.88016 0.56063 0.23774
0.89620 0.44129 0.10513
0.00000 0.74557 0.43549
0.00000 0.75161 0.40895
0.00000 0.76770 0.40538
0.85363 0.85649 0.36776
0.94386 0.82646 0.37910
0.00000 0.83903 0.52207
0.00000 0.84719 0.50505
0.00000 0.85615 0.46886
0.52695 0.90947 0.42703
0.92766 0.95953 0.36792
0.05386 0.03471 0.16393
0.25190 0.06809 0.14249
0.70991 0.18427 0.14858
0.85242 0.22133 0.18837
0.88249 0.28585 0.15417
0.00000 0.19443 0.22892
0.20333 0.22028 0.21688
0.70051 0.30228 0.20521
0.86011 0.27372 0.21762
0.88326 0.29388 0.16699
0.00000 0.53551 0.37932
0.00000 0.53881 0.37588
0.60587 0.60873 0.33949
0.88964 0.60546 0.33813
0.91253 0.48128 0.27887
0.00000 0.75216 0.49693
0.00000 0.75438 0.46343
0.00000 0.77725 0.43995
0.86045 0.86465 0.41978
0.94926 0.85252 0.44168
0.00000 0.84400 0.56082
0.00000 0.85163 0.53926
0.00000 0.85753 0.47564
0.57673 0.91975 0.44071
0.93208 0.96630 0.43450
0.17791 0.13966 0.57040
0.39744 0.17825 0.53549
0.79335 0.28016 0.50367
0.88802 0.27225 0.48509
0.91052 0.32830 0.49463
0.18829 0.34480 0.62827
0.40846 0.38501 0.60885
0.78599 0.44361 0.56632
0.90570 0.43084 0.56339
0.92584 0.41796 0.55767
0.00000 0.61043 0.74949
0.13195 0.62588 0.73310
0.73044 0.69370 0.67876
0.92520 0.69440 0.67090
0.95897 0.67840 0.67707
0.00000 0.77035 0.79275
0.00000 0.77288 0.79583
0.42275 0.82252 0.76374
0.90442 0.88911 0.73108
0.97553 0.88704 0.75354
0.00000 0.85487 0.74749
0.00000 0.86097 0.75551
0.00000 0.85769 0.78046
0.74691 0.94766 0.73174
0.96309 0.97736 0.74546
0.44044 0.31424 0.80570
0.63585 0.35149 0.77720
0.85336 0.38278 0.73514
0.93131 0.42841 0.73856
0.93652 0.43744 0.71140
0.44782 0.52897 0.88824
0.64996 0.56432 0.85998
0.87261 0.59627 0.82388
0.94707 0.59098 0.79434
0.95581 0.57591 0.76371
0.33255 0.71758 0.94609
0.52890 0.74358 0.92455
0.84552 0.79136 0.88150
0.95525 0.79237 0.86635
0.97934 0.79126 0.85495
0.00000 0.79829 0.98481
0.00000 0.80980 0.98267
0.65973 0.87801 0.94351
0.93695 0.91618 0.91019
0.98838 0.91544 0.90579
0.00000 0.85962 0.97442
0.00000 0.86326 0.98287
0.00000 0.87436 0.98283
0.85570 0.96952 0.93497
0.98118 0.98302 0.92242
0.55201 0.41042 0.81995
0.69665 0.42454 0.79103
0.86697 0.44331 0.75658
0.93481 0.45463 0.74539
0.95497 0.54294 0.78728
0.56527 0.57116 0.88798
0.72103 0.59745 0.86448
0.88864 0.61540 0.83652
0.95315 0.60743 0.81723
0.97091 0.68081 0.85056
0.63091 0.80255 0.97452
0.76373 0.82867 0.96479
0.90913 0.85605 0.94829
0.97281 0.86064 0.93872
0.98906 0.86345 0.93691
0.38899 0.85983 0.98865
0.55334 0.88067 0.99046
0.84504 0.92440 0.98916
0.96012 0.93934 0.97576
0.99199 0.93626 0.96633
0.00000 0.85455 0.98647
0.00000 0.86361 0.98675
0.57481 0.92373 0.99148
0.90338 0.97766 0.99229
0.98624 0.98168 0.98018
