cube lut/classic neg_sRGB.cube
# sRGB
# github.com/abpy/FujifilmCameraProfiles
LUT_3D_SIZE 5
DOMAIN_MIN 0.000000 0.000000 0.000000
DOMAIN_MAX 0.903226 0.903226 0.903226
0.00923 0.01141 0.00931
0.16596 0.02135 0.00013
0.65251 0.08625 0.00000
0.88977 0.13203 0.00000
0.95386 0.22466 0.00000
0.00000 0.14694 0.05070
0.12814 0.16896 0.03122
0.65367 0.21641 0.00000
0.89904 0.20431 0.00000
0.95627 0.24360 0.00000
0.00000 0.50883 0.20887
0.00000 0.52253 0.23329
0.56593 0.58884 0.18193
0.91352 0.59723 0.17392
0.97847 0.51548 0.19670
0.00000 0.75985 0.36921
0.00000 0.76001 0.37946
0.01055 0.80892 0.34686
0.85814 0.86434 0.31993
0.96595 0.86132 0.37104
0.00000 0.87573 0.45983
0.00000 0.87348 0.44847
0.00000 0.87563 0.47968
0.72341 0.95527 0.40757
0.93160 0.97130 0.43412
0.05150 0.03147 0.15630
0.23009 0.05253 0.13878
0.70014 0.12370 0.10437
0.90716 0.13849 0.15052
0.96246 0.21806 0.19098
0.00000 0.19770 0.22515
0.19929 0.22096 0.21686
0.69381 0.28475 0.18947
0.92003 0.27549 0.20711
0.96827 0.25307 0.24101
0.00000 0.54440 0.39553
0.00000 0.55973 0.38596
0.62116 0.61822 0.34797
0.92352 0.63884 0.36733
0.98928 0.57687 0.37033
0.00000 0.76711 0.51411
0.00000 0.77043 0.51349
0.32923 0.82387 0.48440
0.87356 0.87057 0.45988
0.97383 0.87178 0.51041
0.00000 0.87735 0.54710
0.00000 0.87233 0.54422
0.00000 0.88351 0.56946
0.76001 0.96016 0.52437
0.94335 0.97504 0.56583
0.17360 0.12725 0.55840
0.37034 0.15260 0.53309
0.80722 0.24683 0.49962
0.94942 0.26853 0.50121
0.99223 0.30034 0.52801
0.18492 0.34372 0.61589
0.39553 0.37162 0.60114
0.79382 0.42389 0.56193
0.95613 0.43304 0.56467
1.00000 0.44947 0.59806
0.00000 0.62320 0.74404
0.09847 0.64270 0.72682
0.73835 0.69209 0.67650
0.95041 0.70440 0.67333
1.00000 0.69739 0.69661
0.00000 0.79021 0.83004
0.00000 0.80316 0.81910
0.55857 0.85782 0.76875
0.91279 0.89166 0.74628
0.99189 0.89432 0.77404
0.00000 0.87562 0.86163
0.00000 0.87687 0.86424
0.00000 0.91181 0.83533
0.84237 0.97214 0.78442
0.96885 0.97888 0.79837
0.44957 0.29906 0.83388
0.64311 0.33148 0.81258
0.89488 0.38447 0.77320
0.99085 0.44226 0.76154
1.00000 0.45766 0.73573
0.45491 0.52052 0.89768
0.64851 0.54818 0.86985
0.89323 0.58889 0.83305
0.98885 0.60702 0.81167
1.00000 0.60407 0.78945
0.35967 0.72985 0.93662
0.55280 0.74853 0.91619
0.84905 0.78101 0.87637
0.97194 0.78924 0.86567
1.00000 0.78643 0.86221
0.00000 0.83634 0.99294
0.22251 0.85420 0.97936
0.73767 0.89693 0.93243
0.94149 0.91529 0.90924
1.00000 0.91511 0.90523
0.00000 0.88533 1.00000
0.00000 0.89528 1.00000
0.55277 0.94192 0.96979
0.90069 0.98016 0.93647
0.98152 0.98370 0.92675
0.56140 0.38597 0.84356
0.70696 0.40022 0.81805
0.90759 0.43247 0.78497
0.99384 0.45317 0.77481
1.00000 0.56485 0.81666
0.58795 0.56463 0.90479
0.73446 0.58383 0.88253
0.91814 0.60880 0.85667
0.99975 0.63055 0.85074
1.00000 0.70332 0.87744
0.70085 0.81855 0.98101
0.78610 0.83066 0.97201
0.91757 0.85020 0.95563
0.98578 0.85811 0.94669
1.00000 0.85370 0.93893
0.56872 0.89770 1.00000
0.68401 0.90925 1.00000
0.87147 0.92977 0.99135
0.96386 0.93756 0.97802
1.00000 0.93503 0.96863
0.27723 0.92227 1.00000
0.48016 0.93712 1.00000
0.76050 0.96689 0.99892
0.92347 0.98208 0.99219
0.98721 0.98149 0.98004
