cube lut/classic neg_DisplayP3.cube
# DisplayP3
# github.com/abpy/FujifilmCameraProfiles
LUT_3D_SIZE 32
0.00962 0.01134 0.00946
0.01760 0.01182 0.00730
0.02499 0.01209 0.00506
0.03668 0.01263 0.00419
0.06225 0.01433 0.00282
0.09646 0.01816 0.00238
0.13739 0.02273 0.00196
0.18464 0.02942 0.00078
0.24218 0.04052 0.00000
0.30948 0.05774 0.00000
0.38500 0.07995 0.00483
0.46663 0.10391 0.01130
0.54385 0.12650 0.01951
0.61146 0.14562 0.02827
0.66767 0.16049 0.03309
0.71058 0.17173 0.03038
0.74381 0.18190 0.02112
0.77047 0.19172 0.01069
0.79191 0.19882 0.00000
0.80953 0.20464 0.00000
0.82473 0.21123 0.00000
0.83929 0.22300 0.00000
0.85302 0.24085 0.00000
0.86382 0.25847 0.00000
0.87072 0.27096 0.00000
0.87438 0.27745 0.00000
0.87573 0.27941 0.00000
0.87627 0.27955 0.00000
0.87682 0.27973 0.00000
0.87793 0.28129 0.00000
0.88093 0.28644 0.00000
0.88982 0.30144 0.00000
0.00418 0.01984 0.01145
0.01657 0.02069 0.01174
0.02330 0.02199 0.00961
0.03384 0.02073 0.00748
0.05814 0.02279 0.00688
0.09184 0.02788 0.00696
0.13282 0.03292 0.00675
0.17997 0.04044 0.00566
0.23755 0.05140 0.00421
0.30515 0.06708 0.00469
0.38136 0.08765 0.00973
0.46412 0.11082 0.01619
0.54246 0.13288 0.02461
0.61090 0.15151 0.03371
0.66771 0.16597 0.03867
0.71087 0.17701 0.03591
0.74419 0.18706 0.02648
0.77089 0.19662 0.01576
0.79233 0.20341 0.00000
0.80993 0.20892 0.00000
0.82507 0.21513 0.00000
0.83958 0.22637 0.00000
0.85327 0.24359 0.00000
0.86403 0.26075 0.00000
0.87087 0.27299 0.00000
0.87451 0.27938 0.00000
0.87582 0.28130 0.00000
0.87633 0.28148 0.00000
0.87687 0.28175 0.00000
0.87795 0.28342 0.00000
0.88092 0.28874 0.00000
0.88978 0.30413 0.00000
0.00000 0.02763 0.01411
0.01286 0.02749 0.01461
0.02137 0.02964 0.01307
0.03208 0.03080 0.01163
0.05448 0.03240 0.01041
0.08856 0.03689 0.00974
0.12918 0.04116 0.01034
0.17569 0.04884 0.01035
0.23254 0.05970 0.00949
0.30004 0.07459 0.01031
0.37681 0.09435 0.01506
0.46076 0.11735 0.02166
0.54044 0.13922 0.03053
0.60993 0.15756 0.04015
0.66755 0.17173 0.04508
0.71108 0.18267 0.04259
0.74455 0.19265 0.03316
0.77132 0.20197 0.02212
0.79280 0.20847 0.00587
0.81038 0.21366 0.00000
0.82547 0.21948 0.00000
0.83992 0.23013 0.00000
0.85356 0.24663 0.00000
0.86426 0.26328 0.00000
0.87105 0.27524 0.00000
0.87465 0.28154 0.00000
0.87592 0.28344 0.00000
0.87641 0.28365 0.00000
0.87693 0.28403 0.00000
0.87799 0.28584 0.00000
0.88091 0.29134 0.00000
0.88973 0.30717 0.00000
0.00000 0.03983 0.01828
0.00622 0.03694 0.01786
0.01628 0.03980 0.01673
0.02878 0.04320 0.01599
0.05039 0.04663 0.01483
0.08365 0.05157 0.01373
0.12483 0.05470 0.01316
0.17160 0.06065 0.01407
0.22767 0.06980 0.01452
0.29405 0.08311 0.01721
0.37065 0.10184 0.02211
0.45587 0.12479 0.02917
0.53727 0.14659 0.03878
0.60821 0.16481 0.04858
0.66704 0.17892 0.05334
0.71122 0.18997 0.05148
0.74494 0.19998 0.04325
0.77187 0.20911 0.03198
0.79343 0.21531 0.01532
0.81101 0.22015 0.00000
0.82603 0.22547 0.00000
0.84039 0.23533 0.00000
0.85396 0.25084 0.00000
0.86460 0.26678 0.00000
0.87131 0.27837 0.00000
0.87486 0.28456 0.00000
0.87608 0.28643 0.00000
0.87654 0.28672 0.00000
0.87702 0.28726 0.00000
0.87805 0.28926 0.00000
0.88090 0.29502 0.00000
0.88966 0.31146 0.00000
0.00000 0.06038 0.02381
0.00150 0.05433 0.02320
0.00986 0.05539 0.02230
0.02097 0.06000 0.02095
0.04241 0.06427 0.01972
0.07773 0.07068 0.01883
0.11861 0.07579 0.01820
0.16566 0.08046 0.01899
0.22099 0.08737 0.02007
0.28765 0.09722 0.02322
0.36457 0.11237 0.02820
0.45071 0.13410 0.03708
0.53340 0.15517 0.04827
0.60580 0.17303 0.05837
0.66620 0.18714 0.06310
0.71126 0.19843 0.06201
0.74532 0.20844 0.05550
0.77251 0.21756 0.04555
0.79422 0.22358 0.02894
0.81181 0.22812 0.00717
0.82675 0.23295 0.00000
0.84101 0.24188 0.00000
0.85448 0.25613 0.00000
0.86504 0.27117 0.00000
0.87166 0.28232 0.00000
0.87515 0.28841 0.00000
0.87632 0.29030 0.00000
0.87672 0.29070 0.00000
0.87718 0.29147 0.00000
0.87816 0.29374 0.00000
0.88092 0.29982 0.00000
0.88958 0.31704 0.00000
0.00000 0.08874 0.03322
0.00000 0.08321 0.03140
0.00040 0.08146 0.02943
0.01089 0.08426 0.02787
0.02798 0.08787 0.02689
0.06854 0.09202 0.02494
0.10970 0.10007 0.02414
0.15844 0.10539 0.02506
0.21220 0.11287 0.02670
0.27769 0.12158 0.03010
0.35604 0.13197 0.03515
0.44493 0.14878 0.04375
0.52968 0.16732 0.05544
0.60346 0.18366 0.06702
0.66539 0.19720 0.07273
0.71142 0.20842 0.07333
0.74578 0.21793 0.06924
0.77329 0.22706 0.06092
0.79521 0.23288 0.04710
0.81282 0.23715 0.02544
0.82766 0.24151 0.00092
0.84177 0.24948 0.00000
0.85512 0.26228 0.00000
0.86560 0.27627 0.00000
0.87211 0.28695 0.00000
0.87554 0.29301 0.00000
0.87664 0.29495 0.00000
0.87700 0.29554 0.00000
0.87742 0.29663 0.00000
0.87835 0.29926 0.00000
0.88099 0.30571 0.00000
0.88949 0.32385 0.00000
0.00000 0.12207 0.04750
0.00000 0.11601 0.04406
0.00000 0.11193 0.04143
0.00000 0.11153 0.03872
0.01199 0.11512 0.03729
0.04918 0.12069 0.03589
0.09815 0.12560 0.03425
0.14786 0.13334 0.03207
0.20196 0.14096 0.03461
0.26687 0.14862 0.03769
0.34554 0.15990 0.04293
0.43554 0.17352 0.05214
0.52425 0.18885 0.06351
0.60080 0.20094 0.07425
0.66466 0.21174 0.08014
0.71188 0.22162 0.08274
0.74652 0.22954 0.08189
0.77439 0.23826 0.07605
0.79654 0.24361 0.06591
0.81415 0.24735 0.04933
0.82883 0.25107 0.02499
0.84273 0.25795 0.00412
0.85592 0.26906 0.00000
0.86630 0.28187 0.00000
0.87268 0.29206 0.00000
0.87606 0.29817 0.00000
0.87709 0.30028 0.00000
0.87740 0.30114 0.00000
0.87779 0.30267 0.00000
0.87866 0.30575 0.00000
0.88114 0.31262 0.00000
0.88942 0.33175 0.00000
0.00000 0.16105 0.06452
0.00000 0.15469 0.05934
0.00000 0.14891 0.05470
0.00000 0.14500 0.04995
0.00000 0.14635 0.04783
0.01526 0.15165 0.04447
0.07385 0.15741 0.04277
0.12995 0.16365 0.04176
0.18859 0.17208 0.04363
0.25311 0.18114 0.04654
0.33260 0.19098 0.05066
0.42298 0.20403 0.05996
0.51544 0.21891 0.07175
0.59604 0.22971 0.08225
0.66338 0.23640 0.08845
0.71245 0.24154 0.09117
0.74757 0.24616 0.09205
0.77592 0.25316 0.08863
0.79836 0.25708 0.08176
0.81595 0.25963 0.07049
0.83041 0.26231 0.05353
0.84402 0.26775 0.03368
0.85696 0.27672 0.02059
0.86721 0.28800 0.00777
0.87343 0.29760 0.00000
0.87674 0.30380 0.00000
0.87771 0.30617 0.00000
0.87795 0.30739 0.00000
0.87831 0.30947 0.00000
0.87913 0.31313 0.00000
0.88144 0.32045 0.00000
0.88940 0.34052 0.00000
0.00000 0.20613 0.08647
0.00000 0.20023 0.08075
0.00000 0.19406 0.07471
0.00000 0.18772 0.06721
0.00000 0.18452 0.06167
0.00000 0.18770 0.05938
0.03272 0.19312 0.05694
0.10574 0.19973 0.05507
0.16770 0.20587 0.05393
0.23780 0.21639 0.05633
0.31587 0.22712 0.06033
0.40453 0.23822 0.06739
0.50353 0.25285 0.07970
0.58821 0.26334 0.08929
0.66028 0.27079 0.09740
0.71332 0.27363 0.10233
0.74945 0.27353 0.10407
0.77801 0.27516 0.10086
0.80067 0.27576 0.09480
0.81830 0.27622 0.08709
0.83253 0.27699 0.07581
0.84579 0.28020 0.06252
0.85838 0.28618 0.05221
0.86841 0.29523 0.03969
0.87443 0.30390 0.01323
0.87767 0.31009 0.00000
0.87856 0.31274 0.00000
0.87874 0.31434 0.00000
0.87907 0.31706 0.00000
0.87982 0.32136 0.00000
0.88193 0.32913 0.00000
0.88948 0.34996 0.00000
0.00000 0.25582 0.11203
0.00000 0.25089 0.10677
0.00000 0.24539 0.10113
0.00000 0.23850 0.09350
0.00000 0.23268 0.08663
0.00000 0.22980 0.08360
0.00000 0.23510 0.07872
0.06803 0.24097 0.07405
0.14213 0.24740 0.07001
0.21182 0.25424 0.06916
0.29443 0.26653 0.07256
0.38353 0.27987 0.07793
0.48304 0.29224 0.08780
0.57569 0.30300 0.09763
0.65414 0.31171 0.10753
0.71374 0.31449 0.11447
0.75222 0.31240 0.11794
0.78155 0.30994 0.11648
0.80424 0.30488 0.11097
0.82154 0.30043 0.10346
0.83534 0.29771 0.09395
0.84817 0.29783 0.08392
0.86032 0.29965 0.07650
0.87002 0.30518 0.06768
0.87575 0.31206 0.04784
0.87889 0.31777 0.00849
0.87973 0.32056 0.00000
0.87984 0.32243 0.00000
0.88014 0.32577 0.00000
0.88083 0.33071 0.00000
0.88270 0.33884 0.00000
0.88970 0.36003 0.00000
0.00000 0.30799 0.13911
0.00000 0.30421 0.13425
0.00000 0.29988 0.12904
0.00000 0.29398 0.12213
0.00000 0.28768 0.11457
0.00000 0.28155 0.11058
0.00000 0.28279 0.10770
0.00000 0.28855 0.10314
0.10553 0.29534 0.09742
0.18165 0.30141 0.09434
0.26310 0.30934 0.09232
0.35839 0.32425 0.09650
0.46400 0.34084 0.10411
0.55820 0.35067 0.11187
0.64381 0.35888 0.12111
0.71224 0.36427 0.12998
0.75602 0.36103 0.13416
0.78606 0.35647 0.13339
0.80926 0.34788 0.13090
0.82661 0.33831 0.12567
0.83974 0.32964 0.11661
0.85161 0.32401 0.10538
0.86300 0.31982 0.09660
0.87222 0.32059 0.08850
0.87756 0.32456 0.07403
0.88052 0.32870 0.04662
0.88129 0.33095 0.00000
0.88134 0.33264 0.00000
0.88163 0.33641 0.00000
0.88228 0.34185 0.00000
0.88389 0.35017 0.00000
0.89019 0.37108 0.00000
0.00000 0.36063 0.16772
0.00000 0.35777 0.16312
0.00000 0.35448 0.15817
0.00000 0.34986 0.15164
0.00000 0.34437 0.14427
0.00000 0.33929 0.13873
0.00000 0.33442 0.13799
0.00000 0.33787 0.13619
0.02524 0.34575 0.13057
0.14252 0.35311 0.12650
0.22831 0.36100 0.12603
0.32216 0.36983 0.12300
0.43659 0.39172 0.13094
0.54038 0.40328 0.13517
0.63029 0.41316 0.14197
0.70638 0.42194 0.15169
0.75740 0.42069 0.15612
0.79087 0.41445 0.15585
0.81529 0.40377 0.15483
0.83276 0.38971 0.15096
0.84615 0.37654 0.14466
0.85727 0.36465 0.13409
0.86744 0.35213 0.12261
0.87564 0.34520 0.11099
0.88023 0.34439 0.09585
0.88281 0.34568 0.07493
0.88345 0.34649 0.03662
0.88338 0.34711 0.00000
0.88365 0.35052 0.00000
0.88425 0.35591 0.00000
0.88566 0.36413 0.00000
0.89113 0.38394 0.00000
0.00000 0.41326 0.19845
0.00000 0.41105 0.19415
0.00000 0.40844 0.18944
0.00000 0.40463 0.18315
0.00000 0.39969 0.17583
0.00000 0.39455 0.16941
0.00000 0.39056 0.16761
0.00000 0.38931 0.17161
0.00000 0.39658 0.17059
0.07842 0.40452 0.16382
0.18631 0.41245 0.16183
0.28581 0.42253 0.16135
0.39392 0.43735 0.16078
0.51462 0.45857 0.16674
0.61475 0.47055 0.17005
0.69718 0.48218 0.17712
0.75475 0.48387 0.18214
0.79374 0.47769 0.18240
0.82128 0.46925 0.18389
0.84016 0.45447 0.18181
0.85371 0.43636 0.17600
0.86486 0.41961 0.16655
0.87430 0.40132 0.15557
0.88153 0.38553 0.14292
0.88496 0.37714 0.12563
0.88655 0.37270 0.10400
0.88660 0.36999 0.07448
0.88623 0.36836 0.02919
0.88639 0.37059 0.00000
0.88690 0.37498 0.00000
0.88812 0.38235 0.00000
0.89273 0.39995 0.00000
0.00000 0.46592 0.23146
0.00000 0.46446 0.22764
0.00000 0.46270 0.22341
0.00000 0.46003 0.21767
0.00000 0.45636 0.21078
0.00000 0.45205 0.20404
0.00000 0.44842 0.20050
0.00000 0.44691 0.20555
0.00000 0.44986 0.21207
0.00000 0.45971 0.20899
0.12644 0.46834 0.20354
0.24085 0.47803 0.20116
0.35504 0.49099 0.20011
0.47508 0.50978 0.20045
0.59275 0.52794 0.20241
0.68401 0.54064 0.20664
0.74706 0.54576 0.21021
0.79222 0.54387 0.21173
0.82509 0.53570 0.21404
0.84617 0.52428 0.21466
0.86162 0.50703 0.21039
0.87326 0.48726 0.20217
0.88236 0.46472 0.19153
0.88951 0.44294 0.18024
0.89269 0.42788 0.16479
0.89318 0.41635 0.14367
0.89199 0.40730 0.11662
0.89062 0.40033 0.08258
0.89020 0.39899 0.03857
0.89038 0.40091 0.00000
0.89140 0.40678 0.00000
0.89517 0.42116 0.00000
0.00000 0.51699 0.26547
0.00000 0.51632 0.26228
0.00000 0.51547 0.25874
0.00000 0.51411 0.25390
0.00000 0.51206 0.24797
0.00000 0.50929 0.24166
0.00000 0.50639 0.23695
0.00000 0.50501 0.23789
0.00000 0.50576 0.24863
0.00000 0.51266 0.25316
0.00000 0.52339 0.24725
0.18006 0.53308 0.24254
0.30656 0.54441 0.23841
0.43194 0.56101 0.23673
0.55500 0.57889 0.23514
0.66096 0.59513 0.23583
0.73889 0.60463 0.23860
0.78792 0.60433 0.23983
0.82208 0.60106 0.24280
0.84794 0.59218 0.24416
0.86626 0.57795 0.24202
0.88016 0.56063 0.23774
0.89038 0.53882 0.22995
0.89823 0.51393 0.22080
0.90202 0.49324 0.20726
0.90269 0.47761 0.18968
0.90069 0.46354 0.16682
0.89790 0.44935 0.13753
0.89620 0.44129 0.10513
0.89535 0.43744 0.06490
0.89569 0.43916 0.01419
0.89847 0.44887 0.00000
0.00000 0.56427 0.29828
0.00000 0.56426 0.29566
0.00000 0.56420 0.29278
0.00000 0.56398 0.28884
0.00000 0.56348 0.28399
0.00000 0.56252 0.27868
0.00000 0.56109 0.27411
0.00000 0.56000 0.27265
0.00000 0.56032 0.27859
0.00000 0.56179 0.29063
0.00000 0.57265 0.28896
0.08113 0.58261 0.28128
0.24324 0.59360 0.27618
0.37891 0.60738 0.27002
0.51028 0.62548 0.26712
0.62561 0.64137 0.26445
0.71868 0.65582 0.26581
0.78038 0.66008 0.26666
0.81774 0.65730 0.26794
0.84604 0.65375 0.27063
0.86751 0.64379 0.27112
0.88395 0.62958 0.26956
0.89640 0.61271 0.26626
0.90613 0.59059 0.26102
0.91140 0.56838 0.25122
0.91321 0.54955 0.23700
0.91136 0.53300 0.21789
0.90802 0.51576 0.19437
0.90522 0.50148 0.16798
0.90294 0.49017 0.13648
0.90191 0.48451 0.10172
0.90309 0.48631 0.07022
0.00000 0.60615 0.32821
0.00000 0.60658 0.32601
0.00000 0.60702 0.32357
0.00000 0.60757 0.32022
0.00000 0.60812 0.31608
0.00000 0.60850 0.31141
0.00000 0.60846 0.30687
0.00000 0.60807 0.30408
0.00000 0.60812 0.30518
0.00000 0.60778 0.31563
0.00000 0.61121 0.32371
0.00000 0.62368 0.31676
0.15686 0.63423 0.30822
0.31395 0.64722 0.30159
0.45597 0.66415 0.29512
0.58349 0.68177 0.29166
0.68536 0.69527 0.28950
0.76312 0.70573 0.29063
0.81165 0.70712 0.29135
0.84359 0.70513 0.29370
0.86608 0.69980 0.29573
0.88464 0.69079 0.29679
0.89929 0.67716 0.29644
0.91179 0.66182 0.29634
0.91910 0.64149 0.29055
0.92257 0.62300 0.28063
0.92207 0.60674 0.26661
0.91887 0.58961 0.24786
0.91578 0.57310 0.22624
0.91294 0.55827 0.20169
0.91060 0.54567 0.17239
0.90980 0.53780 0.14198
0.00000 0.64228 0.35474
0.00000 0.64291 0.35278
0.00000 0.64360 0.35059
0.00000 0.64452 0.34757
0.00000 0.64558 0.34376
0.00000 0.64661 0.33934
0.00000 0.64730 0.33465
0.00000 0.64736 0.33063
0.00000 0.64707 0.32907
0.00000 0.64700 0.33351
0.00000 0.64711 0.34658
0.00000 0.65542 0.34814
0.00000 0.66769 0.33726
0.22762 0.67981 0.32949
0.39032 0.69544 0.32118
0.53052 0.71409 0.31559
0.64771 0.72961 0.31188
0.73527 0.73959 0.31032
0.79798 0.74736 0.31132
0.83822 0.74770 0.31336
0.86342 0.74574 0.31635
0.88336 0.73879 0.31753
0.89878 0.73188 0.31974
0.91332 0.71820 0.32242
0.92395 0.70412 0.32126
0.92932 0.68668 0.31577
0.93051 0.67241 0.30587
0.92825 0.65951 0.29392
0.92578 0.64470 0.27761
0.92306 0.63006 0.25810
0.92036 0.61547 0.23448
0.91833 0.60166 0.20687
0.00000 0.67327 0.37814
0.00000 0.67396 0.37631
0.00000 0.67473 0.37427
0.00000 0.67577 0.37140
0.00000 0.67702 0.36774
0.00000 0.67832 0.36336
0.00000 0.67941 0.35848
0.00000 0.67992 0.35363
0.00000 0.67975 0.35018
0.00000 0.67948 0.35030
0.00000 0.67905 0.35903
0.00000 0.68226 0.37027
0.00000 0.69428 0.36519
0.09760 0.70577 0.35268
0.30400 0.71937 0.34459
0.46577 0.73781 0.33625
0.59947 0.75713 0.33173
0.70276 0.76990 0.32885
0.77670 0.77772 0.32810
0.82500 0.78173 0.32936
0.85780 0.78234 0.33261
0.88033 0.77815 0.33410
0.89728 0.77235 0.33604
0.91184 0.76636 0.34041
0.92444 0.75299 0.34238
0.93308 0.73882 0.34028
0.93635 0.72566 0.33519
0.93481 0.71615 0.32758
0.93318 0.70418 0.31719
0.93136 0.69276 0.30357
0.92931 0.68239 0.28694
0.92686 0.66757 0.26333
0.00000 0.70011 0.39896
0.00000 0.70079 0.39722
0.00000 0.70154 0.39524
0.00000 0.70255 0.39246
0.00000 0.70379 0.38885
0.00000 0.70511 0.38447
0.00000 0.70629 0.37943
0.00000 0.70701 0.37407
0.00000 0.70701 0.36931
0.00000 0.70660 0.36699
0.00000 0.70598 0.36922
0.00000 0.70623 0.38121
0.00000 0.71345 0.38640
0.00000 0.72594 0.37633
0.19634 0.73820 0.36343
0.38029 0.75458 0.35533
0.53773 0.77500 0.34795
0.65940 0.79175 0.34469
0.74849 0.80223 0.34246
0.80645 0.80805 0.34312
0.84729 0.81092 0.34521
0.87484 0.81026 0.34766
0.89431 0.80664 0.35008
0.90971 0.80154 0.35335
0.92265 0.79475 0.35615
0.93404 0.78358 0.35876
0.94021 0.77015 0.35669
0.93917 0.76177 0.35121
0.93812 0.75191 0.34409
0.93682 0.74115 0.33557
0.93567 0.73374 0.32514
0.93419 0.72647 0.31082
0.00000 0.72388 0.41782
0.00000 0.72451 0.41611
0.00000 0.72520 0.41418
0.00000 0.72615 0.41142
0.00000 0.72729 0.40780
0.00000 0.72854 0.40334
0.00000 0.72971 0.39811
0.00000 0.73054 0.39237
0.00000 0.73074 0.38683
0.00000 0.73038 0.38327
0.00000 0.72982 0.38260
0.00000 0.72877 0.38697
0.00000 0.73077 0.40006
0.00000 0.74163 0.39788
0.00000 0.75451 0.38451
0.28000 0.76885 0.37210
0.45700 0.78775 0.36404
0.60405 0.80725 0.35714
0.71270 0.82078 0.35479
0.78497 0.82918 0.35498
0.83317 0.83429 0.35609
0.86581 0.83553 0.35888
0.88937 0.83486 0.36130
0.90636 0.83103 0.36457
0.92064 0.82639 0.36780
0.93282 0.82012 0.37075
0.94202 0.81102 0.37252
0.94236 0.80014 0.37024
0.94134 0.79110 0.36235
0.94067 0.78180 0.35930
0.93965 0.77364 0.35042
0.93895 0.76881 0.34365
0.00000 0.74557 0.43549
0.00000 0.74614 0.43383
0.00000 0.74678 0.43192
0.00000 0.74763 0.42918
0.00000 0.74866 0.42553
0.00000 0.74978 0.42092
0.00000 0.75083 0.41535
0.00000 0.75161 0.40895
0.00000 0.75191 0.40215
0.00000 0.75172 0.39628
0.00000 0.75151 0.39377
0.00000 0.75064 0.39356
0.00000 0.74998 0.40343
0.00000 0.75478 0.41254
0.00000 0.76770 0.40538
0.13760 0.78133 0.38998
0.36207 0.79809 0.37866
0.53094 0.81761 0.37028
0.66438 0.83512 0.36438
0.75629 0.84588 0.36535
0.81598 0.85329 0.36623
0.85363 0.85649 0.36776
0.88115 0.85627 0.37062
0.90157 0.85472 0.37341
0.91735 0.85133 0.37633
0.93066 0.84709 0.38097
0.94142 0.84116 0.38250
0.94408 0.83570 0.38198
0.94386 0.82646 0.37910
0.94315 0.81761 0.37377
0.94254 0.80900 0.36945
0.94202 0.80417 0.36481
0.00000 0.76597 0.45267
0.00000 0.76654 0.45111
0.00000 0.76716 0.44931
0.00000 0.76801 0.44671
0.00000 0.76902 0.44320
0.00000 0.77010 0.43869
0.00000 0.77110 0.43311
0.00000 0.77178 0.42642
0.00000 0.77190 0.41876
0.00000 0.77132 0.41090
0.00000 0.77035 0.40489
0.00000 0.76947 0.40240
0.00000 0.76845 0.40495
0.00000 0.76901 0.41824
0.00000 0.77634 0.42025
0.00000 0.78997 0.40863
0.24460 0.80518 0.39230
0.44098 0.82342 0.38207
0.59955 0.84372 0.37472
0.71526 0.85907 0.37168
0.79234 0.86788 0.37434
0.83934 0.87374 0.37620
0.87025 0.87520 0.37738
0.89440 0.87407 0.38134
0.91247 0.87193 0.38383
0.92716 0.86873 0.38760
0.93929 0.86449 0.39189
0.94448 0.85979 0.39183
0.94498 0.85643 0.38882
0.94493 0.84896 0.38779
0.94436 0.84013 0.38272
0.94417 0.83460 0.38123
0.00000 0.78517 0.46922
0.00000 0.78580 0.46784
0.00000 0.78650 0.46624
0.00000 0.78747 0.46394
0.00000 0.78866 0.46081
0.00000 0.79001 0.45678
0.00000 0.79137 0.45177
0.00000 0.79254 0.44566
0.00000 0.79325 0.43844
0.00000 0.79324 0.43040
0.00000 0.79257 0.42281
0.00000 0.79185 0.41815
0.00000 0.79112 0.41651
0.00000 0.78931 0.42266
0.00000 0.78909 0.43072
0.00000 0.79757 0.42574
0.02632 0.81112 0.41057
0.33999 0.82805 0.39347
0.51957 0.84768 0.38371
0.66123 0.86718 0.37822
0.75903 0.87968 0.37701
0.82025 0.88695 0.38192
0.85888 0.89144 0.38435
0.88518 0.89170 0.38488
0.90579 0.88992 0.38920
0.92224 0.88851 0.39196
0.93513 0.88624 0.38970
0.94330 0.88176 0.39674
0.94577 0.87852 0.39777
0.94564 0.87546 0.39469
0.94553 0.86868 0.39400
0.94522 0.86170 0.39104
0.00000 0.80230 0.48423
0.00000 0.80302 0.48304
0.00000 0.80383 0.48167
0.00000 0.80497 0.47970
0.00000 0.80644 0.47703
0.00000 0.80817 0.47362
0.00000 0.81010 0.46939
0.00000 0.81206 0.46427
0.00000 0.81386 0.45823
0.00000 0.81524 0.45136
0.00000 0.81604 0.44431
0.00000 0.81642 0.43874
0.00000 0.81669 0.43606
0.00000 0.81595 0.43687
0.00000 0.81240 0.44229
0.00000 0.81179 0.44273
0.00000 0.81895 0.43349
0.20421 0.83256 0.41411
0.42648 0.85114 0.39566
0.58846 0.87116 0.38693
0.71148 0.88842 0.38262
0.79261 0.89822 0.38240
0.84333 0.90384 0.38926
0.87550 0.90696 0.39063
0.89761 0.90673 0.38857
0.91620 0.90547 0.39395
0.92956 0.90755 0.38486
0.93849 0.90549 0.37816
0.94383 0.90131 0.38894
0.94536 0.89803 0.39426
0.94461 0.89516 0.38796
0.94493 0.89022 0.39069
0.00000 0.81632 0.49684
0.00000 0.81709 0.49580
0.00000 0.81797 0.49460
0.00000 0.81922 0.49288
0.00000 0.82086 0.49057
0.00000 0.82288 0.48763
0.00000 0.82522 0.48403
0.00000 0.82780 0.47972
0.00000 0.83045 0.47468
0.00000 0.83292 0.46892
0.00000 0.83488 0.46270
0.00000 0.83605 0.45695
0.00000 0.83654 0.45323
0.00000 0.83690 0.45206
0.00000 0.83536 0.45435
0.00000 0.83096 0.45635
0.00000 0.83081 0.45237
0.00000 0.83837 0.43982
0.29675 0.85346 0.41835
0.49402 0.87306 0.40156
0.64271 0.89254 0.39282
0.75093 0.90739 0.38741
0.81924 0.91466 0.38905
0.86188 0.91866 0.39615
0.88925 0.92119 0.39477
0.90907 0.92059 0.39181
0.92433 0.92323 0.38825
0.93420 0.92673 0.37382
0.93900 0.92579 0.35928
0.94251 0.92188 0.37449
0.94299 0.91929 0.37996
0.94219 0.91745 0.37139
0.00000 0.82670 0.50684
0.00000 0.82745 0.50586
0.00000 0.82831 0.50474
0.00000 0.82954 0.50313
0.00000 0.83116 0.50098
0.00000 0.83319 0.49826
0.00000 0.83561 0.49495
0.00000 0.83836 0.49104
0.00000 0.84137 0.48654
0.00000 0.84450 0.48149
0.00000 0.84751 0.47612
0.00000 0.85014 0.47103
0.00000 0.85213 0.46742
0.00000 0.85351 0.46603
0.00000 0.85368 0.46599
0.00000 0.85023 0.46693
0.00000 0.84576 0.46552
0.00000 0.84559 0.45972
0.10246 0.85530 0.44445
0.37176 0.87294 0.42293
0.55375 0.89309 0.40765
0.68982 0.91194 0.39841
0.78305 0.92430 0.39243
0.84078 0.92979 0.39591
0.87711 0.93322 0.40217
0.90099 0.93493 0.39741
0.91779 0.93618 0.38727
0.92977 0.94032 0.37878
0.93679 0.94399 0.36524
0.93873 0.94417 0.34835
0.93959 0.94342 0.35783
0.94044 0.94021 0.36616
0.00000 0.83390 0.51483
0.00000 0.83455 0.51385
0.00000 0.83530 0.51272
0.00000 0.83638 0.51110
0.00000 0.83780 0.50892
0.00000 0.83958 0.50617
0.00000 0.84169 0.50281
0.00000 0.84410 0.49883
0.00000 0.84674 0.49423
0.00000 0.84946 0.48904
0.00000 0.85208 0.48339
0.00000 0.85430 0.47767
0.00000 0.85577 0.47271
0.00000 0.85636 0.46958
0.00000 0.85687 0.46839
0.00000 0.85632 0.46927
0.00000 0.85236 0.46939
0.00000 0.85016 0.46787
0.00000 0.85577 0.46293
0.23097 0.87104 0.44621
0.44876 0.89176 0.42581
0.61237 0.91251 0.41223
0.73382 0.92992 0.40251
0.81172 0.94036 0.39657
0.85916 0.94467 0.40197
0.88975 0.94698 0.40502
0.90985 0.94851 0.39374
0.92326 0.94927 0.37672
0.93331 0.95356 0.37262
0.93777 0.95684 0.36108
0.93692 0.95679 0.34121
0.93792 0.95441 0.35281
0.00000 0.83903 0.52207
0.00000 0.83956 0.52104
0.00000 0.84017 0.51985
0.00000 0.84104 0.51814
