cube lut/classic chrome_DisplayP3.cube
# DisplayP3
# github.com/abpy/FujifilmCameraProfiles
LUT_3D_SIZE 5
DOMAIN_MIN 0.000000 0.000000 0.000000
DOMAIN_MAX 0.903226 0.903226 0.903226
0.00000 0.00000 0.00000
0.18892 0.01275 0.00049
0.63828 0.12995 0.05796
0.87213 0.20789 0.02602
0.94823 0.24971 0.00000
0.00000 0.15449 0.00000
0.17175 0.16662 0.02728
0.64966 0.23511 0.08063
0.88747 0.31023 0.04506
0.96227 0.34969 0.00000
0.00000 0.52071 0.06854
0.00000 0.51711 0.07648
0.58739 0.57118 0.13179
0.90052 0.58595 0.16045
0.99178 0.54821 0.00000
0.00000 0.75729 0.14301
0.00000 0.76608 0.14166
0.28598 0.79105 0.15050
0.83568 0.82138 0.20316
1.00000 0.82376 0.23107
0.00000 0.88748 0.18301
0.00000 0.89417 0.18560
0.00000 0.90664 0.16334
0.70086 0.94462 0.21704
0.97414 0.96177 0.24076
0.00711 0.01143 0.16754
0.25261 0.06109 0.22086
0.65901 0.16070 0.29016
0.88256 0.21458 0.31645
0.95244 0.24983 0.24867
0.00000 0.19379 0.18576
0.22819 0.22811 0.22803
0.65970 0.30068 0.30391
0.89961 0.34037 0.33717
0.96909 0.34567 0.25542
0.00000 0.53554 0.22073
0.00000 0.54633 0.22320
0.60398 0.59423 0.28672
0.89572 0.62142 0.32505
0.99719 0.58527 0.29280
0.00000 0.76576 0.24977
0.00000 0.77433 0.22779
0.35873 0.79961 0.24897
0.84006 0.82815 0.30959
0.99882 0.83606 0.33258
0.00000 0.89174 0.27134
0.00000 0.89844 0.25986
0.00000 0.91127 0.19797
0.71782 0.94888 0.29094
0.97587 0.96647 0.33905
0.02257 0.05504 0.56263
0.28473 0.10046 0.60519
0.69857 0.22308 0.66464
0.90534 0.29172 0.66945
0.97162 0.35343 0.64900
0.03235 0.31004 0.58419
0.33042 0.35080 0.61142
0.69359 0.40620 0.65163
0.90869 0.46643 0.68705
0.98969 0.50024 0.68318
0.00000 0.59134 0.57860
0.00000 0.60403 0.59608
0.64041 0.64039 0.63993
0.89571 0.67216 0.67660
0.99836 0.69792 0.69693
0.00000 0.78638 0.55881
0.00000 0.79262 0.56849
0.47296 0.81875 0.61610
0.84979 0.84528 0.66234
0.99585 0.86466 0.70071
0.00000 0.90320 0.51685
0.00000 0.90960 0.53175
0.00000 0.92785 0.57522
0.77026 0.95900 0.64228
0.98243 0.97668 0.69184
0.05349 0.13137 0.79649
0.30579 0.16500 0.82863
0.69907 0.25951 0.87798
0.92291 0.38690 0.89939
0.98249 0.45773 0.87099
0.05932 0.37062 0.81702
0.36928 0.40961 0.84567
0.72074 0.47295 0.87732
0.92341 0.55401 0.88970
0.99419 0.59697 0.87534
0.00000 0.65647 0.81975
0.32615 0.67070 0.83272
0.69478 0.70891 0.85938
0.90612 0.73715 0.87759
0.99809 0.76986 0.88050
0.00000 0.81446 0.79742
0.00000 0.82041 0.80557
0.56707 0.84790 0.84182
0.87199 0.87191 0.87187
0.99728 0.89033 0.88807
0.00000 0.92130 0.77881
0.00000 0.92606 0.78613
0.23167 0.94428 0.81672
0.80479 0.97173 0.86085
0.98457 0.98199 0.88523
0.10713 0.22973 0.90764
0.33515 0.25129 0.93624
0.70045 0.33664 0.97894
0.92068 0.43860 0.98899
0.99190 0.55608 0.98838
0.01418 0.41611 0.93394
0.37489 0.45204 0.95533
0.72464 0.51329 0.98182
0.92976 0.57939 0.99053
0.99654 0.67164 0.98762
0.32431 0.72796 0.94949
0.51494 0.74796 0.96053
0.76091 0.77880 0.97617
0.92626 0.80860 0.98857
0.99795 0.82993 0.98378
0.00000 0.85280 0.94109
0.34514 0.86111 0.95033
0.69073 0.88040 0.97077
0.89453 0.90191 0.98357
0.99629 0.91263 0.98472
0.00000 0.93582 0.90925
0.00000 0.93917 0.91622
0.48443 0.95625 0.94340
0.82603 0.97322 0.96713
0.98060 0.98052 0.98053
