cube lut/classic neg_sRGB.cube
# sRGB
# github.com/abpy/FujifilmCameraProfiles
LUT_3D_SIZE 32
0.00923 0.01141 0.00931
0.01754 0.01196 0.00760
0.02458 0.01261 0.00563
0.03545 0.01306 0.00448
0.05517 0.01407 0.00358
0.08431 0.01738 0.00417
0.12327 0.01928 0.00190
0.16596 0.02135 0.00013
0.21364 0.02482 0.00000
0.27342 0.02819 0.00000
0.34180 0.03583 0.00000
0.41769 0.04809 0.00000
0.50112 0.06210 0.00000
0.58117 0.07521 0.00000
0.65251 0.08625 0.00000
0.71384 0.09407 0.00000
0.76234 0.09971 0.00000
0.79909 0.10625 0.00000
0.82903 0.11663 0.00000
0.85336 0.12336 0.00000
0.87314 0.12784 0.00000
0.88977 0.13203 0.00000
0.90438 0.13768 0.00000
0.91863 0.15148 0.00000
0.93194 0.17267 0.00000
0.94244 0.19437 0.00000
0.94895 0.21036 0.00000
0.95265 0.22045 0.00000
0.95386 0.22466 0.00000
0.95404 0.22650 0.00000
0.95413 0.22888 0.00000
0.95435 0.23288 0.00000
0.00544 0.01993 0.01196
0.01623 0.02106 0.01200
0.02275 0.02279 0.01038
0.03292 0.02202 0.00871
0.05232 0.02219 0.00758
0.08226 0.02590 0.00810
0.12115 0.02798 0.00651
0.16368 0.03010 0.00496
0.21074 0.03354 0.00502
0.27084 0.03785 0.00000
0.33945 0.04610 0.00000
0.41581 0.05678 0.00000
0.50009 0.07075 0.00000
0.58086 0.08310 0.00000
0.65268 0.09326 0.00000
0.71440 0.10110 0.00000
0.76304 0.10646 0.00000
0.79969 0.11219 0.00000
0.82965 0.12289 0.00000
0.85393 0.12903 0.00000
0.87365 0.13289 0.00000
0.89023 0.13669 0.00000
0.90478 0.14195 0.00000
0.91898 0.15501 0.00000
0.93223 0.17512 0.00000
0.94267 0.19610 0.00000
0.94910 0.21169 0.00000
0.95277 0.22165 0.00000
0.95394 0.22585 0.00000
0.95411 0.22772 0.00000
0.95420 0.23023 0.00000
0.95442 0.23440 0.00000
0.00203 0.02743 0.01496
0.01290 0.02864 0.01479
0.02065 0.03020 0.01340
0.03126 0.03185 0.01201
0.04992 0.03200 0.01152
0.08157 0.03605 0.01055
0.12013 0.03759 0.00937
0.16303 0.03896 0.00764
0.20926 0.04249 0.00935
0.26926 0.04746 0.00268
0.33759 0.05569 0.00000
0.41392 0.06498 0.00000
0.49901 0.07939 0.00000
0.58049 0.09111 0.00000
0.65281 0.10043 0.00000
0.71501 0.10847 0.00000
0.76383 0.11356 0.00000
0.80036 0.11837 0.00000
0.83035 0.12957 0.00000
0.85460 0.13508 0.00000
0.87425 0.13829 0.00000
0.89076 0.14172 0.00000
0.90525 0.14658 0.00000
0.91940 0.15887 0.00000
0.93257 0.17780 0.00000
0.94293 0.19796 0.00000
0.94929 0.21314 0.00000
0.95290 0.22296 0.00000
0.95405 0.22716 0.00000
0.95420 0.22907 0.00000
0.95429 0.23174 0.00000
0.95451 0.23612 0.00000
0.00000 0.03745 0.01904
0.00735 0.03865 0.01787
0.01574 0.04162 0.01737
0.02741 0.04390 0.01643
0.04825 0.04702 0.01555
0.08022 0.05150 0.01391
0.11793 0.05364 0.01317
0.16137 0.05513 0.01116
0.20890 0.05881 0.01218
0.26838 0.06140 0.00624
0.33681 0.06909 0.00073
0.41266 0.07612 0.00000
0.49872 0.09088 0.00000
0.58066 0.10180 0.00000
0.65322 0.10992 0.00000
0.71596 0.11847 0.00000
0.76501 0.12328 0.00000
0.80134 0.12661 0.00000
0.83141 0.13874 0.00000
0.85560 0.14336 0.00000
0.87516 0.14565 0.00000
0.89156 0.14859 0.00000
0.90597 0.15296 0.00000
0.92002 0.16420 0.00000
0.93307 0.18145 0.00000
0.94333 0.20049 0.00000
0.94956 0.21509 0.00000
0.95312 0.22474 0.00000
0.95422 0.22897 0.00000
0.95435 0.23097 0.00000
0.95444 0.23389 0.00000
0.95466 0.23859 0.00000
0.00000 0.05363 0.02358
0.00000 0.05611 0.02337
0.00703 0.05958 0.02189
0.01956 0.06242 0.02174
0.04089 0.06681 0.01969
0.07640 0.07096 0.01825
0.11390 0.07535 0.01716
0.15888 0.07808 0.01533
0.20723 0.08202 0.01423
0.26588 0.08493 0.01050
0.33474 0.09081 0.00503
0.41085 0.09398 0.00434
0.49935 0.10677 0.00000
0.58189 0.11686 0.00000
0.65430 0.12296 0.00000
0.71763 0.13173 0.00000
0.76678 0.13613 0.00000
0.80274 0.13709 0.00000
0.83291 0.15063 0.00000
0.85703 0.15410 0.00000
0.87647 0.15519 0.00000
0.89272 0.15754 0.00000
0.90700 0.16129 0.00000
0.92091 0.17116 0.00000
0.93379 0.18613 0.00000
0.94390 0.20367 0.00000
0.94997 0.21753 0.00000
0.95344 0.22699 0.00000
0.95449 0.23131 0.00000
0.95458 0.23344 0.00000
0.95468 0.23674 0.00000
0.95491 0.24189 0.00000
0.00000 0.08174 0.03086
0.00000 0.08331 0.02921
0.00000 0.08546 0.02879
0.00310 0.08712 0.02820
0.02507 0.09056 0.02696
0.06718 0.09516 0.02384
0.10841 0.10099 0.02200
0.15391 0.10517 0.01962
0.20286 0.11107 0.01716
0.26232 0.11450 0.01467
0.33095 0.12001 0.00939
0.40919 0.12595 0.00693
0.49856 0.13283 0.00000
0.58304 0.14023 0.00000
0.65597 0.14265 0.00000
0.71980 0.14969 0.00000
0.76905 0.15397 0.00000
0.80461 0.15146 0.00000
0.83496 0.16600 0.00000
0.85898 0.16785 0.00000
0.87831 0.16735 0.00000
0.89433 0.16891 0.00000
0.90845 0.17199 0.00000
0.92216 0.18015 0.00000
0.93477 0.19207 0.00000
0.94468 0.20764 0.00000
0.95053 0.22053 0.00000
0.95390 0.22977 0.00000
0.95489 0.23427 0.00000
0.95495 0.23661 0.00000
0.95506 0.24043 0.00000
0.95531 0.24618 0.00000
0.00000 0.11212 0.04177
0.00000 0.11273 0.03926
0.00000 0.11462 0.03884
0.00000 0.11744 0.03821
0.00000 0.12069 0.03445
0.04604 0.12519 0.03248
0.09650 0.12961 0.02917
0.14605 0.13596 0.02549
0.19611 0.14167 0.02211
0.25583 0.14725 0.01975
0.32496 0.15268 0.01343
0.40601 0.15936 0.00952
0.49552 0.16691 0.00247
0.58167 0.17394 0.00000
0.65741 0.17849 0.00000
0.72180 0.17808 0.00000
0.77156 0.17924 0.00000
0.80706 0.17419 0.00000
0.83736 0.18572 0.00000
0.86141 0.18625 0.00000
0.88076 0.18395 0.00000
0.89647 0.18408 0.00000
0.91038 0.18605 0.00000
0.92384 0.19198 0.00000
0.93609 0.19992 0.00000
0.94572 0.21286 0.00000
0.95128 0.22443 0.00000
0.95454 0.23336 0.00000
0.95547 0.23813 0.00000
0.95551 0.24074 0.00000
0.95565 0.24525 0.00000
0.95592 0.25178 0.00000
0.00000 0.14694 0.05070
0.00000 0.14677 0.04716
0.00000 0.14796 0.04601
0.00000 0.15070 0.04427
0.00000 0.15446 0.04032
0.00280 0.15903 0.03879
0.07025 0.16404 0.03644
0.12814 0.16896 0.03122
0.18574 0.17567 0.02966
0.24756 0.18246 0.02485
0.31648 0.18980 0.01940
0.39919 0.19570 0.01289
0.48908 0.20458 0.00558
0.57726 0.21162 0.00000
0.65367 0.21641 0.00000
0.72245 0.21739 0.00000
0.77398 0.21678 0.00000
0.81040 0.21354 0.00000
0.84030 0.21342 0.00000
0.86426 0.21062 0.00000
0.88372 0.20577 0.00000
0.89904 0.20431 0.00000
0.91280 0.20532 0.00000
0.92600 0.20859 0.00000
0.93779 0.21129 0.00000
0.94704 0.22059 0.00000
0.95223 0.23025 0.00000
0.95537 0.23856 0.00000
0.95627 0.24360 0.00000
0.95631 0.24648 0.00000
0.95650 0.25182 0.00000
0.95681 0.25926 0.00000
0.00000 0.18802 0.06249
0.00000 0.18731 0.05810
0.00000 0.18758 0.05718
0.00000 0.18913 0.05554
0.00000 0.19260 0.05448
0.00000 0.19719 0.05393
0.02110 0.20224 0.05014
0.10262 0.20702 0.04186
0.16658 0.21210 0.03664
0.23431 0.22088 0.03320
0.30709 0.22850 0.02268
0.38540 0.23776 0.01533
0.47858 0.24628 0.00893
0.56889 0.25244 0.00003
0.64962 0.25739 0.00000
0.72108 0.26173 0.00000
0.77562 0.26044 0.00000
0.81333 0.25657 0.00000
0.84399 0.25398 0.00000
0.86799 0.24677 0.00000
0.88767 0.23801 0.00000
0.90228 0.23254 0.00000
0.91565 0.23056 0.00000
0.92853 0.23064 0.00000
0.93987 0.22796 0.00000
0.94868 0.23292 0.00000
0.95342 0.24000 0.00000
0.95646 0.24713 0.00000
0.95731 0.25214 0.00000
0.95737 0.25507 0.00000
0.95765 0.26119 0.00000
0.95804 0.26947 0.00000
0.00000 0.23412 0.07401
0.00000 0.23277 0.06811
0.00000 0.23126 0.06567
0.00000 0.23155 0.06367
0.00000 0.23460 0.06409
0.00000 0.23999 0.06986
0.00000 0.24477 0.06199
0.05449 0.25007 0.05339
0.13840 0.25527 0.04880
0.21175 0.26225 0.04823
0.29144 0.27253 0.04147
0.37499 0.28259 0.02849
0.46759 0.29254 0.01519
0.55745 0.29955 0.00666
0.64080 0.30433 0.00000
0.71779 0.31058 0.00194
0.77599 0.31144 0.00000
0.81566 0.30573 0.00000
0.84763 0.30268 0.00000
0.87196 0.29420 0.00000
0.89206 0.28374 0.00376
0.90669 0.27477 0.00440
0.91952 0.26767 0.00000
0.93182 0.26194 0.00000
0.94256 0.25262 0.00653
0.95072 0.25175 0.01104
0.95489 0.25563 0.00850
0.95784 0.26116 0.00211
0.95866 0.26589 0.00000
0.95879 0.26866 0.00000
0.95919 0.27528 0.00000
0.95965 0.28395 0.00000
0.00000 0.28608 0.09593
0.00000 0.28488 0.09083
0.00000 0.28302 0.08671
0.00000 0.28130 0.08412
0.00000 0.28256 0.08616
0.00000 0.28813 0.09185
0.00000 0.29385 0.08736
0.00000 0.29814 0.06721
0.08707 0.30317 0.06630
0.17915 0.31055 0.06976
0.26488 0.31933 0.06702
0.35700 0.33095 0.05855
0.45525 0.34377 0.04421
0.54711 0.35086 0.02426
0.63145 0.35767 0.01717
0.71240 0.36453 0.02082
0.77407 0.36747 0.01781
0.81727 0.36447 0.01535
0.85067 0.36116 0.02403
0.87557 0.35184 0.02338
0.89487 0.33939 0.02550
0.91098 0.32921 0.03348
0.92436 0.31965 0.03502
0.93626 0.30775 0.03645
0.94659 0.29124 0.04485
0.95408 0.28372 0.05188
0.95730 0.28221 0.04610
0.95979 0.28332 0.03435
0.96036 0.28626 0.01515
0.96056 0.28870 0.00000
0.96111 0.29585 0.00000
0.96166 0.30444 0.00000
0.00000 0.33990 0.12024
0.00000 0.33910 0.11652
0.00000 0.33809 0.11356
0.00000 0.33669 0.11410
0.00000 0.33644 0.11731
0.00000 0.33881 0.11885
0.00000 0.34572 0.11965
0.00000 0.34991 0.10336
0.00000 0.35439 0.08828
0.12451 0.36281 0.09479
0.22984 0.37176 0.10061
0.32816 0.38108 0.09313
0.43206 0.39555 0.08705
0.53357 0.40691 0.06888
0.62375 0.41475 0.05618
0.70446 0.42411 0.05512
0.76929 0.42953 0.05561
0.81633 0.42531 0.04962
0.85188 0.42455 0.06373
0.87792 0.41683 0.06366
0.89712 0.40592 0.05700
0.91419 0.39350 0.06901
0.92853 0.38061 0.07388
0.94080 0.36646 0.07952
0.95150 0.34647 0.08476
0.95907 0.33193 0.08613
0.96181 0.32654 0.08517
0.96344 0.32146 0.08033
0.96326 0.31895 0.06462
0.96308 0.31851 0.03898
0.96348 0.32430 0.01551
0.96394 0.33116 0.00000
0.00000 0.39498 0.14873
0.00000 0.39440 0.14595
0.00000 0.39390 0.14407
0.00000 0.39367 0.14591
0.00000 0.39432 0.15162
0.00000 0.39652 0.15571
0.00000 0.40152 0.15563
0.00000 0.40711 0.14655
0.00000 0.41125 0.13047
0.00000 0.41841 0.13142
0.17872 0.42637 0.13306
0.29403 0.43713 0.13466
0.40068 0.44814 0.12465
0.51226 0.46480 0.11849
0.61192 0.47469 0.09801
0.69623 0.48406 0.09227
0.76306 0.49012 0.08989
0.80999 0.49133 0.08709
0.85006 0.48832 0.09851
0.87780 0.48258 0.09964
0.89863 0.47523 0.10247
0.91615 0.46387 0.10562
0.93128 0.45162 0.11180
0.94415 0.43435 0.11589
0.95537 0.41202 0.11859
0.96376 0.39638 0.12401
0.96752 0.38736 0.12404
0.96909 0.37796 0.11612
0.96822 0.37123 0.10723
0.96733 0.36562 0.09284
0.96708 0.36685 0.07631
0.96693 0.36809 0.05566
0.00000 0.45240 0.17827
0.00000 0.45203 0.17602
0.00000 0.45183 0.17462
0.00000 0.45213 0.17681
0.00000 0.45349 0.18524
0.00000 0.45572 0.19245
0.00000 0.45982 0.19511
0.00000 0.46617 0.19150
0.00000 0.47142 0.18033
0.00000 0.47639 0.16910
0.09284 0.48541 0.17358
0.24793 0.49359 0.16902
0.37036 0.50702 0.16725
0.48408 0.52116 0.15587
0.59292 0.53490 0.14646
0.68388 0.54374 0.13011
0.75441 0.55055 0.12533
0.80441 0.55232 0.12337
0.84364 0.55408 0.13403
0.87350 0.54843 0.13410
0.89698 0.54005 0.13419
0.91620 0.53383 0.14313
0.93210 0.52285 0.14906
0.94564 0.50863 0.15370
0.95721 0.48855 0.15064
0.96682 0.46882 0.15724
0.97209 0.45745 0.16159
0.97478 0.44873 0.16153
0.97407 0.44131 0.15428
0.97303 0.43092 0.14172
0.97217 0.42720 0.13047
0.97132 0.42271 0.11547
0.00000 0.50883 0.20887
0.00000 0.50855 0.20655
0.00000 0.50844 0.20497
0.00000 0.50890 0.20675
0.00000 0.51064 0.21703
0.00000 0.51303 0.22767
0.00000 0.51677 0.23382
0.00000 0.52253 0.23329
0.00000 0.52913 0.22596
0.00000 0.53523 0.21564
0.00000 0.54194 0.20932
0.18137 0.55170 0.20953
0.32777 0.56264 0.20273
0.45386 0.57668 0.19508
0.56593 0.58884 0.18193
0.66415 0.59974 0.16961
0.74100 0.60821 0.16360
0.79371 0.60805 0.14327
0.83638 0.61095 0.15793
0.86703 0.61007 0.16509
0.89072 0.60496 0.16528
0.91352 0.59723 0.17392
0.93049 0.58964 0.18084
0.94475 0.58015 0.18899
0.95746 0.56435 0.18971
0.96733 0.54643 0.18884
0.97444 0.53328 0.19463
0.97872 0.52231 0.19821
0.97847 0.51548 0.19670
0.97783 0.50678 0.19057
0.97722 0.50099 0.18284
0.97654 0.49367 0.17069
0.00000 0.56321 0.24032
0.00000 0.56297 0.23785
0.00000 0.56284 0.23572
0.00000 0.56316 0.23574
0.00000 0.56482 0.24456
0.00000 0.56695 0.25793
0.00000 0.56968 0.26735
0.00000 0.57456 0.26959
0.00000 0.58177 0.26471
0.00000 0.58781 0.25436
0.00000 0.59381 0.24239
0.00000 0.60265 0.24039
0.27419 0.61365 0.23653
0.41461 0.62574 0.22695
0.53632 0.63851 0.21631
0.63799 0.64863 0.20113
0.72088 0.65709 0.19255
0.78300 0.66266 0.18854
0.82609 0.66261 0.17487
0.86035 0.66381 0.18978
0.88590 0.66119 0.19357
0.90766 0.65847 0.20530
0.92644 0.65103 0.21173
0.94193 0.64176 0.21614
0.95488 0.63227 0.21778
0.96645 0.61953 0.22738
0.97465 0.60550 0.22903
0.98008 0.59505 0.22920
0.98051 0.58987 0.23143
0.98032 0.58118 0.22773
0.98008 0.57485 0.22462
0.97973 0.56842 0.21935
0.00000 0.61146 0.27327
0.00000 0.61137 0.27150
0.00000 0.61136 0.26996
0.00000 0.61154 0.26935
0.00000 0.61225 0.27329
0.00000 0.61357 0.28401
0.00000 0.61525 0.29381
0.00000 0.61881 0.29894
0.00000 0.62515 0.29625
0.00000 0.63278 0.28812
0.00000 0.63898 0.27701
0.00000 0.64565 0.26483
0.18843 0.65726 0.26515
0.37014 0.66885 0.25682
0.50003 0.68097 0.24569
0.60969 0.69205 0.23406
0.69686 0.69954 0.21896
0.76559 0.70573 0.21527
0.81602 0.71005 0.21324
0.85269 0.71047 0.20882
0.87954 0.71069 0.21745
0.90179 0.70753 0.22440
0.92044 0.70524 0.23795
0.93668 0.69928 0.24522
0.95154 0.68921 0.24739
0.96297 0.67949 0.24872
0.97296 0.67045 0.25863
0.97990 0.66001 0.26347
0.98040 0.65434 0.26067
0.98029 0.64925 0.25691
0.98053 0.64356 0.25623
0.98056 0.63695 0.25347
0.00000 0.65238 0.30028
0.00000 0.65232 0.29873
0.00000 0.65230 0.29728
0.00000 0.65236 0.29629
0.00000 0.65265 0.29806
0.00000 0.65335 0.30578
0.00000 0.65457 0.31535
0.00000 0.65720 0.32232
0.00000 0.66243 0.32282
0.00000 0.67008 0.31673
0.00000 0.67728 0.30679
0.00000 0.68460 0.29560
0.00000 0.69291 0.28527
0.30786 0.70522 0.28356
0.45970 0.71714 0.27249
0.57644 0.72873 0.26164
0.67168 0.73754 0.25103
0.74491 0.74280 0.23645
0.80166 0.74763 0.23657
0.84247 0.75124 0.23895
0.87156 0.75199 0.23840
0.89405 0.75085 0.24121
0.91460 0.74815 0.25308
0.93101 0.74584 0.26628
0.94538 0.74133 0.27131
0.95898 0.73229 0.27829
0.96979 0.72236 0.27797
0.97762 0.71542 0.28245
0.97921 0.71048 0.28911
0.97912 0.70478 0.28606
0.97915 0.70033 0.28132
0.97929 0.69593 0.27686
0.00000 0.68652 0.32172
0.00000 0.68644 0.32013
0.00000 0.68636 0.31855
0.00000 0.68632 0.31715
0.00000 0.68636 0.31779
0.00000 0.68661 0.32354
0.00000 0.68736 0.33294
0.00000 0.68929 0.34053
0.00000 0.69343 0.34368
0.00000 0.69983 0.33992
0.00000 0.70764 0.33188
0.00000 0.71467 0.32076
0.00000 0.72277 0.30861
0.20207 0.73339 0.30105
0.40780 0.74722 0.29786
0.53931 0.75920 0.28592
0.64176 0.76930 0.27672
0.72322 0.77594 0.26687
0.78391 0.77968 0.25334
0.82860 0.78402 0.26116
0.86188 0.78705 0.26536
0.88729 0.78718 0.26569
0.90727 0.78529 0.25881
0.92491 0.78393 0.28001
0.93977 0.78095 0.28924
0.95260 0.77806 0.29708
0.96529 0.77174 0.30684
0.97448 0.76192 0.30584
0.97615 0.75673 0.30199
0.97661 0.75288 0.30505
0.97712 0.74793 0.30604
0.97708 0.74305 0.29794
0.00000 0.71452 0.34026
0.00000 0.71441 0.33848
0.00000 0.71429 0.33663
0.00000 0.71415 0.33473
0.00000 0.71402 0.33455
0.00000 0.71399 0.33910
0.00000 0.71433 0.34818
0.00000 0.71566 0.35585
0.00000 0.71885 0.36052
0.00000 0.72425 0.35954
0.00000 0.73155 0.35342
0.00000 0.73952 0.34409
0.00000 0.74785 0.33263
0.00000 0.75766 0.32043
0.32838 0.77056 0.31494
0.49245 0.78436 0.31026
0.60647 0.79515 0.29859
0.69665 0.80333 0.29096
0.76479 0.80871 0.28472
0.81271 0.81220 0.27735
0.85037 0.81570 0.28449
0.87916 0.81777 0.28985
0.90048 0.81731 0.28655
0.91743 0.81586 0.28296
0.93372 0.81419 0.30544
0.94767 0.81165 0.31368
0.95960 0.81124 0.32386
0.96976 0.80701 0.33210
0.97349 0.79834 0.33167
0.97364 0.79166 0.32055
0.97380 0.78896 0.31734
0.97439 0.78555 0.31961
0.00000 0.73829 0.35508
0.00000 0.73811 0.35279
0.00000 0.73789 0.35017
0.00000 0.73757 0.34665
0.00000 0.73734 0.34530
0.00000 0.73744 0.35056
0.00000 0.73778 0.36005
0.00000 0.73881 0.36915
0.00000 0.74129 0.37541
0.00000 0.74591 0.37704
0.00000 0.75250 0.37235
0.00000 0.76102 0.36455
0.00000 0.76935 0.35287
0.00000 0.77935 0.34061
0.21535 0.79036 0.32819
0.42841 0.80435 0.32672
0.56672 0.81678 0.32099
0.66609 0.82620 0.31113
0.74277 0.83292 0.30789
0.79854 0.83747 0.30429
0.83840 0.84086 0.29828
0.86897 0.84286 0.30729
0.89279 0.84364 0.31329
0.91142 0.84315 0.31365
0.92708 0.84066 0.30805
0.94228 0.84043 0.33115
0.95539 0.83895 0.34026
0.96501 0.83872 0.34788
0.96955 0.83612 0.35869
0.97123 0.82946 0.35507
0.97124 0.82336 0.34030
0.97080 0.82074 0.32834
0.00000 0.75985 0.36921
0.00000 0.75967 0.36700
0.00000 0.75946 0.36454
0.00000 0.75918 0.36137
0.00000 0.75890 0.35902
0.00000 0.75888 0.36125
0.00000 0.75918 0.36921
0.00000 0.76001 0.37946
0.00000 0.76184 0.38706
0.00000 0.76546 0.39133
0.00000 0.77121 0.38981
0.00000 0.77900 0.38294
0.00000 0.78820 0.37366
0.00000 0.79750 0.35970
0.01055 0.80892 0.34686
0.34191 0.82047 0.33630
0.51497 0.83415 0.33744
0.63233 0.84524 0.33249
0.71684 0.85318 0.32577
0.78142 0.85876 0.32544
0.82695 0.86252 0.32371
0.85814 0.86434 0.31993
0.88370 0.86528 0.33039
0.90498 0.86556 0.33741
0.92204 0.86488 0.34108
0.93642 0.86348 0.33377
0.95033 0.86336 0.35745
0.96084 0.86196 0.36572
0.96595 0.86132 0.37104
0.96824 0.86078 0.37794
0.96903 0.85687 0.37654
0.96865 0.85103 0.35950
0.00000 0.77890 0.38457
0.00000 0.77872 0.38239
0.00000 0.77853 0.37995
0.00000 0.77828 0.37680
0.00000 0.77800 0.37387
0.00000 0.77785 0.37368
0.00000 0.77799 0.37917
0.00000 0.77853 0.38940
0.00000 0.77977 0.39829
0.00000 0.78240 0.40450
0.00000 0.78706 0.40587
0.00000 0.79383 0.40120
0.00000 0.80303 0.39341
0.00000 0.81257 0.38065
0.00000 0.82342 0.36439
0.25192 0.83537 0.34987
0.44555 0.84775 0.34443
0.58954 0.86061 0.34815
0.68855 0.87005 0.34440
0.76043 0.87641 0.34042
0.81299 0.88081 0.34304
0.84906 0.88336 0.34354
0.87497 0.88443 0.34027
0.89752 0.88501 0.35274
0.91633 0.88498 0.36166
0.93190 0.88500 0.36787
0.94469 0.88405 0.36095
0.95599 0.88349 0.37676
0.96291 0.88294 0.38753
0.96553 0.88238 0.38929
0.96623 0.88278 0.39576
0.96662 0.87942 0.39552
0.00000 0.79742 0.40033
0.00000 0.79727 0.39811
0.00000 0.79710 0.39563
0.00000 0.79689 0.39232
0.00000 0.79667 0.38890
0.00000 0.79654 0.38729
0.00000 0.79663 0.39060
0.00000 0.79687 0.39978
0.00000 0.79743 0.40986
0.00000 0.79895 0.41703
0.00000 0.80224 0.42058
0.00000 0.80772 0.41884
0.00000 0.81527 0.41191
0.00000 0.82518 0.40180
0.00000 0.83566 0.38469
0.10581 0.84860 0.36718
0.37079 0.86052 0.35291
0.53109 0.87317 0.35479
0.65124 0.88420 0.35978
0.73510 0.89176 0.35712
0.79492 0.89678 0.35627
0.83766 0.90009 0.36119
0.86770 0.90190 0.36294
0.88994 0.90245 0.36117
0.90956 0.90274 0.37523
0.92635 0.90302 0.38412
0.94006 0.90394 0.38764
0.95110 0.90294 0.38103
0.95917 0.90366 0.39377
0.96287 0.90305 0.40521
0.96309 0.90214 0.40353
0.96349 0.90088 0.40828
0.00000 0.82189 0.42031
0.00000 0.82182 0.41842
0.00000 0.82174 0.41630
0.00000 0.82164 0.41345
0.00000 0.82152 0.41029
0.00000 0.82133 0.40795
0.00000 0.82098 0.40858
0.00000 0.82023 0.41431
0.00000 0.81926 0.42322
0.00000 0.81903 0.43019
0.00000 0.82026 0.43489
0.00000 0.82347 0.43534
0.00000 0.82874 0.43036
0.00000 0.83688 0.42201
0.00000 0.84736 0.40788
0.00000 0.85949 0.38808
0.27761 0.87362 0.37064
0.45165 0.88455 0.36099
0.59502 0.89614 0.36954
0.69921 0.90517 0.37360
0.77073 0.91120 0.37132
0.82107 0.91502 0.37367
0.85709 0.91740 0.38007
0.88284 0.91863 0.38277
0.90226 0.91870 0.38160
0.91994 0.91937 0.39511
0.93452 0.92093 0.40008
0.94618 0.92260 0.40413
0.95503 0.92286 0.40296
0.95918 0.92127 0.40750
0.95968 0.92161 0.41786
0.95935 0.92028 0.41536
0.00000 0.84611 0.43575
0.00000 0.84604 0.43405
0.00000 0.84596 0.43213
0.00000 0.84583 0.42952
0.00000 0.84563 0.42650
0.00000 0.84531 0.42388
0.00000 0.84471 0.42322
0.00000 0.84356 0.42654
0.00000 0.84177 0.43379
0.00000 0.84026 0.44090
0.00000 0.83984 0.44628
0.00000 0.84096 0.44881
0.00000 0.84395 0.44702
0.00000 0.84924 0.44032
0.00000 0.85826 0.43087
0.00000 0.86932 0.41452
0.00000 0.88279 0.39666
0.35476 0.89586 0.38232
0.51703 0.90611 0.37574
0.64936 0.91631 0.38491
0.73869 0.92377 0.38771
0.79857 0.92857 0.38629
0.84149 0.93154 0.39110
0.87254 0.93333 0.39810
0.89526 0.93409 0.40130
0.91282 0.93445 0.39812
0.92807 0.93641 0.40907
0.94011 0.93835 0.41440
0.94944 0.93923 0.42053
0.95476 0.93819 0.42183
0.95481 0.93829 0.41545
0.95519 0.93855 0.42742
0.00000 0.86734 0.44832
0.00000 0.86731 0.44685
0.00000 0.86727 0.44521
0.00000 0.86720 0.44296
0.00000 0.86705 0.44028
0.00000 0.86676 0.43773
0.00000 0.86615 0.43635
0.00000 0.86487 0.43776
0.00000 0.86262 0.44302
0.00000 0.85999 0.45014
0.00000 0.85802 0.45601
0.00000 0.85711 0.46040
0.00000 0.85780 0.46141
0.00000 0.86073 0.45776
0.00000 0.86721 0.45126
0.00000 0.87736 0.43968
0.00000 0.88933 0.42126
0.23860 0.90371 0.40361
0.44479 0.91488 0.38741
0.58979 0.92476 0.38684
0.70033 0.93397 0.39756
0.77297 0.94050 0.39997
0.82220 0.94465 0.39927
0.85852 0.94703 0.40630
0.88542 0.94823 0.41327
0.90558 0.94906 0.41504
0.92059 0.95007 0.41033
0.93333 0.95171 0.42205
0.94314 0.95249 0.42899
0.94935 0.95269 0.43486
0.95126 0.95280 0.43293
0.95057 0.95269 0.42516
0.00000 0.87532 0.45590
0.00000 0.87527 0.45456
0.00000 0.87520 0.45305
0.00000 0.87508 0.45098
0.00000 0.87488 0.44848
0.00000 0.87452 0.44595
0.00000 0.87387 0.44418
0.00000 0.87271 0.44455
0.00000 0.87074 0.44856
0.00000 0.86812 0.45576
0.00000 0.86586 0.46242
0.00000 0.86453 0.46805
0.00000 0.86482 0.47134
0.00000 0.86735 0.47135
0.00000 0.87268 0.46693
0.00000 0.88217 0.45990
0.00000 0.89377 0.44434
0.08515 0.90683 0.42306
0.39617 0.92075 0.40410
0.53881 0.93105 0.38939
0.65906 0.94124 0.39717
0.74668 0.94976 0.40798
0.80354 0.95560 0.40969
0.84292 0.95883 0.41011
0.87349 0.96027 0.41828
0.89656 0.96105 0.42438
0.91367 0.96191 0.42600
0.92616 0.96248 0.42163
0.93705 0.96321 0.43487
0.94443 0.96360 0.44279
0.94782 0.96392 0.44683
0.94862 0.96414 0.44953
0.00000 0.87573 0.45983
0.00000 0.87566 0.45857
0.00000 0.87556 0.45715
0.00000 0.87542 0.45520
