cube lut/classic chrome_sRGB.cube
# sRGB
# github.com/abpy/FujifilmCameraProfiles
LUT_3D_SIZE 5
DOMAIN_MIN 0.000000 0.000000 0.000000
DOMAIN_MAX 0.903226 0.903226 0.903226
0.00000 0.00000 0.00000
0.16266 0.00522 0.00005
0.62926 0.05698 0.00764
0.90783 0.14541 0.00000
1.00000 0.22751 0.00000
0.00000 0.13873 0.00441
0.17854 0.17330 0.01133
0.65674 0.22308 0.03678
0.92358 0.26467 0.06489
1.00000 0.32963 0.00000
0.00000 0.52452 0.00000
0.00000 0.53947 0.00000
0.59606 0.57975 0.00000
0.91159 0.60352 0.05916
1.00000 0.59943 0.09495
0.00000 0.78455 0.00000
0.00000 0.79038 0.00000
0.43642 0.80992 0.00000
0.84230 0.82695 0.11545
1.00000 0.83846 0.18957
0.00000 0.92551 0.00000
0.00000 0.92787 0.00000
0.00000 0.94343 0.14804
0.76669 0.95808 0.23938
0.97985 0.96882 0.32265
0.00513 0.01002 0.15624
0.22632 0.04264 0.20453
0.65468 0.10935 0.27641
0.91856 0.17701 0.32430
1.00000 0.22888 0.31269
0.00000 0.19834 0.19000
0.22821 0.22810 0.22800
0.65904 0.28745 0.29535
0.93119 0.33293 0.34098
1.00000 0.36573 0.35309
0.00000 0.54748 0.21378
0.00000 0.56566 0.24021
0.61006 0.59888 0.29261
0.90269 0.63186 0.35074
1.00000 0.63432 0.35691
0.00000 0.79279 0.23667
0.00000 0.79912 0.25521
0.48342 0.81730 0.31856
0.84482 0.83258 0.36209
1.00000 0.84729 0.40550
0.00000 0.92934 0.27008
0.00000 0.93413 0.26585
0.19922 0.94739 0.34808
0.77897 0.96122 0.41488
0.98223 0.97233 0.48842
0.01639 0.05226 0.55928
0.26367 0.08506 0.59766
0.69432 0.19432 0.65331
0.93646 0.29970 0.67838
1.00000 0.38165 0.68744
0.00000 0.31607 0.58638
0.31892 0.34333 0.60778
0.69132 0.38544 0.64458
0.92896 0.45510 0.67970
1.00000 0.52645 0.70976
0.00000 0.60318 0.59096
0.00000 0.61411 0.60780
0.64042 0.64038 0.63989
0.90315 0.66966 0.67180
1.00000 0.70307 0.70650
0.00000 0.80868 0.59229
0.00000 0.81581 0.60637
0.54251 0.83184 0.64104
0.85257 0.84776 0.67619
1.00000 0.86814 0.71782
0.00000 0.93998 0.61209
0.00000 0.94471 0.62540
0.43397 0.95728 0.66169
0.80733 0.96972 0.70071
0.98371 0.97727 0.73970
0.02664 0.12356 0.80637
0.28281 0.15059 0.83707
0.70159 0.23668 0.88544
0.94820 0.38207 0.90290
1.00000 0.49542 0.89501
0.00000 0.37287 0.83189
0.35886 0.40684 0.85473
0.72053 0.47037 0.87969
0.93495 0.54980 0.88747
1.00000 0.61503 0.89102
0.00000 0.66603 0.83279
0.32814 0.67572 0.84165
0.68731 0.70380 0.86039
0.90668 0.72838 0.87463
1.00000 0.75999 0.88571
0.00000 0.83644 0.81946
0.00000 0.84323 0.82979
0.61107 0.85685 0.85045
0.87198 0.87191 0.87192
1.00000 0.88950 0.88881
0.00000 0.95376 0.81818
0.00000 0.95881 0.82802
0.52975 0.96970 0.84934
0.83259 0.97645 0.87396
0.98463 0.98267 0.88928
0.04057 0.21524 0.94032
0.30526 0.23591 0.96663
0.69715 0.30893 1.00000
0.94678 0.41077 1.00000
1.00000 0.56902 1.00000
0.00000 0.41642 0.96940
0.34784 0.44332 0.98663
0.72113 0.50094 1.00000
0.94498 0.57655 1.00000
1.00000 0.68719 1.00000
0.36410 0.74061 0.97227
0.51190 0.74950 0.97765
0.75140 0.77175 0.98752
0.92329 0.79939 0.99565
1.00000 0.81953 0.99332
0.24796 0.87110 0.96475
0.44164 0.87549 0.96987
0.70744 0.88599 0.97967
0.89146 0.90024 0.98839
1.00000 0.91058 0.98974
0.00000 0.96418 0.94441
0.28709 0.96712 0.95033
0.63393 0.97269 0.96231
0.84285 0.97783 0.97296
0.98058 0.98052 0.98061
