cube lut/classic chrome_DisplayP3.cube
# DisplayP3
# github.com/abpy/FujifilmCameraProfiles
LUT_3D_SIZE 32
0.00000 0.00000 0.00000
0.00403 0.00000 0.00000
0.01164 0.00000 0.00000
0.02509 0.00000 0.00000
0.04487 0.00000 0.00000
0.07858 0.00140 0.00000
0.12781 0.00559 0.00000
0.18892 0.01275 0.00049
0.25917 0.02380 0.00254
0.33118 0.04189 0.00790
0.40088 0.06383 0.01732
0.46709 0.08180 0.02749
0.52858 0.09904 0.03933
0.58553 0.11538 0.05094
0.63828 0.12995 0.05796
0.68443 0.14313 0.06166
0.72475 0.15650 0.06255
0.76004 0.16976 0.05855
0.79145 0.18078 0.05406
0.82023 0.19052 0.04681
0.84702 0.19943 0.03548
0.87213 0.20789 0.02602
0.89499 0.21602 0.01368
0.91462 0.22339 0.00000
0.93012 0.22991 0.00000
0.93979 0.23543 0.00000
0.94394 0.23994 0.00000
0.94623 0.24446 0.00000
0.94823 0.24971 0.00000
0.95055 0.25629 0.00000
0.95443 0.26641 0.00000
0.96313 0.28631 0.00000
0.00000 0.00225 0.00000
0.00252 0.00321 0.00005
0.01094 0.00408 0.00023
0.02420 0.00589 0.00014
0.04351 0.00635 0.00068
0.07540 0.00989 0.00246
0.12538 0.01558 0.00296
0.18736 0.02503 0.00377
0.25835 0.03847 0.00496
0.33105 0.05654 0.00923
0.40130 0.07653 0.01762
0.46801 0.09347 0.02657
0.52981 0.10994 0.03734
0.58685 0.12551 0.04874
0.63966 0.13960 0.05556
0.68578 0.15258 0.05875
0.72609 0.16586 0.05901
0.76134 0.17885 0.05423
0.79270 0.18967 0.04903
0.82145 0.19933 0.04073
0.84824 0.20816 0.02836
0.87334 0.21655 0.01833
0.89620 0.22453 0.00566
0.91582 0.23177 0.00000
0.93132 0.23817 0.00000
0.94096 0.24356 0.00000
0.94502 0.24789 0.00000
0.94719 0.25220 0.00000
0.94909 0.25720 0.00000
0.95130 0.26347 0.00000
0.95504 0.27318 0.00000
0.96357 0.29257 0.00000
0.00000 0.00812 0.00000
0.00101 0.00822 0.00047
0.00987 0.01028 0.00106
0.02463 0.01292 0.00171
0.04414 0.01369 0.00299
0.07409 0.01672 0.00522
0.12394 0.02320 0.00685
0.18564 0.03518 0.00846
0.25662 0.05042 0.00991
0.33002 0.06786 0.01336
0.40100 0.08727 0.02061
0.46842 0.10409 0.02820
0.53072 0.12037 0.03774
0.58799 0.13554 0.04848
0.64094 0.14939 0.05484
0.68711 0.16238 0.05725
0.72746 0.17571 0.05664
0.76271 0.18854 0.05088
0.79403 0.19923 0.04477
0.82278 0.20885 0.03524
0.84959 0.21767 0.02200
0.87470 0.22602 0.01116
0.89756 0.23386 0.00000
0.91718 0.24098 0.00000
0.93268 0.24728 0.00000
0.94230 0.25255 0.00000
0.94625 0.25671 0.00000
0.94831 0.26079 0.00000
0.95009 0.26553 0.00000
0.95217 0.27148 0.00000
0.95575 0.28075 0.00000
0.96408 0.29957 0.00000
0.00000 0.01992 0.00000
0.00000 0.01822 0.00088
0.00726 0.02007 0.00206
0.02239 0.02308 0.00349
0.04632 0.02460 0.00555
0.07594 0.02959 0.00763
0.12572 0.03694 0.00997
0.18614 0.04875 0.01170
0.25611 0.06296 0.01476
0.32917 0.07970 0.02027
0.40029 0.09882 0.02806
0.46837 0.11580 0.03458
0.53140 0.13216 0.04247
0.58906 0.14718 0.05175
0.64227 0.16116 0.05712
0.68863 0.17455 0.05830
0.72913 0.18822 0.05640
0.76446 0.20107 0.04932
0.79578 0.21179 0.04189
0.82456 0.22153 0.03091
0.85143 0.23043 0.01618
0.87656 0.23881 0.00389
0.89945 0.24654 0.00000
0.91910 0.25356 0.00000
0.93463 0.25977 0.00000
0.94422 0.26492 0.00000
0.94803 0.26886 0.00000
0.94992 0.27266 0.00000
0.95154 0.27708 0.00000
0.95343 0.28260 0.00000
0.95678 0.29128 0.00000
0.96482 0.30936 0.00000
0.00000 0.03901 0.00000
0.00000 0.03412 0.00208
0.00383 0.03629 0.00365
0.01815 0.03945 0.00559
0.04327 0.04323 0.00773
0.08289 0.05088 0.01073
0.12801 0.05708 0.01288
0.18779 0.06942 0.01665
0.25671 0.08152 0.02017
0.33000 0.09452 0.02457
0.40095 0.11199 0.03330
0.46898 0.12884 0.04249
0.53229 0.14507 0.05120
0.59014 0.15978 0.06030
0.64350 0.17403 0.06476
0.69008 0.18797 0.06449
0.73088 0.20218 0.06121
0.76639 0.21539 0.05273
0.79777 0.22644 0.04394
0.82666 0.23657 0.03114
0.85367 0.24579 0.01416
0.87888 0.25439 0.00000
0.90185 0.26215 0.00000
0.92157 0.26917 0.00000
0.93716 0.27537 0.00000
0.94677 0.28047 0.00000
0.95041 0.28420 0.00000
0.95208 0.28771 0.00000
0.95348 0.29176 0.00000
0.95513 0.29680 0.00000
0.95819 0.30478 0.00000
0.96581 0.32194 0.00000
0.00000 0.06718 0.00000
0.00000 0.05858 0.00392
0.00000 0.05588 0.00645
0.01083 0.06125 0.00747
0.03674 0.06768 0.01037
0.07537 0.07578 0.01323
0.12784 0.08293 0.01746
0.18856 0.09564 0.02155
0.25667 0.10668 0.02718
0.33056 0.11795 0.03381
0.40219 0.13238 0.03913
0.47078 0.14617 0.04547
0.53453 0.16060 0.05503
0.59228 0.17415 0.06760
0.64504 0.18842 0.07436
0.69160 0.20280 0.07532
0.73270 0.21725 0.07262
0.76841 0.23085 0.06377
0.79986 0.24228 0.05428
0.82891 0.25294 0.04034
0.85615 0.26269 0.02021
0.88151 0.27176 0.00224
0.90463 0.27977 0.00000
0.92449 0.28700 0.00000
0.94022 0.29338 0.00000
0.94991 0.29857 0.00000
0.95338 0.30220 0.00000
0.95480 0.30547 0.00000
0.95594 0.30919 0.00000
0.95730 0.31373 0.00000
0.95998 0.32095 0.00000
0.96708 0.33708 0.00000
0.00000 0.10601 0.00000
0.00000 0.09709 0.00412
0.00000 0.09090 0.00885
0.00068 0.09189 0.01059
0.02618 0.09897 0.01309
0.06751 0.10613 0.01623
0.11745 0.11550 0.02125
0.18504 0.12934 0.02490
0.25486 0.13976 0.03225
0.33010 0.15018 0.04263
0.40187 0.16300 0.04796
0.47209 0.17410 0.05342
0.53739 0.18496 0.05939
0.59577 0.19425 0.06940
0.64723 0.20650 0.07771
0.69363 0.22024 0.08240
0.73494 0.23406 0.08406
0.77073 0.24785 0.07834
0.80214 0.25959 0.07114
0.83130 0.27063 0.05931
0.85881 0.28079 0.03917
0.88435 0.29027 0.01689
0.90767 0.29859 0.00000
0.92772 0.30616 0.00000
0.94369 0.31290 0.00000
0.95356 0.31838 0.00000
0.95688 0.32208 0.00000
0.95803 0.32523 0.00000
0.95889 0.32873 0.00000
0.95993 0.33286 0.00000
0.96218 0.33935 0.00000
0.96862 0.35438 0.00000
0.00000 0.15449 0.00000
0.00000 0.14729 0.00396
0.00000 0.14078 0.00982
0.00000 0.13700 0.01276
0.00298 0.14177 0.01517
0.05078 0.14858 0.01787
0.10710 0.15581 0.02160
0.17175 0.16662 0.02728
0.24893 0.18122 0.03606
0.32544 0.19182 0.04956
0.39863 0.20238 0.05587
0.47094 0.21210 0.06394
0.53795 0.22125 0.06862
0.59892 0.22836 0.07403
0.64966 0.23511 0.08063
0.69600 0.24395 0.08424
0.73763 0.25497 0.08833
0.77356 0.26786 0.08720
0.80480 0.27916 0.08471
0.83396 0.29006 0.07802
0.86174 0.30046 0.06416
0.88747 0.31023 0.04506
0.91099 0.31876 0.02132
0.93126 0.32652 0.00000
0.94750 0.33354 0.00000
0.95765 0.33932 0.00000
0.96082 0.34316 0.00000
0.96170 0.34630 0.00000
0.96227 0.34969 0.00000
0.96296 0.35353 0.00000
0.96475 0.35938 0.00000
0.97044 0.37329 0.00000
0.00000 0.20777 0.00000
0.00000 0.20240 0.00447
0.00000 0.19702 0.01007
0.00000 0.19208 0.01431
0.00000 0.19193 0.01628
0.01343 0.19806 0.01933
0.08509 0.20464 0.02287
0.15661 0.21287 0.02973
0.23308 0.22520 0.03954
0.31814 0.23854 0.05325
0.39155 0.24942 0.06337
0.46529 0.25783 0.07415
0.53674 0.26705 0.08136
0.59893 0.27341 0.08385
0.65109 0.27670 0.08751
0.69813 0.28079 0.09075
0.74066 0.28639 0.09348
0.77682 0.29436 0.09156
0.80781 0.30307 0.08986
0.83696 0.31282 0.08798
0.86501 0.32263 0.08077
0.89089 0.33205 0.06893
0.91458 0.34056 0.05391
0.93509 0.34846 0.02789
0.95168 0.35569 0.00000
0.96223 0.36163 0.00000
0.96524 0.36547 0.00000
0.96579 0.36847 0.00000
0.96604 0.37170 0.00000
0.96636 0.37527 0.00000
0.96766 0.38053 0.00000
0.97250 0.39328 0.00000
0.00000 0.26303 0.00356
0.00000 0.25921 0.00846
0.00000 0.25514 0.01367
0.00000 0.25048 0.01873
0.00000 0.24724 0.01994
0.00000 0.25231 0.02252
0.04078 0.25836 0.02683
0.13070 0.26618 0.03257
0.21383 0.27599 0.04318
0.29929 0.28711 0.05481
0.38054 0.29811 0.06702
0.45522 0.30822 0.07978
0.52811 0.31636 0.09100
0.59340 0.32198 0.09516
0.64907 0.32597 0.09892
0.69853 0.32778 0.10081
0.74293 0.33055 0.10244
0.78012 0.33400 0.10121
0.81132 0.33702 0.09706
0.84026 0.34201 0.09320
0.86844 0.34907 0.08725
0.89451 0.35724 0.07992
0.91837 0.36510 0.07256
0.93910 0.37243 0.05829
0.95606 0.37950 0.02827
0.96718 0.38552 0.00000
0.97010 0.38939 0.00000
0.97034 0.39216 0.00000
0.97025 0.39508 0.00000
0.97015 0.39822 0.00000
0.97093 0.40277 0.00000
0.97482 0.41415 0.00000
0.00000 0.31822 0.01161
0.00000 0.31569 0.01591
0.00000 0.31300 0.02084
0.00000 0.30983 0.02679
0.00000 0.30734 0.03039
0.00000 0.30761 0.03100
0.00000 0.31371 0.03507
0.08501 0.32055 0.04052
0.18400 0.32927 0.04772
0.27376 0.33879 0.05787
0.36135 0.34718 0.06915
0.44051 0.35725 0.08397
0.51581 0.36477 0.09614
0.58337 0.37258 0.10627
0.64259 0.37666 0.11007
0.69466 0.37930 0.11426
0.74157 0.38114 0.11540
0.78148 0.38271 0.11114
0.81453 0.38253 0.10857
0.84387 0.38327 0.10553
0.87215 0.38516 0.09744
0.89821 0.38873 0.08658
0.92207 0.39380 0.07857
0.94303 0.39977 0.06981
0.96042 0.40613 0.05289
0.97220 0.41156 0.01363
0.97510 0.41499 0.00000
0.97513 0.41740 0.00000
0.97479 0.42003 0.00000
0.97432 0.42273 0.00000
0.97458 0.42651 0.00000
0.97746 0.43623 0.00000
0.00000 0.37189 0.02233
0.00000 0.37014 0.02575
0.00000 0.36818 0.02978
0.00000 0.36561 0.03506
0.00000 0.36297 0.03949
0.00000 0.36142 0.04052
0.00000 0.36484 0.04325
0.00000 0.37146 0.04868
0.13731 0.37907 0.05553
0.24126 0.38739 0.06438
0.33273 0.39687 0.07396
0.41982 0.40630 0.08619
0.49829 0.41390 0.10128
0.57190 0.42087 0.11258
0.63377 0.42855 0.11992
0.68910 0.43196 0.12742
0.73752 0.43474 0.12854
0.77966 0.43536 0.12455
0.81569 0.43433 0.12234
0.84689 0.43243 0.11859
0.87524 0.43199 0.11375
0.90161 0.43163 0.10319
0.92567 0.43180 0.08955
0.94678 0.43331 0.07612
0.96447 0.43666 0.05960
0.97698 0.44066 0.03022
0.97999 0.44337 0.00000
0.97990 0.44491 0.00000
0.97939 0.44669 0.00000
0.97863 0.44869 0.00000
0.97851 0.45177 0.00000
0.98043 0.45977 0.00000
0.00000 0.42395 0.03675
0.00000 0.42288 0.03940
0.00000 0.42168 0.04254
0.00000 0.42004 0.04661
0.00000 0.41819 0.05038
0.00000 0.41667 0.05177
0.00000 0.41713 0.05245
0.00000 0.42232 0.05705
0.05953 0.42993 0.06344
0.19560 0.43889 0.07097
0.30191 0.44758 0.08111
0.39367 0.45632 0.09134
0.47534 0.46249 0.10390
0.55582 0.47112 0.11703
0.62378 0.47752 0.12575
0.68302 0.48418 0.13308
0.73197 0.48866 0.14052
0.77562 0.48786 0.13781
0.81343 0.48810 0.13911
0.84804 0.48606 0.13637
0.87692 0.48347 0.13007
0.90315 0.48122 0.12126
0.92781 0.47985 0.10936
0.94993 0.47755 0.09425
0.96832 0.47588 0.07367
0.98156 0.47554 0.04270
0.98452 0.47534 0.00000
0.98434 0.47525 0.00000
0.98380 0.47594 0.00000
0.98287 0.47684 0.00000
0.98250 0.47881 0.00000
0.98363 0.48478 0.00000
0.00000 0.47359 0.05330
0.00000 0.47301 0.05503
0.00000 0.47233 0.05712
0.00000 0.47135 0.06002
0.00000 0.47011 0.06308
0.00000 0.46885 0.06474
0.00000 0.46801 0.06429
0.00000 0.47032 0.06652
0.00000 0.47630 0.07165
0.13317 0.48574 0.07857
0.25794 0.49667 0.08630
0.36340 0.50607 0.09657
0.45114 0.51245 0.10689
0.53229 0.51875 0.11811
0.60992 0.52692 0.13056
0.67365 0.53263 0.13675
0.72603 0.53931 0.14882
0.76981 0.54104 0.15221
0.80861 0.53983 0.15482
0.84350 0.54016 0.15553
0.87649 0.53715 0.14991
0.90323 0.53407 0.14114
0.92749 0.53097 0.12904
0.95070 0.52800 0.11662
0.97089 0.52445 0.10052
0.98582 0.52010 0.07361
0.98908 0.51536 0.01454
0.98859 0.51112 0.00000
0.98783 0.50844 0.00000
0.98675 0.50727 0.00000
0.98632 0.50810 0.00000
0.98691 0.51198 0.00000
0.00000 0.52071 0.06854
0.00000 0.52055 0.06967
0.00000 0.52033 0.07108
0.00000 0.51995 0.07313
0.00000 0.51931 0.07552
0.00000 0.51839 0.07720
0.00000 0.51726 0.07694
0.00000 0.51711 0.07648
0.00000 0.52093 0.07968
0.00000 0.52911 0.08527
0.20176 0.54031 0.09255
0.32064 0.55090 0.10091
0.42185 0.55853 0.11067
0.50738 0.56392 0.12123
0.58739 0.57118 0.13179
0.65826 0.58024 0.14260
0.71612 0.58497 0.15219
0.76238 0.58837 0.16043
0.80201 0.59007 0.16560
0.83914 0.58911 0.16890
0.87062 0.58801 0.16546
0.90052 0.58595 0.16045
0.92528 0.58285 0.15094
0.94880 0.57959 0.14054
0.97095 0.57525 0.12591
0.98845 0.57041 0.10768
0.99316 0.56380 0.06892
0.99265 0.55581 0.00000
0.99178 0.54821 0.00000
0.99042 0.54254 0.00000
0.98980 0.54014 0.00000
0.99003 0.54120 0.00000
0.00000 0.56480 0.08231
0.00000 0.56502 0.08303
0.00000 0.56526 0.08394
0.00000 0.56554 0.08532
0.00000 0.56582 0.08702
0.00000 0.56602 0.08840
0.00000 0.56599 0.08845
0.00000 0.56581 0.08722
0.00000 0.56759 0.08774
0.00000 0.57324 0.09171
0.11100 0.58219 0.09815
0.26860 0.59186 0.10537
0.38225 0.59972 0.11500
0.47829 0.60583 0.12414
0.56306 0.61210 0.13581
0.63708 0.61959 0.14430
0.70083 0.62628 0.15647
0.75156 0.63121 0.16453
0.79369 0.63363 0.17092
0.83034 0.63460 0.17662
0.86443 0.63460 0.17911
0.89490 0.63296 0.17552
0.92123 0.63138 0.17096
0.94535 0.62867 0.16408
0.96843 0.62534 0.15287
0.98889 0.62051 0.13763
0.99602 0.61365 0.10961
0.99588 0.60562 0.06635
0.99533 0.59554 0.00000
0.99394 0.58537 0.00000
0.99318 0.57847 0.00000
0.99305 0.57484 0.00000
0.00000 0.60502 0.09486
0.00000 0.60549 0.09527
0.00000 0.60602 0.09581
0.00000 0.60673 0.09665
0.00000 0.60761 0.09768
0.00000 0.60857 0.09850
0.00000 0.60944 0.09830
0.00000 0.60997 0.09670
0.00000 0.61108 0.09558
0.00000 0.61544 0.09764
0.00000 0.62255 0.10326
0.19723 0.63089 0.11043
0.33379 0.63792 0.11758
0.44384 0.64455 0.12902
0.53552 0.65073 0.13830
0.61470 0.65615 0.14994
0.68223 0.66090 0.15636
0.73701 0.66860 0.16891
0.78268 0.67263 0.17378
0.82211 0.67387 0.18100
0.85592 0.67476 0.18727
0.88790 0.67602 0.18969
0.91613 0.67411 0.18730
0.94144 0.67312 0.18430
0.96471 0.67047 0.17692
0.98688 0.66674 0.16533
0.99751 0.66155 0.14541
0.99810 0.65399 0.11407
0.99811 0.64399 0.07138
0.99704 0.63285 0.00000
0.99622 0.62334 0.00000
0.99594 0.61530 0.00000
0.00000 0.64134 0.10645
0.00000 0.64192 0.10668
0.00000 0.64258 0.10698
0.00000 0.64349 0.10745
0.00000 0.64464 0.10802
0.00000 0.64597 0.10840
0.00000 0.64732 0.10797
0.00000 0.64850 0.10617
0.00000 0.64950 0.10379
0.00000 0.65270 0.10379
0.00000 0.65900 0.10819
0.06553 0.66637 0.11517
0.27594 0.67340 0.12251
0.39911 0.67912 0.13105
0.50336 0.68528 0.14313
0.58769 0.69087 0.15165
0.65988 0.69536 0.16255
0.72036 0.70030 0.16683
0.76939 0.70660 0.17944
0.81247 0.70962 0.18214
0.84827 0.71020 0.19046
0.88001 0.71170 0.19667
0.90953 0.71275 0.19921
0.93657 0.71080 0.20191
0.96099 0.71030 0.19501
0.98333 0.70720 0.18913
0.99734 0.70346 0.17438
0.99897 0.69791 0.15391
0.99993 0.68981 0.12444
0.99959 0.67880 0.08259
0.99867 0.66931 0.01307
0.99826 0.66046 0.00000
0.00000 0.67424 0.11716
0.00000 0.67487 0.11727
0.00000 0.67557 0.11744
0.00000 0.67655 0.11769
0.00000 0.67780 0.11798
0.00000 0.67926 0.11807
0.00000 0.68083 0.11749
0.00000 0.68237 0.11563
0.00000 0.68371 0.11267
0.00000 0.68569 0.11065
0.00000 0.69108 0.11276
0.00000 0.69785 0.11920
0.19532 0.70451 0.12699
0.34963 0.71020 0.13386
0.46234 0.71530 0.14386
0.55814 0.72144 0.15518
0.63475 0.72655 0.16370
0.69950 0.73060 0.17384
0.75372 0.73601 0.17608
0.79914 0.74106 0.18976
0.83920 0.74322 0.19055
0.87250 0.74386 0.19987
0.90240 0.74518 0.20441
0.93007 0.74502 0.20771
0.95581 0.74464 0.21144
0.97941 0.74299 0.20528
0.99593 0.74030 0.19765
0.99895 0.73583 0.18434
1.00000 0.72961 0.16534
1.00000 0.72119 0.13773
1.00000 0.71272 0.09883
0.99970 0.70455 0.03700
0.00000 0.70429 0.12690
0.00000 0.70492 0.12698
0.00000 0.70564 0.12709
0.00000 0.70664 0.12724
0.00000 0.70791 0.12740
0.00000 0.70941 0.12737
0.00000 0.71106 0.12676
0.00000 0.71275 0.12499
0.00000 0.71432 0.12184
0.00000 0.71582 0.11848
0.00000 0.71937 0.11778
0.00000 0.72547 0.12237
0.00087 0.73179 0.12996
0.28506 0.73780 0.13778
0.41760 0.74302 0.14483
0.52077 0.74840 0.15614
0.60757 0.75452 0.16669
0.67624 0.75876 0.17599
0.73473 0.76273 0.18422
0.78385 0.76738 0.18812
0.82578 0.77263 0.19814
0.86317 0.77381 0.20130
0.89476 0.77473 0.20629
0.92348 0.77534 0.21309
0.94952 0.77550 0.21474
0.97400 0.77592 0.22045
0.99418 0.77401 0.21575
0.99846 0.76978 0.20581
1.00000 0.76501 0.19412
1.00000 0.75769 0.17690
1.00000 0.75089 0.15208
1.00000 0.74551 0.11842
0.00000 0.73190 0.13554
0.00000 0.73254 0.13561
0.00000 0.73325 0.13571
0.00000 0.73425 0.13583
0.00000 0.73554 0.13595
0.00000 0.73706 0.13591
0.00000 0.73875 0.13540
0.00000 0.74049 0.13390
0.00000 0.74211 0.13106
0.00000 0.74346 0.12744
0.00000 0.74525 0.12496
0.00000 0.74993 0.12575
0.00000 0.75590 0.13228
0.18674 0.76250 0.14066
0.36123 0.76814 0.14771
0.48008 0.77311 0.15514
0.57441 0.77888 0.16771
0.65169 0.78455 0.17588
0.71367 0.78817 0.18616
0.76653 0.79186 0.19328
0.81084 0.79603 0.19541
0.84978 0.79987 0.20654
0.88528 0.80172 0.20883
0.91548 0.80262 0.21298
0.94284 0.80349 0.22068
0.96706 0.80352 0.22290
0.98936 0.80429 0.22735
0.99736 0.80017 0.22508
1.00000 0.79612 0.21278
1.00000 0.79053 0.20458
1.00000 0.78394 0.18756
1.00000 0.77943 0.16722
0.00000 0.75729 0.14301
0.00000 0.75792 0.14310
0.00000 0.75862 0.14319
0.00000 0.75962 0.14332
0.00000 0.76092 0.14342
0.00000 0.76247 0.14339
0.00000 0.76423 0.14295
0.00000 0.76608 0.14166
0.00000 0.76787 0.13908
0.00000 0.76941 0.13536
0.00000 0.77072 0.13193
0.00000 0.77313 0.12994
0.00000 0.77783 0.13328
0.00000 0.78393 0.14161
0.28598 0.79105 0.15050
0.43011 0.79573 0.15644
0.53702 0.80055 0.16545
0.62254 0.80668 0.17822
0.69136 0.81156 0.18384
0.74734 0.81499 0.19556
0.79496 0.81834 0.20098
0.83568 0.82138 0.20316
0.87249 0.82460 0.21425
0.90583 0.82720 0.21693
0.93445 0.82857 0.21878
0.96022 0.82895 0.22884
0.98238 0.82941 0.23009
0.99447 0.82757 0.23234
1.00000 0.82376 0.23107
1.00000 0.81892 0.22037
1.00000 0.81369 0.21080
1.00000 0.80966 0.19884
0.00000 0.78058 0.14948
0.00000 0.78119 0.14958
0.00000 0.78188 0.14969
0.00000 0.78285 0.14983
0.00000 0.78412 0.14996
0.00000 0.78566 0.14996
0.00000 0.78742 0.14962
0.00000 0.78933 0.14857
0.00000 0.79126 0.14637
0.00000 0.79301 0.14292
0.00000 0.79443 0.13912
0.00000 0.79588 0.13629
0.00000 0.79875 0.13574
0.00000 0.80305 0.14243
0.17425 0.80991 0.15191
0.36902 0.81676 0.16053
0.49331 0.82128 0.16607
0.58820 0.82642 0.17678
0.66559 0.83195 0.18786
0.72718 0.83596 0.19178
0.77787 0.83980 0.20454
0.82139 0.84256 0.20923
0.85918 0.84473 0.20996
0.89388 0.84785 0.22232
0.92525 0.85073 0.22477
0.95270 0.85163 0.22597
0.97633 0.85181 0.23512
0.99064 0.85147 0.23715
0.99915 0.84927 0.23542
1.00000 0.84507 0.23672
1.00000 0.83920 0.22726
1.00000 0.83670 0.21951
0.00000 0.80202 0.15519
0.00000 0.80259 0.15531
0.00000 0.80324 0.15544
0.00000 0.80417 0.15561
0.00000 0.80537 0.15578
0.00000 0.80683 0.15585
0.00000 0.80853 0.15562
0.00000 0.81038 0.15479
0.00000 0.81229 0.15295
0.00000 0.81411 0.14986
0.00000 0.81567 0.14600
0.00000 0.81696 0.14262
0.00000 0.81893 0.14016
0.00000 0.82235 0.14259
0.00000 0.82697 0.15143
0.28724 0.83436 0.16199
0.44111 0.84071 0.16982
0.55067 0.84611 0.17598
0.63510 0.85122 0.18705
0.70487 0.85537 0.19594
0.76018 0.85905 0.19973
0.80583 0.86277 0.21359
0.84596 0.86496 0.21656
0.88151 0.86692 0.21773
0.91430 0.87001 0.23032
0.94409 0.87238 0.23387
0.97035 0.87248 0.23010
0.98758 0.87279 0.24060
0.99759 0.87165 0.24304
1.00000 0.86921 0.23975
1.00000 0.86455 0.24080
1.00000 0.86046 0.23432
0.00000 0.82189 0.16040
0.00000 0.82243 0.16055
0.00000 0.82304 0.16071
0.00000 0.82391 0.16092
0.00000 0.82504 0.16115
0.00000 0.82643 0.16130
0.00000 0.82804 0.16121
0.00000 0.82981 0.16062
0.00000 0.83166 0.15915
0.00000 0.83345 0.15650
0.00000 0.83506 0.15281
0.00000 0.83638 0.14893
0.00000 0.83780 0.14577
0.00000 0.84058 0.14454
0.00000 0.84427 0.15041
0.16403 0.85000 0.16109
0.37531 0.85773 0.17208
0.50520 0.86395 0.17919
0.60241 0.86971 0.18599
0.67773 0.87394 0.19669
0.74021 0.87723 0.20342
0.78951 0.88078 0.20767
0.83128 0.88416 0.22269
0.86919 0.88595 0.22423
0.90269 0.88786 0.22285
0.93371 0.89081 0.23841
0.96244 0.89335 0.24145
0.98463 0.89385 0.23331
0.99618 0.89373 0.24494
1.00000 0.89093 0.24874
1.00000 0.88735 0.24226
1.00000 0.88518 0.24314
0.00000 0.84038 0.16542
0.00000 0.84089 0.16560
0.00000 0.84147 0.16579
0.00000 0.84230 0.16604
0.00000 0.84339 0.16632
0.00000 0.84473 0.16654
0.00000 0.84629 0.16656
0.00000 0.84804 0.16614
0.00000 0.84989 0.16497
0.00000 0.85175 0.16273
0.00000 0.85350 0.15940
0.00000 0.85500 0.15570
0.00000 0.85631 0.15253
0.00000 0.85826 0.14972
0.00000 0.86181 0.15059
0.00000 0.86632 0.15960
0.28610 0.87279 0.17167
0.45024 0.87963 0.18240
0.56280 0.88578 0.18811
0.64839 0.89129 0.19531
0.71601 0.89484 0.20502
0.77151 0.89791 0.20963
0.81556 0.90128 0.21725
0.85530 0.90406 0.23104
0.89138 0.90580 0.22993
0.92303 0.90786 0.22782
0.95274 0.91111 0.24635
0.97824 0.91393 0.24892
0.99653 0.91562 0.23343
1.00000 0.91307 0.24771
1.00000 0.90903 0.25279
1.00000 0.90719 0.24561
0.00000 0.85751 0.17065
0.00000 0.85799 0.17085
0.00000 0.85855 0.17108
0.00000 0.85934 0.17137
0.00000 0.86039 0.17170
0.00000 0.86169 0.17199
0.00000 0.86323 0.17211
0.00000 0.86497 0.17183
0.00000 0.86687 0.17083
0.00000 0.86884 0.16878
0.00000 0.87080 0.16551
0.00000 0.87262 0.16144
0.00000 0.87422 0.15766
0.00000 0.87585 0.15458
0.00000 0.87847 0.15188
0.00000 0.88265 0.15682
0.14859 0.88799 0.16866
0.37772 0.89391 0.18168
0.51560 0.90037 0.19189
0.61444 0.90669 0.19656
0.68963 0.91145 0.20365
0.75033 0.91456 0.21319
0.79976 0.91762 0.21589
0.84132 0.92106 0.22579
0.87923 0.92385 0.23904
0.91286 0.92579 0.23532
0.94275 0.92787 0.23266
0.96931 0.92983 0.25355
0.99065 0.93278 0.25588
1.00000 0.93188 0.24051
1.00000 0.92950 0.24942
1.00000 0.92636 0.25652
0.00000 0.87321 0.17643
0.00000 0.87367 0.17667
0.00000 0.87420 0.17694
0.00000 0.87495 0.17729
0.00000 0.87594 0.17771
0.00000 0.87719 0.17810
0.00000 0.87868 0.17836
0.00000 0.88039 0.17826
0.00000 0.88228 0.17751
0.00000 0.88429 0.17576
0.00000 0.88633 0.17271
0.00000 0.88825 0.16854
0.00000 0.88991 0.16416
0.00000 0.89132 0.16073
0.00000 0.89300 0.15699
0.00000 0.89640 0.15607
0.00000 0.90212 0.16565
0.28475 0.90856 0.17998
0.45617 0.91486 0.19319
0.57338 0.92125 0.20231
0.66012 0.92675 0.20652
0.72637 0.93040 0.21364
0.78184 0.93347 0.22155
0.82793 0.93691 0.22213
0.86709 0.94020 0.23443
0.90130 0.94277 0.24683
0.93238 0.94477 0.24043
0.95933 0.94538 0.23629
0.98297 0.94749 0.26012
0.99808 0.94889 0.26213
1.00000 0.94706 0.24245
1.00000 0.94297 0.25053
0.00000 0.88748 0.18301
0.00000 0.88790 0.18330
0.00000 0.88837 0.18361
0.00000 0.88906 0.18404
