cube lut/classic neg_DisplayP3.cube
# DisplayP3
# github.com/abpy/FujifilmCameraProfiles
LUT_3D_SIZE 8
DOMAIN_MIN 0.000000 0.000000 0.000000
DOMAIN_MAX 0.903226 0.903226 0.903226
0.00962 0.01134 0.00946
0.06225 0.01433 0.00282
0.24218 0.04052 0.00000
0.54385 0.12650 0.01951
0.74381 0.18190 0.02112
0.82473 0.21123 0.00000
0.87072 0.27096 0.00000
0.87682 0.27973 0.00000
0.00000 0.06038 0.02381
0.04241 0.06427 0.01972
0.22099 0.08737 0.02007
0.53340 0.15517 0.04827
0.74532 0.20844 0.05550
0.82675 0.23295 0.00000
0.87166 0.28232 0.00000
0.87718 0.29147 0.00000
0.00000 0.20613 0.08647
0.00000 0.18452 0.06167
0.16770 0.20587 0.05393
0.50353 0.25285 0.07970
0.74945 0.27353 0.10407
0.83253 0.27699 0.07581
0.87443 0.30390 0.01323
0.87907 0.31706 0.00000
0.00000 0.41326 0.19845
0.00000 0.39969 0.17583
0.00000 0.39658 0.17059
0.39392 0.43735 0.16078
0.75475 0.48387 0.18214
0.85371 0.43636 0.17600
0.88496 0.37714 0.12563
0.88639 0.37059 0.00000
0.00000 0.60615 0.32821
0.00000 0.60812 0.31608
0.00000 0.60812 0.30518
0.15686 0.63423 0.30822
0.68536 0.69527 0.28950
0.86608 0.69980 0.29573
0.91910 0.64149 0.29055
0.91578 0.57310 0.22624
0.00000 0.72388 0.41782
0.00000 0.72729 0.40780
0.00000 0.73074 0.38683
0.00000 0.73077 0.40006
0.45700 0.78775 0.36404
0.83317 0.83429 0.35609
0.92064 0.82639 0.36780
0.94134 0.79110 0.36235
0.00000 0.80230 0.48423
0.00000 0.80644 0.47703
0.00000 0.81386 0.45823
0.00000 0.81669 0.43606
0.00000 0.81895 0.43349
0.71148 0.88842 0.38262
0.89761 0.90673 0.38857
0.94383 0.90131 0.38894
0.00000 0.83903 0.52207
0.00000 0.84218 0.51584
0.00000 0.84925 0.50009
0.00000 0.85594 0.47560
0.00000 0.85435 0.46898
0.33555 0.88686 0.44588
0.83699 0.95366 0.39979
0.92766 0.95953 0.36792
0.01953 0.01562 0.05427
0.08982 0.02752 0.04844
0.26188 0.04781 0.04179
0.56517 0.13328 0.07466
0.75487 0.18319 0.09373
0.82966 0.20747 0.07908
0.87486 0.27379 0.09756
0.87859 0.28085 0.00000
0.00645 0.07127 0.08110
0.07537 0.08311 0.07690
0.24408 0.10495 0.06887
0.55478 0.16460 0.08256
0.75592 0.20571 0.10595
0.83116 0.22357 0.08927
0.87531 0.28048 0.09683
0.87877 0.28939 0.00000
0.00000 0.20820 0.14528
0.00000 0.20391 0.13745
0.19750 0.22623 0.12473
0.51865 0.27233 0.11256
0.76036 0.29009 0.12849
0.83784 0.27039 0.12939
0.87711 0.29260 0.12475
0.88040 0.30810 0.00000
0.00000 0.41583 0.23318
0.00000 0.40487 0.21232
0.00000 0.41228 0.20337
0.41774 0.45235 0.19645
0.75717 0.49753 0.20110
0.85787 0.45234 0.19556
0.88940 0.37717 0.17812
0.88870 0.36357 0.11502
0.00000 0.61074 0.35290
0.00000 0.61192 0.33623
0.00000 0.60859 0.30857
0.19300 0.63784 0.31013
0.69390 0.69835 0.29752
0.86646 0.70408 0.30374
0.92107 0.65465 0.30766
0.92142 0.59150 0.27049
0.00000 0.72688 0.43763
0.00000 0.72971 0.42502
0.00000 0.73078 0.39383
0.00000 0.73273 0.40339
0.47883 0.79137 0.36881
0.83494 0.83831 0.36463
0.92097 0.83201 0.37621
0.94234 0.80098 0.36981
0.00000 0.80494 0.50073
0.00000 0.80879 0.49230
0.00000 0.81504 0.46889
0.00000 0.81604 0.43512
0.00000 0.82160 0.43648
0.71627 0.89242 0.39264
0.89872 0.91126 0.39982
0.94462 0.90824 0.39881
0.00000 0.84092 0.53520
0.00000 0.84402 0.52828
0.00000 0.85084 0.51020
0.00000 0.85696 0.47961
0.00000 0.85327 0.46984
0.36251 0.89057 0.44738
0.83853 0.95668 0.40573
0.92814 0.96229 0.38043
0.06930 0.04696 0.21360
0.13535 0.05367 0.20381
0.33054 0.09905 0.18951
0.61925 0.16987 0.17470
0.78082 0.20925 0.20177
0.84346 0.21322 0.21658
0.88574 0.28492 0.25942
0.88473 0.28874 0.20612
0.06436 0.12608 0.23287
0.13745 0.14102 0.22999
0.30262 0.16834 0.22049
0.59954 0.22759 0.21307
0.78340 0.26027 0.23048
0.84778 0.24068 0.23680
0.88554 0.28356 0.25751
0.88465 0.28971 0.20587
0.00000 0.24861 0.29235
0.05682 0.25655 0.28835
0.26345 0.28042 0.27921
0.57127 0.32925 0.26470
0.78818 0.36029 0.27471
0.86021 0.33446 0.27872
0.88965 0.30321 0.28022
0.88780 0.30099 0.23220
0.00000 0.44548 0.38243
0.00000 0.44622 0.37780
0.12507 0.46212 0.36825
0.49393 0.50314 0.35037
0.78169 0.54454 0.34921
0.87603 0.51868 0.34765
0.90808 0.44270 0.32510
0.90263 0.39233 0.28135
0.00000 0.62505 0.45961
0.00000 0.62723 0.45383
0.00000 0.63048 0.45215
0.31118 0.66403 0.43300
0.72443 0.71502 0.41104
0.87652 0.72554 0.41808
0.92989 0.69097 0.42139
0.93405 0.63860 0.37996
0.00000 0.73341 0.51057
0.00000 0.73524 0.49980
0.00000 0.73581 0.48714
0.00000 0.74516 0.47513
0.54788 0.80508 0.45321
0.84610 0.84414 0.44227
0.92629 0.84553 0.46357
0.94969 0.82403 0.45572
0.00000 0.81025 0.55343
0.00000 0.81330 0.54449
0.00000 0.81689 0.52095
0.00000 0.81229 0.47531
0.06109 0.83040 0.48363
0.73856 0.90206 0.46961
0.90618 0.91880 0.47431
0.95228 0.91953 0.48320
0.00000 0.84534 0.57424
0.00000 0.84829 0.56655
0.00000 0.85462 0.54574
0.00000 0.85934 0.50572
0.00000 0.85111 0.49788
0.43204 0.90047 0.48002
0.84999 0.96222 0.46661
0.93474 0.96795 0.46668
0.13782 0.10331 0.45285
0.20619 0.11035 0.44051
0.41428 0.15918 0.42060
0.69300 0.23317 0.40513
0.81690 0.24988 0.39556
0.86663 0.24711 0.39297
0.90212 0.29941 0.43770
0.90031 0.30742 0.39916
0.14123 0.18690 0.47192
0.22264 0.20483 0.47065
0.41434 0.24208 0.45356
0.67631 0.30585 0.43427
0.81882 0.31726 0.42758
0.87284 0.29446 0.42214
0.90399 0.30901 0.44745
0.90335 0.31811 0.41651
0.10421 0.32913 0.52378
0.18624 0.33903 0.51967
0.37673 0.36896 0.50773
0.65234 0.41349 0.48415
0.82268 0.43552 0.48117
0.88745 0.42723 0.49188
0.91691 0.40239 0.50056
0.91848 0.40030 0.48516
0.00000 0.50414 0.60778
0.00000 0.50789 0.60390
0.25681 0.52987 0.58836
0.59018 0.56907 0.55915
0.81830 0.59588 0.54644
0.89963 0.58581 0.55494
0.93522 0.55182 0.55843
0.93764 0.53940 0.54488
0.00000 0.65229 0.66825
0.00000 0.65386 0.66595
0.00000 0.66359 0.65855
0.42879 0.70440 0.63239
0.77367 0.75033 0.60958
0.89963 0.75815 0.61702
0.94824 0.74026 0.62797
0.95833 0.72357 0.62481
0.00000 0.74586 0.69064
0.00000 0.74752 0.69085
0.00000 0.74800 0.69067
0.08169 0.77139 0.68020
0.64693 0.83032 0.64816
0.87555 0.86060 0.63958
0.94421 0.86595 0.66382
0.96794 0.85294 0.66758
0.00000 0.81593 0.68655
0.00000 0.81761 0.68652
0.00000 0.81706 0.69188
0.00000 0.81365 0.69181
0.36891 0.85501 0.67096
0.80189 0.91610 0.65214
0.92599 0.93107 0.65195
0.96665 0.93042 0.66761
0.00000 0.85166 0.66944
0.00000 0.85435 0.66610
0.00000 0.85985 0.66154
0.00000 0.86246 0.66431
0.00000 0.85643 0.66246
0.57082 0.91954 0.63553
0.88062 0.96906 0.64229
0.95310 0.97527 0.65385
0.23772 0.18424 0.66627
0.31376 0.19277 0.65289
0.51831 0.23143 0.61353
0.74592 0.28852 0.59129
0.85042 0.31469 0.58361
0.89335 0.30217 0.57119
0.91469 0.31352 0.57142
0.91788 0.34848 0.56392
0.22986 0.25627 0.67729
0.31586 0.27029 0.66921
0.52281 0.30698 0.63985
0.74474 0.35416 0.61207
0.85287 0.38323 0.60381
0.89912 0.36782 0.59335
0.91868 0.34279 0.58388
0.92256 0.37678 0.58032
0.24239 0.43221 0.73343
0.33748 0.45114 0.72409
0.52682 0.48330 0.70273
0.73576 0.51800 0.67441
0.85752 0.52288 0.65561
0.91139 0.51173 0.64956
0.93697 0.48852 0.64412
0.94049 0.49791 0.64367
0.10577 0.57506 0.79962
0.21546 0.58260 0.79138
0.41784 0.60530 0.77040
0.68822 0.64336 0.73750
0.85528 0.66012 0.71635
0.92036 0.64858 0.70806
0.95364 0.63404 0.70860
0.95957 0.65331 0.71664
0.00000 0.68798 0.85847
0.00000 0.69069 0.85369
0.19163 0.70835 0.83389
0.56410 0.75069 0.80053
0.82462 0.78607 0.77171
0.92048 0.78993 0.76650
0.96214 0.77919 0.76620
0.97259 0.77955 0.77065
0.00000 0.76260 0.88035
0.00000 0.76392 0.88155
0.00000 0.76898 0.87826
0.31480 0.80201 0.84893
0.72615 0.85631 0.80850
0.90210 0.87901 0.79530
0.95914 0.88298 0.80237
0.97959 0.87630 0.80528
0.00000 0.82093 0.87072
0.00000 0.82185 0.87496
0.00000 0.82193 0.88210
0.00000 0.82942 0.88030
0.53236 0.88154 0.84221
0.85493 0.93244 0.81389
0.94559 0.94281 0.81087
0.97957 0.94002 0.82178
0.00000 0.85764 0.83419
0.00000 0.85993 0.83947
0.00000 0.86411 0.85379
0.00000 0.86195 0.86987
0.00000 0.87421 0.86955
0.70574 0.94168 0.82353
0.91449 0.97598 0.81841
0.97085 0.97858 0.81813
0.42629 0.30322 0.80446
0.51170 0.31807 0.79766
0.67150 0.34685 0.76844
0.81062 0.37623 0.74259
0.88350 0.40011 0.73154
0.92271 0.41113 0.72308
0.93157 0.38445 0.69258
0.93201 0.41059 0.68495
0.42829 0.40448 0.84838
0.51386 0.41739 0.83689
0.67363 0.43973 0.80399
0.81723 0.46140 0.77462
0.88906 0.46736 0.75478
0.92875 0.47422 0.74388
0.93874 0.44120 0.71124
0.93928 0.46205 0.70401
0.40862 0.54048 0.87402
0.49584 0.55831 0.86377
0.66497 0.58876 0.83964
0.81504 0.61667 0.82045
0.89401 0.60601 0.79507
0.93831 0.61962 0.78942
0.95525 0.58294 0.76452
0.95762 0.59611 0.75738
0.33983 0.65616 0.90476
0.42922 0.67042 0.89535
0.59474 0.69575 0.87744
0.78329 0.72468 0.84828
0.89008 0.73811 0.83672
0.94207 0.72863 0.82961
0.96738 0.71361 0.81392
0.97178 0.72279 0.81138
0.08141 0.73074 0.94994
0.21474 0.73800 0.94355
0.43271 0.76039 0.92296
0.69573 0.79787 0.89203
0.86892 0.82432 0.87184
0.93730 0.82538 0.86212
0.97309 0.81925 0.85682
0.98091 0.82168 0.85420
0.00000 0.78173 0.97685
0.00000 0.78437 0.97540
0.01167 0.79938 0.96715
0.50686 0.83912 0.93971
0.80122 0.88282 0.90301
0.92206 0.89688 0.88957
0.97078 0.89896 0.88744
0.98623 0.89640 0.88559
0.00000 0.82832 0.97811
0.00000 0.82923 0.98120
0.00000 0.83146 0.98293
0.17027 0.85265 0.97105
0.65717 0.90960 0.93299
0.88339 0.94529 0.90990
0.95905 0.95155 0.90389
0.98645 0.94946 0.90291
0.00000 0.85984 0.96058
0.00000 0.86160 0.96538
0.00000 0.86423 0.97548
0.00000 0.86434 0.97868
0.36004 0.89420 0.96210
0.78445 0.95672 0.92471
0.93830 0.98004 0.91249
0.97993 0.98204 0.90794
0.48896 0.35513 0.81361
0.55855 0.36082 0.79890
0.69801 0.39062 0.77598
0.82014 0.41104 0.75386
0.88494 0.40277 0.73335
0.92707 0.43182 0.73933
0.94342 0.46559 0.75342
0.94768 0.50463 0.76919
0.49127 0.44042 0.84808
0.56348 0.44619 0.83335
0.70609 0.46669 0.80715
0.82895 0.48342 0.78525
0.89481 0.48028 0.76805
0.93500 0.49506 0.76835
0.95107 0.52003 0.77905
0.95492 0.55885 0.79204
0.50886 0.59015 0.90877
0.58392 0.60386 0.89843
0.72962 0.63161 0.87903
0.84573 0.64218 0.85875
0.91380 0.65368 0.85064
0.95102 0.65357 0.84368
0.96713 0.65261 0.83789
0.97027 0.68200 0.84298
0.54746 0.73533 0.96330
0.62594 0.75136 0.95601
0.74153 0.77169 0.94175
0.85649 0.79032 0.92487
0.91988 0.79864 0.91546
0.95889 0.78844 0.90209
0.97849 0.77760 0.89036
0.98222 0.79324 0.89166
0.44191 0.79172 0.98418
0.51280 0.80157 0.98154
0.65073 0.82174 0.97183
0.81013 0.84891 0.95547
0.90707 0.86386 0.94329
0.95446 0.86325 0.92924
0.98258 0.85721 0.92219
0.98761 0.86178 0.92055
0.10992 0.81738 0.98636
0.23458 0.82450 0.98654
0.44272 0.84519 0.98588
0.68633 0.87946 0.97874
0.86599 0.90768 0.95973
0.94357 0.91795 0.95004
0.98085 0.91566 0.94456
0.99084 0.91594 0.93868
0.00000 0.83695 0.98613
0.00000 0.83961 0.98626
0.00000 0.85306 0.98725
0.44680 0.88859 0.98920
0.75159 0.93236 0.97842
0.91381 0.95684 0.96541
0.97025 0.96186 0.95781
0.99047 0.95707 0.95013
0.00000 0.85870 0.98597
0.00000 0.86022 0.98648
0.00000 0.86289 0.98739
0.00000 0.87498 0.98971
0.55465 0.91994 0.98655
0.85260 0.97042 0.97280
0.95035 0.98345 0.96322
0.98359 0.98432 0.95525
0.55201 0.41042 0.81995
0.61116 0.41152 0.80650
0.72792 0.43187 0.78628
0.83186 0.44407 0.76565
0.89138 0.43967 0.74805
0.92790 0.44003 0.74096
0.93952 0.44289 0.73713
0.95497 0.54294 0.78728
0.55704 0.47527 0.84625
0.61740 0.48294 0.83587
0.73739 0.50146 0.81568
0.84123 0.51210 0.79586
0.90083 0.50928 0.77972
0.93559 0.50314 0.76957
0.94875 0.51008 0.76859
0.96126 0.59402 0.81086
0.56892 0.60727 0.90406
0.63818 0.62105 0.89421
0.75818 0.64329 0.87795
0.86009 0.65452 0.86124
0.91910 0.66334 0.85309
0.95298 0.65307 0.84174
0.96910 0.66030 0.84253
0.97484 0.71681 0.86735
0.61518 0.75270 0.95833
0.67598 0.76473 0.95252
0.78343 0.78767 0.94173
0.87822 0.80806 0.93158
0.93018 0.81174 0.92340
0.96578 0.81486 0.91804
0.98227 0.80363 0.90837
0.98692 0.83591 0.92429
0.60807 0.83043 0.98470
0.67293 0.84288 0.98292
0.77059 0.86058 0.97715
0.86630 0.87729 0.96741
0.92805 0.88725 0.95998
0.96368 0.88968 0.95383
0.98608 0.88383 0.94568
0.99039 0.88533 0.94635
0.45510 0.85704 0.98923
0.51612 0.86515 0.98986
0.64523 0.88381 0.99065
0.79973 0.90799 0.98877
0.90563 0.92476 0.98100
0.95389 0.92989 0.97308
0.98352 0.92812 0.96692
0.99188 0.92740 0.96290
0.02745 0.85953 0.98725
0.19806 0.86640 0.98771
0.40475 0.88584 0.98926
0.64333 0.91841 0.99211
0.83804 0.94826 0.99269
0.93395 0.96072 0.98923
0.97558 0.96228 0.98086
0.99155 0.95966 0.97551
0.00000 0.85455 0.98647
0.00000 0.85660 0.98652
0.00000 0.86783 0.98698
0.39923 0.89980 0.98956
0.71571 0.94730 0.99289
0.87807 0.97417 0.99298
0.95402 0.98286 0.98798
0.98624 0.98168 0.98018
