cube lut/classic neg_sRGB.cube
# sRGB
# github.com/abpy/FujifilmCameraProfiles
LUT_3D_SIZE 8
DOMAIN_MIN 0.000000 0.000000 0.000000
DOMAIN_MAX 0.903226 0.903226 0.903226
0.00923 0.01141 0.00931
0.05517 0.01407 0.00358
0.21364 0.02482 0.00000
0.50112 0.06210 0.00000
0.76234 0.09971 0.00000
0.87314 0.12784 0.00000
0.93194 0.17267 0.00000
0.95386 0.22466 0.00000
0.00000 0.05363 0.02358
0.04089 0.06681 0.01969
0.20723 0.08202 0.01423
0.49935 0.10677 0.00000
0.76678 0.13613 0.00000
0.87647 0.15519 0.00000
0.93379 0.18613 0.00000
0.95449 0.23131 0.00000
0.00000 0.18802 0.06249
0.00000 0.19260 0.05448
0.16658 0.21210 0.03664
0.47858 0.24628 0.00893
0.77562 0.26044 0.00000
0.88767 0.23801 0.00000
0.93987 0.22796 0.00000
0.95731 0.25214 0.00000
0.00000 0.39498 0.14873
0.00000 0.39432 0.15162
0.00000 0.41125 0.13047
0.40068 0.44814 0.12465
0.76306 0.49012 0.08989
0.89863 0.47523 0.10247
0.95537 0.41202 0.11859
0.96822 0.37123 0.10723
0.00000 0.61146 0.27327
0.00000 0.61225 0.27329
0.00000 0.62515 0.29625
0.18843 0.65726 0.26515
0.69686 0.69954 0.21896
0.87954 0.71069 0.21745
0.95154 0.68921 0.24739
0.98040 0.65434 0.26067
0.00000 0.73829 0.35508
0.00000 0.73734 0.34530
0.00000 0.74129 0.37541
0.00000 0.76935 0.35287
0.56672 0.81678 0.32099
0.83840 0.84086 0.29828
0.92708 0.84066 0.30805
0.96955 0.83612 0.35869
0.00000 0.82189 0.42031
0.00000 0.82152 0.41029
0.00000 0.81926 0.42322
0.00000 0.82874 0.43036
0.27761 0.87362 0.37064
0.77073 0.91120 0.37132
0.90226 0.91870 0.38160
0.95503 0.92286 0.40296
0.00000 0.87573 0.45983
0.00000 0.87520 0.45281
0.00000 0.87208 0.45169
0.00000 0.86774 0.47738
0.00000 0.89620 0.46656
0.62678 0.94555 0.39491
0.86220 0.96881 0.41743
0.93160 0.97130 0.43412
0.01898 0.01455 0.05178
0.08284 0.02592 0.04838
0.23491 0.02797 0.03274
0.52135 0.07101 0.02114
0.77638 0.09877 0.00091
0.87957 0.11686 0.00000
0.93624 0.16424 0.00000
0.95663 0.21986 0.00000
0.00413 0.07329 0.07900
0.07353 0.08342 0.07642
0.23098 0.09926 0.06578
0.51825 0.13138 0.03582
0.77972 0.15141 0.01699
0.88343 0.14897 0.01745
0.93811 0.17491 0.04048
0.95726 0.22306 0.02606
0.00000 0.20438 0.14455
0.00000 0.21225 0.13999
0.19709 0.23239 0.12988
0.49863 0.27259 0.10341
0.78466 0.29161 0.06631
0.89441 0.26123 0.06131
0.94495 0.22920 0.10005
0.96074 0.24621 0.11465
0.00000 0.41096 0.23605
0.00000 0.41492 0.23640
0.00000 0.43014 0.20964
0.43214 0.46758 0.19963
0.77045 0.50588 0.16592
0.90150 0.49691 0.17788
0.95881 0.43705 0.18149
0.97420 0.39439 0.18902
0.00000 0.61853 0.32708
0.00000 0.61910 0.33278
0.00000 0.63465 0.32993
0.25524 0.66573 0.31154
0.70836 0.70412 0.26996
0.88226 0.71758 0.27833
0.95337 0.69966 0.30455
0.98322 0.66800 0.31614
0.00000 0.74111 0.39958
0.00000 0.74020 0.39536
0.00000 0.74533 0.40958
0.00000 0.77423 0.38853
0.59046 0.82069 0.36653
0.84342 0.84277 0.34377
0.92945 0.84496 0.36241
0.97230 0.84184 0.41812
0.00000 0.82203 0.45519
0.00000 0.82116 0.44451
0.00000 0.81720 0.45991
0.00000 0.83107 0.45938
0.33293 0.87796 0.42041
0.78014 0.91363 0.42019
0.90601 0.92086 0.42819
0.95838 0.92529 0.45793
0.00000 0.87608 0.48219
0.00000 0.87541 0.47467
0.00000 0.87128 0.47888
0.00000 0.86847 0.50706
0.00000 0.89977 0.49707
0.64573 0.94767 0.43423
0.86767 0.97007 0.46261
0.93573 0.97277 0.48435
0.06791 0.04024 0.20301
0.12950 0.04659 0.19645
0.29775 0.07652 0.18342
0.58107 0.12444 0.16220
0.80599 0.15379 0.16078
0.89982 0.16714 0.20266
0.94914 0.17548 0.23382
0.96588 0.22123 0.24361
0.05884 0.12570 0.22450
0.13073 0.13652 0.22281
0.28410 0.15691 0.21548
0.56894 0.19735 0.20112
0.80619 0.23145 0.20527
0.90523 0.23142 0.23413
0.95294 0.21049 0.25763
0.96820 0.23108 0.26411
0.00000 0.25213 0.28980
0.02187 0.26005 0.28529
0.25945 0.28110 0.27940
0.55433 0.31772 0.26013
0.81034 0.35057 0.25945
0.91310 0.35040 0.28342
0.96136 0.30901 0.29514
0.97549 0.29853 0.30305
0.00000 0.45115 0.38776
0.00000 0.45740 0.38495
0.08130 0.47569 0.37445
0.50255 0.51012 0.35487
0.79528 0.54759 0.34732
0.91454 0.54665 0.36479
0.97047 0.51915 0.38321
0.98885 0.47903 0.37464
0.00000 0.63798 0.48244
0.00000 0.64197 0.48209
0.00000 0.65761 0.47284
0.36648 0.68900 0.45223
0.74008 0.72349 0.42809
0.89515 0.73791 0.44062
0.96170 0.72902 0.47087
0.99193 0.70347 0.47297
0.00000 0.74893 0.54429
0.00000 0.75027 0.54505
0.00000 0.76078 0.54131
0.00000 0.79036 0.52241
0.64799 0.83144 0.49642
0.86104 0.85084 0.48695
0.93987 0.85690 0.51883
0.98059 0.85331 0.55676
0.00000 0.82088 0.57506
0.00000 0.81988 0.57535
0.00000 0.82169 0.58257
0.00000 0.84213 0.57133
0.46182 0.88860 0.54868
0.81116 0.91930 0.54469
0.91732 0.92709 0.54644
0.96620 0.93082 0.58482
0.00000 0.87749 0.58518
0.00000 0.87608 0.58149
0.00000 0.87009 0.59301
0.00000 0.87399 0.60983
0.00000 0.90961 0.59248
0.69559 0.95317 0.54568
0.88272 0.97310 0.57667
0.94688 0.97594 0.60019
0.13391 0.09204 0.43816
0.19664 0.09700 0.43057
0.38253 0.13239 0.41539
0.66986 0.18912 0.39373
0.84972 0.22296 0.38763
0.92471 0.22985 0.40137
0.96788 0.23617 0.42710
0.98614 0.28109 0.45970
0.13649 0.18185 0.46015
0.21637 0.19711 0.45755
0.38921 0.22942 0.44605
0.65376 0.27396 0.42256
0.84683 0.30265 0.42021
0.92900 0.31169 0.44056
0.97302 0.30526 0.46284
0.99070 0.32786 0.48691
0.06149 0.32651 0.51221
0.17227 0.33613 0.50959
0.36785 0.36068 0.50046
0.64088 0.39422 0.47731
0.84651 0.41782 0.47009
0.93426 0.42521 0.48668
0.98062 0.42436 0.51315
0.99827 0.43067 0.53161
0.00000 0.51147 0.60308
0.00000 0.51959 0.59824
0.25412 0.53723 0.58455
0.59478 0.56814 0.55772
0.83218 0.59200 0.54271
0.93316 0.59381 0.55362
0.98392 0.58507 0.57324
1.00000 0.57923 0.58863
0.00000 0.66641 0.68028
0.00000 0.67248 0.67654
0.00000 0.69080 0.66412
0.47801 0.72323 0.63614
0.78478 0.75301 0.61452
0.91521 0.76183 0.62058
0.97369 0.75896 0.64227
1.00000 0.75170 0.66080
0.00000 0.76305 0.73157
0.00000 0.76651 0.72989
0.00000 0.78073 0.72113
0.28782 0.81180 0.69754
0.70952 0.84857 0.66684
0.88632 0.86425 0.66191
0.95472 0.87166 0.68561
0.99031 0.86774 0.70266
0.00000 0.82431 0.76638
0.00000 0.82626 0.76719
0.00000 0.83575 0.76610
0.00000 0.86149 0.74317
0.60205 0.90347 0.71160
0.85066 0.92861 0.69984
0.93451 0.93662 0.70096
0.97713 0.93737 0.72832
0.00000 0.87492 0.77761
0.00000 0.87393 0.77983
0.00000 0.87436 0.78385
0.00000 0.88782 0.77831
0.38199 0.92516 0.74512
0.76512 0.96233 0.70877
0.90682 0.97707 0.73598
0.96212 0.97819 0.73832
0.21496 0.16309 0.65733
0.28912 0.16819 0.64549
0.48423 0.19837 0.61643
0.74082 0.24148 0.58493
0.88799 0.29239 0.58172
0.95021 0.30391 0.57665
0.98514 0.30335 0.58143
0.99789 0.32319 0.59077
0.22349 0.24480 0.67517
0.30922 0.25796 0.66941
0.50247 0.28650 0.64580
0.74462 0.33182 0.61696
0.88564 0.37866 0.60643
0.95204 0.38697 0.60396
0.98914 0.37967 0.60853
1.00000 0.39250 0.61835
0.24750 0.43391 0.72534
0.32979 0.44346 0.71804
0.51669 0.46842 0.69979
0.73060 0.49861 0.67224
0.88161 0.50805 0.65322
0.95382 0.51465 0.65383
0.99500 0.50466 0.65884
1.00000 0.52328 0.67064
0.00000 0.58124 0.79016
0.18741 0.58858 0.78315
0.42931 0.60746 0.76403
0.68977 0.63557 0.73419
0.86857 0.65203 0.71423
0.94916 0.65540 0.71214
0.99480 0.64388 0.71187
1.00000 0.65233 0.72293
0.00000 0.70729 0.85007
0.00000 0.71396 0.84284
0.24557 0.73259 0.82490
0.60315 0.76168 0.79443
0.83294 0.78439 0.76950
0.93430 0.79008 0.76577
0.98433 0.78899 0.76891
1.00000 0.78603 0.77563
0.00000 0.78622 0.89491
0.00000 0.79159 0.88938
0.00000 0.80766 0.87205
0.45464 0.83753 0.83981
0.77019 0.86745 0.80844
0.90966 0.87989 0.79930
0.96758 0.88521 0.80777
0.99813 0.88233 0.81408
0.00000 0.83874 0.92064
0.00000 0.84214 0.91784
0.00000 0.85429 0.90630
0.26263 0.88256 0.87699
0.69142 0.91928 0.84432
0.87863 0.93982 0.82508
0.95020 0.94470 0.82605
0.98631 0.94382 0.83505
0.00000 0.87805 0.92779
0.00000 0.87843 0.92839
0.00000 0.88316 0.92612
0.00000 0.90247 0.91031
0.54716 0.93994 0.87287
0.82624 0.97099 0.84348
0.93042 0.98028 0.84818
0.97420 0.97983 0.84718
0.42345 0.27811 0.82151
0.50637 0.29026 0.81812
0.66166 0.31805 0.78763
0.83173 0.34316 0.75805
0.92601 0.37146 0.74003
0.97756 0.41511 0.73847
1.00000 0.42883 0.73645
1.00000 0.42147 0.70583
0.41825 0.37587 0.85176
0.50223 0.39030 0.84504
0.66332 0.41144 0.81541
0.83084 0.43709 0.78352
0.92648 0.45012 0.76069
0.97740 0.48952 0.75815
1.00000 0.49731 0.75298
1.00000 0.48352 0.72510
0.40635 0.52668 0.86485
0.48985 0.54050 0.85570
0.65439 0.56462 0.83351
0.81358 0.58979 0.81314
0.91848 0.59866 0.79574
0.97277 0.61187 0.79184
1.00000 0.60223 0.77494
1.00000 0.60985 0.77499
0.35557 0.66180 0.89377
0.43567 0.66977 0.88686
0.59983 0.68935 0.86985
0.78195 0.71011 0.84350
0.90059 0.72292 0.83148
0.96426 0.72583 0.82947
1.00000 0.71376 0.81464
1.00000 0.72489 0.82254
0.11036 0.75389 0.93974
0.27172 0.76080 0.93178
0.49068 0.77760 0.91261
0.72288 0.80188 0.88610
0.87469 0.81905 0.86840
0.94829 0.82213 0.86008
0.99260 0.82251 0.85773
1.00000 0.82092 0.86020
0.00000 0.81634 0.97730
0.00000 0.82289 0.97161
0.29652 0.83991 0.95524
0.61543 0.86636 0.92577
0.82798 0.88828 0.89893
0.92756 0.89579 0.88840
0.97862 0.89947 0.88845
1.00000 0.89749 0.88678
0.00000 0.85769 0.99532
0.00000 0.86281 0.99156
0.00000 0.87811 0.97910
0.49036 0.90696 0.95209
0.75834 0.93547 0.92540
0.89846 0.94914 0.90975
0.96178 0.95215 0.90616
0.99200 0.95136 0.90502
0.00000 0.88338 1.00000
0.00000 0.88551 0.99956
0.00000 0.89505 0.99304
0.27169 0.91977 0.97457
0.67025 0.95456 0.94555
0.86519 0.97685 0.92474
0.94757 0.98230 0.91924
0.98058 0.98300 0.91455
0.49659 0.33443 0.84008
0.56525 0.34036 0.82867
0.70805 0.36503 0.80540
0.84936 0.39359 0.78375
0.93563 0.41310 0.77229
0.98487 0.44849 0.77786
1.00000 0.48685 0.78953
1.00000 0.54729 0.80630
0.50114 0.42810 0.87267
0.57162 0.43407 0.85960
0.71586 0.45135 0.83475
0.85522 0.47542 0.81442
0.94059 0.49596 0.80564
0.98747 0.52069 0.80751
1.00000 0.55240 0.81398
1.00000 0.60412 0.82962
0.53538 0.59334 0.92563
0.60571 0.60387 0.91668
0.74212 0.62500 0.89866
0.86396 0.63697 0.87900
0.94171 0.66426 0.87578
0.98728 0.66287 0.86722
1.00000 0.67750 0.86043
1.00000 0.69482 0.86549
0.60166 0.74754 0.96628
0.65063 0.75324 0.96009
0.75650 0.76937 0.94597
0.86060 0.77958 0.92828
0.93066 0.78800 0.91912
0.97715 0.78843 0.90847
1.00000 0.77956 0.89747
1.00000 0.79051 0.90149
0.51751 0.81131 0.98767
0.57409 0.81696 0.98247
0.69205 0.82995 0.96978
0.82281 0.84731 0.95422
0.91240 0.85757 0.94325
0.96390 0.85717 0.92955
0.99878 0.85684 0.92459
1.00000 0.85756 0.92391
0.33948 0.85627 0.99958
0.42299 0.86221 0.99719
0.57827 0.87613 0.98989
0.75065 0.89442 0.97436
0.88140 0.90883 0.95632
0.94772 0.91528 0.94861
0.98813 0.91490 0.94515
1.00000 0.91400 0.93817
0.00000 0.88790 1.00000
0.02887 0.89397 1.00000
0.39224 0.90868 1.00000
0.63541 0.92944 0.98913
0.82156 0.94919 0.97416
0.92344 0.95861 0.96359
0.97208 0.96150 0.95732
0.99570 0.95766 0.95115
0.00000 0.89916 1.00000
0.00000 0.90370 1.00000
0.13447 0.91655 1.00000
0.52154 0.94019 0.99523
0.76536 0.96771 0.98207
0.89862 0.98105 0.97131
0.95478 0.98527 0.96302
0.98363 0.98428 0.95614
0.56140 0.38597 0.84356
0.61985 0.38850 0.83273
0.74010 0.40730 0.81322
0.86216 0.42853 0.79385
0.94077 0.43960 0.78092
0.98509 0.44578 0.77343
1.00000 0.48861 0.78657
1.00000 0.56485 0.81666
0.56998 0.46007 0.86892
0.62910 0.46495 0.85861
0.75006 0.48038 0.83876
0.86922 0.49756 0.82013
0.94541 0.51036 0.80949
0.98923 0.52185 0.80578
1.00000 0.54883 0.81174
1.00000 0.62159 0.84146
0.59732 0.60550 0.91861
0.65827 0.61454 0.90987
0.77262 0.63174 0.89438
0.88082 0.64558 0.87888
0.94921 0.66256 0.87308
0.99189 0.67420 0.87131
1.00000 0.68089 0.86805
1.00000 0.73153 0.88966
0.66671 0.76244 0.96547
0.71221 0.76949 0.96045
0.80252 0.78794 0.95217
0.88876 0.80186 0.94121
0.94436 0.80609 0.93357
0.98339 0.81887 0.93145
1.00000 0.80776 0.92178
1.00000 0.82154 0.92672
0.69424 0.85099 0.99214
0.72767 0.85495 0.98935
0.79504 0.86265 0.98245
0.87859 0.87542 0.97261
0.93448 0.88174 0.96539
0.97166 0.88410 0.95897
1.00000 0.88392 0.95336
1.00000 0.88147 0.94910
0.60337 0.88983 1.00000
0.64551 0.89413 1.00000
0.73665 0.90397 0.99939
0.84184 0.91593 0.99256
0.91409 0.92467 0.98343
0.95821 0.92752 0.97585
0.99055 0.92643 0.97022
1.00000 0.92579 0.96519
0.44755 0.91559 1.00000
0.50566 0.92047 1.00000
0.62392 0.93162 1.00000
0.76386 0.94593 0.99985
0.87565 0.95701 0.99550
0.93992 0.96148 0.98992
0.97814 0.96167 0.98165
0.99709 0.95978 0.97710
0.27723 0.92227 1.00000
0.36653 0.92781 1.00000
0.52281 0.94122 1.00000
0.69022 0.95923 1.00000
0.82035 0.97331 0.99751
0.90800 0.98116 0.99353
0.95912 0.98397 0.98676
0.98721 0.98149 0.98004
