cube lut/classic chrome_sRGB.cube
# sRGB
# github.com/abpy/FujifilmCameraProfiles
LUT_3D_SIZE 8
DOMAIN_MIN 0.000000 0.000000 0.000000
DOMAIN_MAX 0.903226 0.903226 0.903226
0.00000 0.00000 0.00000
0.04232 0.00000 0.00000
0.22450 0.01000 0.00165
0.50817 0.03526 0.00108
0.73355 0.07667 0.00721
0.87904 0.13277 0.00000
0.98447 0.18126 0.00000
1.00000 0.22751 0.00000
0.00000 0.03476 0.00221
0.04556 0.04499 0.00779
0.24159 0.07278 0.01572
0.51993 0.10034 0.02213
0.74143 0.13568 0.04360
0.88514 0.18343 0.01993
0.99056 0.22777 0.00000
1.00000 0.26857 0.00000
0.00000 0.19323 0.00000
0.00000 0.20423 0.00000
0.24186 0.23304 0.00834
0.53042 0.26724 0.03254
0.75404 0.27988 0.04691
0.89761 0.29055 0.07149
1.00000 0.32211 0.07410
1.00000 0.35555 0.02972
0.00000 0.42201 0.00000
0.00000 0.42790 0.00000
0.07552 0.44817 0.00000
0.48398 0.47171 0.00000
0.73912 0.49662 0.01731
0.89491 0.50428 0.05004
1.00000 0.50385 0.07409
1.00000 0.50106 0.06470
0.00000 0.62032 0.00000
0.00000 0.62312 0.00000
0.00000 0.63619 0.00000
0.38822 0.65426 0.00000
0.68840 0.67004 0.00000
0.86161 0.68441 0.05268
0.97743 0.68744 0.09849
1.00000 0.68737 0.12351
0.00000 0.75783 0.00000
0.00000 0.75942 0.00000
0.00000 0.76739 0.00000
0.19688 0.78060 0.00000
0.62058 0.79216 0.05705
0.81749 0.80161 0.08122
0.94492 0.80905 0.11742
1.00000 0.81483 0.18641
0.00000 0.85244 0.00000
0.00000 0.85324 0.00000
0.00000 0.85790 0.00000
0.00000 0.86849 0.00000
0.54144 0.87892 0.07731
0.76926 0.88727 0.17628
0.90908 0.89319 0.20903
1.00000 0.90234 0.25008
0.00000 0.92551 0.00000
0.00000 0.92613 0.00000
0.00000 0.92927 0.00000
0.00000 0.93879 0.07036
0.44124 0.94847 0.19966
0.71796 0.95678 0.19899
0.87641 0.96206 0.27513
0.97985 0.96882 0.32265
0.00026 0.00107 0.03790
0.05932 0.01286 0.05338
0.25103 0.02966 0.08699
0.51815 0.06523 0.13390
0.73977 0.08761 0.15611
0.88312 0.12996 0.16454
0.98840 0.17706 0.16985
1.00000 0.22345 0.14374
0.00000 0.05299 0.05069
0.06967 0.06990 0.06984
0.26372 0.09677 0.10033
0.52959 0.13461 0.14180
0.74635 0.16013 0.16917
0.88931 0.18822 0.18236
0.99487 0.22824 0.18653
1.00000 0.26679 0.16090
0.00000 0.21346 0.06778
0.00000 0.22611 0.08125
0.26013 0.25457 0.10724
0.53070 0.29120 0.14617
0.75245 0.31143 0.16710
0.90083 0.31635 0.17763
1.00000 0.33411 0.20330
1.00000 0.36364 0.20571
0.00000 0.43458 0.05195
0.00000 0.44173 0.06560
0.13093 0.45954 0.09315
0.49498 0.48279 0.12545
0.73834 0.50965 0.15934
0.89095 0.52145 0.18206
1.00000 0.52093 0.19335
1.00000 0.51779 0.20362
0.00000 0.62697 0.00000
0.00000 0.63079 0.00000
0.00000 0.64333 0.04870
0.40716 0.65985 0.12091
0.69032 0.67533 0.15388
0.86003 0.69045 0.19519
0.97468 0.69513 0.21561
1.00000 0.69563 0.22973
0.00000 0.76112 0.00000
0.00000 0.76280 0.00000
0.00000 0.77065 0.04711
0.23905 0.78342 0.11607
0.62837 0.79462 0.19460
0.81889 0.80425 0.20600
0.94395 0.81178 0.23337
1.00000 0.81924 0.28749
0.00000 0.85447 0.00974
0.00000 0.85546 0.00000
0.00000 0.86058 0.06695
0.00000 0.87114 0.14403
0.55404 0.88072 0.21040
0.77247 0.88905 0.26878
0.90987 0.89477 0.29242
1.00000 0.90461 0.33145
0.00000 0.92735 0.06124
0.00000 0.92799 0.03432
0.00000 0.93188 0.08630
0.00000 0.94080 0.18616
0.46142 0.94973 0.27402
0.72344 0.95780 0.27646
0.87846 0.96329 0.34514
0.98075 0.97006 0.38996
0.00682 0.01371 0.21683
0.08285 0.02225 0.23163
0.30035 0.06253 0.27331
0.55216 0.10487 0.31160
0.75092 0.14173 0.34249
0.89189 0.19838 0.38144
0.99663 0.22217 0.38943
1.00000 0.24261 0.37204
0.00976 0.10367 0.23066
0.10792 0.11918 0.24483
0.30474 0.14410 0.27803
0.54999 0.18343 0.31897
0.75160 0.22705 0.36030
0.89602 0.27098 0.39528
1.00000 0.29053 0.40599
1.00000 0.30323 0.39120
0.00000 0.25977 0.25155
0.00000 0.26960 0.26345
0.29276 0.29244 0.29239
0.54448 0.32140 0.32282
0.75717 0.35438 0.36229
0.90015 0.38820 0.39700
1.00000 0.40402 0.40912
1.00000 0.41765 0.41152
0.00000 0.45923 0.26229
0.00000 0.46667 0.27158
0.18120 0.48378 0.29315
0.51229 0.50563 0.32389
0.73973 0.53216 0.36180
0.88592 0.55324 0.39374
0.99223 0.56902 0.41776
1.00000 0.56708 0.41269
0.00000 0.64218 0.27403
0.00000 0.64709 0.28323
0.00000 0.65826 0.30433
0.44017 0.67217 0.33470
0.69710 0.68603 0.36672
0.85691 0.70259 0.39452
0.96770 0.71400 0.42501
1.00000 0.71535 0.42562
0.00000 0.76963 0.29221
0.00000 0.77217 0.29851
0.00000 0.77889 0.31799
0.32504 0.79021 0.34868
0.64561 0.80022 0.38507
0.82091 0.80974 0.40199
0.94161 0.81957 0.43595
1.00000 0.82943 0.46917
0.00000 0.85875 0.31228
0.00000 0.86098 0.31456
0.00000 0.86692 0.32802
0.00000 0.87651 0.35479
0.58343 0.88484 0.39925
0.78094 0.89347 0.43765
0.91206 0.89961 0.45264
1.00000 0.91072 0.49248
0.00000 0.93039 0.33118
0.00000 0.93201 0.32859
0.00000 0.93785 0.33458
0.00000 0.94513 0.37428
0.50860 0.95284 0.42348
0.73880 0.96036 0.43210
0.88363 0.96658 0.48971
0.98283 0.97340 0.52739
0.00864 0.03246 0.45378
0.09936 0.04487 0.47191
0.31936 0.08453 0.50090
0.57971 0.14471 0.54011
0.77238 0.20314 0.56050
0.90428 0.25055 0.57919
1.00000 0.29822 0.59641
1.00000 0.35897 0.61015
0.00645 0.14543 0.46889
0.14023 0.16425 0.48557
0.34917 0.20064 0.50380
0.57500 0.24624 0.53264
0.76975 0.28822 0.56154
0.90342 0.33529 0.58860
1.00000 0.37522 0.61132
1.00000 0.42221 0.62462
0.00000 0.31501 0.48443
0.07893 0.32503 0.49443
0.33459 0.34756 0.51190
0.56963 0.37284 0.53708
0.76880 0.40206 0.56225
0.90148 0.44290 0.58914
0.99945 0.48291 0.61757
1.00000 0.51739 0.63314
0.00000 0.49797 0.48793
0.00000 0.50455 0.49605
0.23940 0.51793 0.51437
0.53683 0.53716 0.53678
0.74915 0.55749 0.56140
0.88721 0.58042 0.58566
0.98760 0.60708 0.61269
1.00000 0.62681 0.62839
0.00000 0.66408 0.49157
0.00000 0.66799 0.49855
0.00000 0.67592 0.51551
0.46869 0.68839 0.53580
0.70718 0.70144 0.56116
0.85804 0.71722 0.58500
0.96497 0.73187 0.61182
1.00000 0.74410 0.63530
0.00000 0.77933 0.50007
0.00000 0.78207 0.50616
0.00000 0.78862 0.52176
0.38182 0.79975 0.54481
0.66325 0.80896 0.56886
0.82458 0.81824 0.59079
0.94089 0.83052 0.61997
1.00000 0.84102 0.64121
0.00000 0.86685 0.51556
0.00000 0.86890 0.52189
0.00000 0.87447 0.53806
0.25560 0.88301 0.55604
0.61486 0.89042 0.58403
0.79445 0.89970 0.61149
0.91628 0.90826 0.62669
1.00000 0.91898 0.65912
0.00000 0.93672 0.53272
0.00000 0.93852 0.53669
0.00000 0.94329 0.54883
0.00000 0.95051 0.57274
0.56329 0.95787 0.59826
0.76161 0.96498 0.61367
0.89211 0.97244 0.66294
0.98368 0.97674 0.67637
0.01686 0.07003 0.64571
0.11462 0.07856 0.66146
0.33436 0.11237 0.69225
0.58862 0.16313 0.72499
0.78849 0.24600 0.74626
0.91680 0.31565 0.75392
1.00000 0.36301 0.76056
1.00000 0.40416 0.75705
0.00000 0.17487 0.66178
0.14678 0.19052 0.67834
0.36436 0.22155 0.70109
0.60153 0.26960 0.72698
0.78656 0.34251 0.74029
0.91140 0.39674 0.75014
1.00000 0.43232 0.76083
1.00000 0.47232 0.76522
0.00000 0.39036 0.67764
0.18479 0.40014 0.68369
0.39292 0.42091 0.69983
0.60289 0.44507 0.71646
0.77795 0.46821 0.73260
0.90138 0.50613 0.74424
0.99763 0.53400 0.75900
1.00000 0.57513 0.77003
0.00000 0.54334 0.67962
0.00000 0.54841 0.68547
0.32230 0.56043 0.69889
0.57070 0.57923 0.71435
0.75692 0.59849 0.72922
0.88849 0.61909 0.74215
0.98658 0.64052 0.75540
1.00000 0.66756 0.76725
0.00000 0.68715 0.67439
0.00000 0.69042 0.67890
0.13310 0.69813 0.68939
0.50828 0.70864 0.70531
0.72239 0.72255 0.72194
0.86392 0.73537 0.73791
0.96710 0.75080 0.75258
1.00000 0.76470 0.76691
0.00000 0.79306 0.67011
0.00000 0.79604 0.67495
0.00000 0.80282 0.68661
0.43206 0.81209 0.70274
0.68094 0.82068 0.72016
0.83330 0.83026 0.73684
0.94415 0.84352 0.75630
1.00000 0.85378 0.77333
0.00000 0.87603 0.67220
0.00000 0.87846 0.67679
0.00000 0.88440 0.68820
0.34395 0.89245 0.70592
0.64157 0.89962 0.72875
0.80759 0.90927 0.74572
0.92250 0.91767 0.76291
1.00000 0.92664 0.78254
0.00000 0.94306 0.68128
0.00000 0.94471 0.68561
0.00000 0.94930 0.69748
0.25588 0.95679 0.71700
0.60276 0.96406 0.73658
0.77941 0.97105 0.75441
0.90186 0.97650 0.78228
0.98418 0.97792 0.79250
0.02492 0.11180 0.77908
0.12827 0.11861 0.79292
0.34136 0.15030 0.81874
0.59357 0.20184 0.84956
0.78905 0.26668 0.86834
0.92188 0.35527 0.87760
1.00000 0.42138 0.87752
1.00000 0.47533 0.87160
0.00000 0.21197 0.79345
0.14947 0.22195 0.80669
0.37101 0.25051 0.82815
0.61203 0.30098 0.85360
0.79399 0.35223 0.86764
0.91891 0.43508 0.87210
1.00000 0.49143 0.87222
1.00000 0.52919 0.87082
0.00000 0.42552 0.80912
0.20732 0.43901 0.81657
0.42815 0.46361 0.83193
0.62689 0.49147 0.84458
0.79062 0.51858 0.85575
0.90647 0.55759 0.85923
0.99686 0.59517 0.86366
1.00000 0.62420 0.86844
0.00000 0.59713 0.80964
0.19451 0.60180 0.81380
0.40823 0.61350 0.82269
0.61181 0.63126 0.83392
0.77021 0.64754 0.84448
0.89047 0.66408 0.85275
0.98474 0.68626 0.85891
1.00000 0.71165 0.86583
0.00000 0.71333 0.80323
0.00000 0.71647 0.80665
0.30695 0.72349 0.81486
0.56067 0.73483 0.82678
0.74152 0.74938 0.83819
0.86838 0.76109 0.84862
0.96831 0.77745 0.85718
1.00000 0.79134 0.86517
0.00000 0.81116 0.79503
0.00000 0.81378 0.79910
0.10075 0.81996 0.80801
0.49358 0.82846 0.81984
0.70597 0.83695 0.83303
0.84602 0.84606 0.84621
0.94994 0.85859 0.85887
1.00000 0.86918 0.86796
0.00000 0.88877 0.79216
0.00000 0.89100 0.79603
0.00000 0.89634 0.80532
0.43477 0.90390 0.81875
0.67228 0.91232 0.83439
0.82147 0.91962 0.84750
0.92995 0.92678 0.86101
1.00000 0.93478 0.87097
0.00000 0.95095 0.79425
0.00000 0.95271 0.79811
0.00000 0.95723 0.80723
0.35546 0.96395 0.82061
0.63539 0.97095 0.83520
0.79721 0.97618 0.85050
0.90956 0.97678 0.86571
0.98517 0.98174 0.87265
0.02282 0.16002 0.87771
0.14320 0.16505 0.88927
0.35025 0.19253 0.91280
0.59313 0.24015 0.93982
0.78897 0.29702 0.96009
0.92188 0.37684 0.96811
1.00000 0.46476 0.96895
1.00000 0.54981 0.95740
0.00000 0.25424 0.89106
0.15718 0.26128 0.90170
0.37670 0.28435 0.92168
0.61093 0.32555 0.94431
0.79668 0.37886 0.95978
0.92214 0.44613 0.96481
1.00000 0.52663 0.96443
1.00000 0.60069 0.95408
0.00204 0.44852 0.90403
0.21561 0.46129 0.91183
0.43365 0.48608 0.92698
0.63444 0.50783 0.93847
0.79942 0.55478 0.94592
0.91308 0.58147 0.95342
1.00000 0.63828 0.95302
1.00000 0.67719 0.94843
0.23780 0.64585 0.90589
0.32621 0.64969 0.90909
0.49014 0.66399 0.91538
0.65327 0.67810 0.92523
0.78801 0.69613 0.93057
0.89697 0.71331 0.93845
0.98674 0.73081 0.94548
1.00000 0.75812 0.94129
0.08032 0.74449 0.90027
0.24297 0.74726 0.90343
0.43368 0.75401 0.91056
0.61982 0.76744 0.91922
0.76854 0.78105 0.92657
0.87992 0.79166 0.93481
0.97195 0.80790 0.94216
1.00000 0.82142 0.94102
0.00000 0.83067 0.89336
0.00000 0.83305 0.89646
0.34862 0.83868 0.90349
0.56950 0.84638 0.91302
0.73948 0.85535 0.92290
0.86117 0.86562 0.93179
0.95553 0.87545 0.94001
1.00000 0.88477 0.94124
0.00000 0.90453 0.88883
0.00000 0.90691 0.89214
0.24238 0.91228 0.89970
0.51535 0.91902 0.90969
0.70344 0.92549 0.91955
0.83658 0.93035 0.92804
0.93519 0.93546 0.93513
1.00000 0.94100 0.93914
0.00000 0.96090 0.88359
0.00000 0.96235 0.88644
0.00000 0.96578 0.89325
0.44666 0.97098 0.90284
0.66839 0.97655 0.91235
0.81236 0.97654 0.92244
0.90859 0.98084 0.92784
0.98183 0.98298 0.93429
0.04057 0.21524 0.94032
0.16029 0.21930 0.94909
0.36125 0.24402 0.97404
0.59328 0.28004 0.99919
0.78755 0.33633 1.00000
0.91982 0.39270 1.00000
1.00000 0.48845 1.00000
1.00000 0.56902 1.00000
0.00000 0.29824 0.95385
0.16620 0.30532 0.96238
0.38268 0.32936 0.98315
0.60944 0.36009 1.00000
0.79472 0.41212 1.00000
0.92111 0.46452 1.00000
1.00000 0.54311 1.00000
1.00000 0.61818 1.00000
0.00000 0.46427 0.97313
0.17293 0.47372 0.97930
0.42694 0.50266 0.99064
0.63903 0.53117 1.00000
0.80157 0.57019 1.00000
0.91830 0.60853 1.00000
1.00000 0.65380 1.00000
1.00000 0.71088 1.00000
0.27883 0.67029 0.97383
0.36726 0.67707 0.97657
0.52424 0.69444 0.98338
0.68184 0.70984 0.99024
0.80269 0.72219 0.99592
0.90769 0.75179 0.99863
0.99106 0.76234 1.00000
1.00000 0.78897 0.99469
0.36866 0.78570 0.96976
0.42751 0.78808 0.97169
0.53907 0.79273 0.97572
0.68319 0.80535 0.98065
0.79962 0.81527 0.98717
0.89382 0.82650 0.99287
0.97532 0.84020 0.99594
1.00000 0.84810 0.99231
0.27681 0.85445 0.96560
0.35459 0.85625 0.96753
0.49507 0.86050 0.97199
0.64849 0.86696 0.97814
0.77572 0.87626 0.98295
0.87464 0.88477 0.98953
0.95773 0.89230 0.99218
1.00000 0.89905 0.99018
0.11446 0.91761 0.95856
0.25602 0.91908 0.96059
0.43257 0.92235 0.96523
0.60248 0.92642 0.97123
0.74330 0.93038 0.97707
0.85006 0.93558 0.98266
0.93629 0.94141 0.98492
0.99650 0.94304 0.98734
0.00000 0.96418 0.94441
0.00000 0.96529 0.94663
0.35023 0.96792 0.95195
0.55483 0.97121 0.95923
0.70310 0.97416 0.96493
0.81829 0.97708 0.97124
0.90981 0.98032 0.97585
0.98058 0.98052 0.98061
