cube lut/classic chrome_sRGB.cube
# sRGB
# github.com/abpy/FujifilmCameraProfiles
LUT_3D_SIZE 32
0.00000 0.00000 0.00000
0.00408 0.00000 0.00000
0.01049 0.00025 0.00000
0.02398 0.00000 0.00000
0.04232 0.00000 0.00000
0.06536 0.00229 0.00085
0.10824 0.00309 0.00000
0.16266 0.00522 0.00005
0.22450 0.01000 0.00165
0.29777 0.01167 0.00000
0.37075 0.01698 0.00000
0.44061 0.02784 0.00064
0.50817 0.03526 0.00108
0.57105 0.04571 0.00324
0.62926 0.05698 0.00764
0.68458 0.06639 0.00749
0.73355 0.07667 0.00721
0.77658 0.09040 0.00314
0.81461 0.10624 0.00000
0.84841 0.12002 0.00000
0.87904 0.13277 0.00000
0.90783 0.14541 0.00000
0.93500 0.15758 0.00000
0.96075 0.16990 0.00000
0.98447 0.18126 0.00000
1.00000 0.19279 0.00000
1.00000 0.20442 0.00000
1.00000 0.21620 0.00000
1.00000 0.22751 0.00000
1.00000 0.23806 0.00000
1.00000 0.24929 0.00000
1.00000 0.26076 0.00000
0.00000 0.00224 0.00000
0.00247 0.00328 0.00014
0.01101 0.00452 0.00039
0.02382 0.00602 0.00053
0.04231 0.00682 0.00143
0.06422 0.00861 0.00482
0.10819 0.01150 0.00418
0.16302 0.01466 0.00489
0.22492 0.02060 0.00730
0.29883 0.02415 0.00352
0.37201 0.03101 0.00303
0.44195 0.04283 0.00529
0.50974 0.05078 0.00494
0.57277 0.06022 0.00661
0.63097 0.06999 0.01114
0.68617 0.07934 0.01082
0.73499 0.08909 0.01062
0.77796 0.10180 0.00675
0.81585 0.11746 0.00000
0.84958 0.13047 0.00000
0.88013 0.14261 0.00000
0.90892 0.15495 0.00000
0.93608 0.16689 0.00000
0.96181 0.17894 0.00000
0.98553 0.18991 0.00000
1.00000 0.20111 0.00000
1.00000 0.21245 0.00000
1.00000 0.22394 0.00000
1.00000 0.23491 0.00000
1.00000 0.24511 0.00000
1.00000 0.25600 0.00000
1.00000 0.26714 0.00000
0.00000 0.00766 0.00000
0.00128 0.00913 0.00055
0.01036 0.01056 0.00153
0.02471 0.01304 0.00218
0.04511 0.01422 0.00387
0.06549 0.01616 0.00687
0.11123 0.02010 0.00665
0.16630 0.02362 0.00747
0.22743 0.03079 0.01198
0.30119 0.03689 0.00885
0.37395 0.04549 0.00939
0.44360 0.05680 0.01252
0.51146 0.06489 0.01166
0.57464 0.07376 0.01300
0.63282 0.08241 0.01780
0.68786 0.09201 0.01717
0.73651 0.10141 0.01703
0.77945 0.11322 0.01342
0.81720 0.12896 0.00287
0.85086 0.14131 0.00000
0.88133 0.15291 0.00000
0.91012 0.16505 0.00000
0.93729 0.17681 0.00000
0.96299 0.18865 0.00000
0.98671 0.19923 0.00000
1.00000 0.21013 0.00000
1.00000 0.22120 0.00000
1.00000 0.23241 0.00000
1.00000 0.24305 0.00000
1.00000 0.25289 0.00000
1.00000 0.26344 0.00000
1.00000 0.27424 0.00000
0.00000 0.01859 0.00078
0.00000 0.01992 0.00138
0.00822 0.02166 0.00312
0.02318 0.02427 0.00430
0.04727 0.02572 0.00632
0.07604 0.03023 0.00773
0.11724 0.03559 0.00980
0.17196 0.04096 0.01058
0.23326 0.04794 0.01471
0.30626 0.05366 0.01196
0.37830 0.06212 0.01346
0.44725 0.07263 0.01946
0.51474 0.08123 0.01949
0.57777 0.08985 0.02199
0.63568 0.09748 0.02878
0.69025 0.10792 0.02854
0.73859 0.11711 0.02928
0.78151 0.12785 0.02678
0.81905 0.14404 0.01433
0.85263 0.15559 0.00619
0.88299 0.16656 0.00000
0.91180 0.17853 0.00000
0.93898 0.19012 0.00000
0.96466 0.20173 0.00000
0.98837 0.21185 0.00000
1.00000 0.22240 0.00000
1.00000 0.23316 0.00000
1.00000 0.24403 0.00000
1.00000 0.25425 0.00000
1.00000 0.26365 0.00000
1.00000 0.27377 0.00000
1.00000 0.28411 0.00000
0.00000 0.03476 0.00221
0.00000 0.03689 0.00360
0.00384 0.04095 0.00428
0.01911 0.04242 0.00743
0.04556 0.04499 0.00779
0.08248 0.05220 0.00961
0.12410 0.05793 0.01269
0.17970 0.06500 0.01389
0.24159 0.07278 0.01572
0.31257 0.07846 0.01713
0.38400 0.08576 0.01829
0.45297 0.09203 0.02308
0.51993 0.10034 0.02213
0.58277 0.10884 0.02634
0.64023 0.11520 0.03850
0.69376 0.12669 0.04006
0.74143 0.13568 0.04360
0.78430 0.14501 0.04528
0.82146 0.16227 0.03168
0.85494 0.17308 0.02509
0.88514 0.18343 0.01993
0.91398 0.19537 0.00935
0.94119 0.20684 0.00000
0.96684 0.21820 0.00000
0.99056 0.22777 0.00000
1.00000 0.23793 0.00000
1.00000 0.24835 0.00000
1.00000 0.25882 0.00000
1.00000 0.26857 0.00000
1.00000 0.27743 0.00000
1.00000 0.28704 0.00000
1.00000 0.29685 0.00000
0.00000 0.05692 0.00563
0.00000 0.05872 0.00584
0.00000 0.06316 0.00666
0.01320 0.06943 0.00852
0.03915 0.07388 0.00986
0.07922 0.07845 0.01155
0.12771 0.08617 0.01385
0.18489 0.09586 0.01609
0.24767 0.10185 0.01571
0.31850 0.11029 0.02176
0.38936 0.11756 0.02396
0.45873 0.12104 0.02801
0.52589 0.12924 0.02675
0.58900 0.13492 0.02744
0.64655 0.13746 0.04086
0.69821 0.14893 0.04300
0.74504 0.15809 0.04990
0.78800 0.16538 0.05910
0.82459 0.18369 0.04741
0.85787 0.19344 0.04548
0.88781 0.20301 0.04447
0.91669 0.21509 0.03546
0.94392 0.22662 0.02329
0.96953 0.23783 0.01677
0.99328 0.24687 0.01052
1.00000 0.25667 0.00142
1.00000 0.26675 0.00000
1.00000 0.27680 0.00000
1.00000 0.28602 0.00000
1.00000 0.29426 0.00000
1.00000 0.30328 0.00000
1.00000 0.31247 0.00000
0.00000 0.09111 0.00704
0.00000 0.09225 0.00718
0.00000 0.09615 0.00781
0.00000 0.10200 0.00920
0.02742 0.10720 0.01010
0.07199 0.11387 0.01185
0.12261 0.12127 0.01366
0.18577 0.13304 0.01436
0.25223 0.14070 0.01649
0.32204 0.14986 0.02394
0.39239 0.15616 0.02629
0.46301 0.16166 0.02916
0.53053 0.16811 0.03169
0.59429 0.17297 0.03165
0.65383 0.17486 0.03777
0.70288 0.18116 0.04346
0.74899 0.18703 0.04841
0.79205 0.19114 0.06146
0.82827 0.20857 0.05147
0.86138 0.21773 0.05580
0.89103 0.22629 0.06139
0.91997 0.23815 0.05712
0.94716 0.24936 0.04946
0.97267 0.26020 0.04627
0.99645 0.26865 0.04328
1.00000 0.27819 0.03616
1.00000 0.28807 0.02181
1.00000 0.29778 0.00000
1.00000 0.30653 0.00000
1.00000 0.31414 0.00000
1.00000 0.32255 0.00000
1.00000 0.33106 0.00000
0.00000 0.13873 0.00441
0.00000 0.13924 0.00398
0.00000 0.14225 0.00432
0.00000 0.14698 0.00431
0.00000 0.15198 0.00527
0.05239 0.15809 0.00702
0.11544 0.16415 0.00899
0.17854 0.17330 0.01133
0.25036 0.18564 0.01599
0.32427 0.19538 0.01992
0.39314 0.20383 0.02599
0.46333 0.20845 0.02753
0.53253 0.21537 0.03488
0.59779 0.22054 0.03630
0.65674 0.22308 0.03678
0.70632 0.22618 0.04407
0.75236 0.22956 0.04911
0.79558 0.23089 0.05867
0.83226 0.24109 0.05123
0.86516 0.24714 0.05578
0.89446 0.25326 0.06647
0.92358 0.26467 0.06489
0.95075 0.27592 0.06208
0.97617 0.28635 0.06428
1.00000 0.29374 0.06641
1.00000 0.30258 0.06450
1.00000 0.31203 0.05630
1.00000 0.32132 0.03519
1.00000 0.32963 0.00000
1.00000 0.33670 0.00000
1.00000 0.34462 0.00000
1.00000 0.35250 0.00000
0.00000 0.19323 0.00000
0.00000 0.19354 0.00000
0.00000 0.19586 0.00000
0.00000 0.19950 0.00000
0.00000 0.20423 0.00000
0.00049 0.20939 0.00018
0.09424 0.21569 0.00275
0.16780 0.22332 0.00550
0.24186 0.23304 0.00834
0.32120 0.24433 0.01284
0.39143 0.25308 0.01451
0.46113 0.26107 0.02310
0.53042 0.26724 0.03254
0.59663 0.27209 0.03343
0.65685 0.27604 0.04189
0.70695 0.27878 0.04548
0.75404 0.27988 0.04691
0.79795 0.28243 0.05239
0.83546 0.28662 0.05424
0.86878 0.28854 0.05696
0.89761 0.29055 0.07149
0.92728 0.29746 0.06680
0.95434 0.30622 0.06135
0.97957 0.31546 0.06633
1.00000 0.32211 0.07410
1.00000 0.33053 0.07760
1.00000 0.33955 0.07536
1.00000 0.34808 0.06408
1.00000 0.35555 0.02972
1.00000 0.36181 0.00000
1.00000 0.36910 0.00000
1.00000 0.37635 0.00000
0.00000 0.25043 0.00000
0.00000 0.25057 0.00000
0.00000 0.25222 0.00000
0.00000 0.25645 0.00000
0.00000 0.26132 0.00000
0.00000 0.26632 0.00000
0.02677 0.27207 0.00000
0.14464 0.27967 0.00000
0.22825 0.28758 0.00000
0.30822 0.29530 0.00035
0.38469 0.30429 0.00661
0.45542 0.31161 0.01443
0.52451 0.31885 0.02268
0.58886 0.32591 0.03214
0.65080 0.32907 0.03143
0.70376 0.33285 0.04432
0.75254 0.33498 0.04620
0.79729 0.33751 0.04515
0.83663 0.33824 0.05087
0.87088 0.33944 0.05429
0.90017 0.34097 0.06799
0.93022 0.34326 0.06931
0.95756 0.34645 0.06177
0.98265 0.35178 0.06411
1.00000 0.35543 0.07241
1.00000 0.36140 0.07681
1.00000 0.36950 0.07810
1.00000 0.37768 0.07344
1.00000 0.38471 0.05287
1.00000 0.39026 0.01367
1.00000 0.39669 0.00000
1.00000 0.40292 0.00000
0.00000 0.31039 0.00000
0.00000 0.31076 0.00000
0.00000 0.31199 0.00000
0.00000 0.31505 0.00000
0.00000 0.32000 0.00000
0.00000 0.32454 0.00000
0.00000 0.32942 0.00000
0.08720 0.33590 0.00000
0.20278 0.34236 0.00000
0.28939 0.34881 0.00000
0.36960 0.35479 0.00000
0.44465 0.36353 0.00419
0.51572 0.36960 0.01313
0.58049 0.37452 0.02210
0.64176 0.38357 0.02401
0.69882 0.38647 0.03626
0.74941 0.38933 0.03785
0.79460 0.39226 0.04285
0.83488 0.39388 0.05064
0.87041 0.39414 0.05058
0.90172 0.39352 0.05300
0.93127 0.39587 0.06464
0.95897 0.39737 0.06586
0.98434 0.39875 0.06740
1.00000 0.39956 0.07212
1.00000 0.40125 0.07698
1.00000 0.40530 0.07670
1.00000 0.41051 0.07077
1.00000 0.41588 0.05289
1.00000 0.42079 0.02482
1.00000 0.42683 0.00000
1.00000 0.43237 0.00000
0.00000 0.36618 0.00000
0.00000 0.36645 0.00000
0.00000 0.36737 0.00000
0.00000 0.36995 0.00000
0.00000 0.37352 0.00000
0.00000 0.37785 0.00000
0.00000 0.38269 0.00000
0.00000 0.38856 0.00000
0.15730 0.39494 0.00000
0.26288 0.40117 0.00000
0.34920 0.40812 0.00000
0.42816 0.41466 0.00000
0.50152 0.42088 0.00185
0.57183 0.42615 0.01083
0.63540 0.43318 0.01389
0.69317 0.44034 0.02421
0.74480 0.44506 0.03232
0.79079 0.44556 0.02907
0.83094 0.44848 0.04978
0.86724 0.44907 0.04938
0.90023 0.44965 0.04604
0.93007 0.44987 0.05820
0.95801 0.44978 0.06258
0.98343 0.45089 0.06941
1.00000 0.45224 0.07611
1.00000 0.45201 0.07704
1.00000 0.45158 0.07953
1.00000 0.45233 0.07638
1.00000 0.45386 0.05587
1.00000 0.45550 0.02485
1.00000 0.45909 0.00000
1.00000 0.46310 0.00000
0.00000 0.42201 0.00000
0.00000 0.42225 0.00000
0.00000 0.42293 0.00000
0.00000 0.42491 0.00000
0.00000 0.42790 0.00000
0.00000 0.43156 0.00000
0.00000 0.43615 0.00000
0.00000 0.44165 0.00000
0.07552 0.44817 0.00000
0.22589 0.45516 0.00000
0.32530 0.46156 0.00000
0.40902 0.46756 0.00000
0.48398 0.47171 0.00000
0.55864 0.47835 0.00000
0.62725 0.48492 0.00000
0.68694 0.49124 0.00827
0.73912 0.49662 0.01731
0.78395 0.50166 0.02494
0.82543 0.50103 0.04420
0.86188 0.50219 0.04455
0.89491 0.50428 0.05004
0.92619 0.50443 0.05808
0.95428 0.50484 0.06647
0.98009 0.50393 0.07103
1.00000 0.50385 0.07409
1.00000 0.50436 0.08122
1.00000 0.50424 0.08994
1.00000 0.50324 0.08578
1.00000 0.50106 0.06470
1.00000 0.49878 0.03589
1.00000 0.49806 0.00084
1.00000 0.49816 0.00000
0.00000 0.47492 0.00000
0.00000 0.47511 0.00000
0.00000 0.47555 0.00000
0.00000 0.47686 0.00000
0.00000 0.47925 0.00000
0.00000 0.48216 0.00000
0.00000 0.48613 0.00000
0.00000 0.49188 0.00000
0.00000 0.49840 0.00000
0.16344 0.50518 0.00000
0.29282 0.51294 0.00000
0.38568 0.51903 0.00000
0.46696 0.52326 0.00000
0.54123 0.52760 0.00000
0.61332 0.53452 0.00000
0.67710 0.54124 0.00000
0.73106 0.54648 0.00694
0.77675 0.55036 0.01264
0.81652 0.55465 0.04977
0.85382 0.55493 0.04894
0.88856 0.55433 0.04127
0.91914 0.55659 0.06094
0.94828 0.55685 0.07166
0.97435 0.55684 0.07820
0.99797 0.55657 0.07602
1.00000 0.55593 0.08284
1.00000 0.55450 0.09194
1.00000 0.55372 0.09734
1.00000 0.55231 0.08618
1.00000 0.54914 0.05945
1.00000 0.54432 0.02422
1.00000 0.54033 0.00000
0.00000 0.52452 0.00000
0.00000 0.52465 0.00000
0.00000 0.52495 0.00000
0.00000 0.52588 0.00000
0.00000 0.52792 0.00000
0.00000 0.53062 0.00000
0.00000 0.53436 0.00000
0.00000 0.53947 0.00000
0.00000 0.54598 0.00000
0.06086 0.55316 0.00000
0.24197 0.55963 0.00000
0.35732 0.56601 0.00000
0.44472 0.57018 0.00000
0.52403 0.57475 0.00000
0.59606 0.57975 0.00000
0.66188 0.58683 0.00000
0.71936 0.59300 0.00333
0.76712 0.59689 0.00000
0.80785 0.60039 0.02587
0.84449 0.60296 0.04844
0.87800 0.60585 0.05063
0.91159 0.60352 0.05916
0.94084 0.60461 0.06980
0.96687 0.60583 0.08623
0.99146 0.60490 0.08707
1.00000 0.60551 0.08798
1.00000 0.60525 0.09842
1.00000 0.60317 0.10461
1.00000 0.59943 0.09495
1.00000 0.59683 0.08089
1.00000 0.59305 0.06228
1.00000 0.58813 0.02595
0.00000 0.57459 0.00000
0.00000 0.57479 0.00000
0.00000 0.57511 0.00000
0.00000 0.57591 0.00000
0.00000 0.57760 0.00000
0.00000 0.58005 0.00000
0.00000 0.58314 0.00000
0.00000 0.58726 0.00000
0.00000 0.59275 0.00000
0.00000 0.59827 0.00000
0.17966 0.60400 0.00000
0.31600 0.60911 0.00000
0.42020 0.61376 0.00000
0.50398 0.61791 0.00000
0.57916 0.62288 0.00000
0.64554 0.62762 0.00000
0.70426 0.63342 0.00000
0.75465 0.63911 0.01445
0.79748 0.64260 0.00000
0.83551 0.64490 0.04186
0.86975 0.64689 0.04551
0.90135 0.64968 0.07493
0.93202 0.64895 0.08093
0.95970 0.64803 0.08332
0.98443 0.64892 0.08880
1.00000 0.64949 0.10202
1.00000 0.64922 0.10884
1.00000 0.64985 0.11207
1.00000 0.64667 0.10894
1.00000 0.64229 0.09528
1.00000 0.63758 0.08030
1.00000 0.63264 0.06319
0.00000 0.62032 0.00000
0.00000 0.62054 0.00000
0.00000 0.62085 0.00000
0.00000 0.62157 0.00000
0.00000 0.62312 0.00000
0.00000 0.62561 0.00000
0.00000 0.62846 0.00000
0.00000 0.63200 0.00000
0.00000 0.63619 0.00000
0.00000 0.64112 0.00000
0.05334 0.64568 0.00000
0.26608 0.64972 0.00000
0.38822 0.65426 0.00000
0.48276 0.65828 0.00000
0.56028 0.66215 0.00000
0.62904 0.66630 0.00000
0.68840 0.67004 0.00000
0.74070 0.67474 0.00533
0.78625 0.67979 0.03213
0.82683 0.68200 0.02012
0.86161 0.68441 0.05268
0.89372 0.68591 0.06187
0.92238 0.68893 0.09325
0.95051 0.68928 0.10305
0.97743 0.68744 0.09849
1.00000 0.68804 0.09793
1.00000 0.68909 0.11762
1.00000 0.68906 0.12689
1.00000 0.68737 0.12351
1.00000 0.68483 0.11298
1.00000 0.68054 0.09984
1.00000 0.67467 0.08178
0.00000 0.66074 0.00000
0.00000 0.66099 0.00000
0.00000 0.66131 0.00000
0.00000 0.66198 0.00000
0.00000 0.66335 0.00000
0.00000 0.66568 0.00000
0.00000 0.66841 0.00000
0.00000 0.67159 0.00000
0.00000 0.67526 0.00000
0.00000 0.67949 0.00000
0.00000 0.68351 0.00000
0.21361 0.68777 0.00000
0.34649 0.69100 0.00000
0.45593 0.69486 0.00000
0.54015 0.69821 0.00000
0.61074 0.70150 0.00000
0.67286 0.70463 0.00000
0.72638 0.70730 0.00000
0.77364 0.71139 0.03120
0.81600 0.71587 0.05606
0.85312 0.71817 0.05026
0.88533 0.72025 0.06840
0.91472 0.72186 0.08668
0.94201 0.72410 0.10953
0.96807 0.72551 0.11503
0.99385 0.72430 0.11828
1.00000 0.72365 0.11584
1.00000 0.72492 0.12843
1.00000 0.72359 0.14233
1.00000 0.72114 0.13716
1.00000 0.71859 0.12292
1.00000 0.71523 0.10314
0.00000 0.69673 0.00000
0.00000 0.69698 0.00000
0.00000 0.69730 0.00000
0.00000 0.69790 0.00000
0.00000 0.69907 0.00000
0.00000 0.70108 0.00000
0.00000 0.70363 0.00000
0.00000 0.70641 0.00000
0.00000 0.70964 0.00000
0.00000 0.71318 0.00000
0.00000 0.71719 0.00000
0.12021 0.72068 0.00000
0.31117 0.72433 0.00000
0.42139 0.72725 0.00000
0.51734 0.73082 0.00000
0.59200 0.73376 0.00000
0.65570 0.73641 0.00401
0.71171 0.73873 0.02452
0.76039 0.74089 0.01148
0.80350 0.74525 0.06316
0.84224 0.74946 0.08046
0.87616 0.75157 0.08707
0.90618 0.75309 0.07769
0.93426 0.75462 0.10915
0.96066 0.75602 0.11749
0.98446 0.75854 0.13230
1.00000 0.75813 0.14380
1.00000 0.75680 0.13887
1.00000 0.75545 0.14206
1.00000 0.75445 0.15356
1.00000 0.75199 0.15068
1.00000 0.74907 0.12868
0.00000 0.72892 0.00000
0.00000 0.72915 0.00000
0.00000 0.72943 0.00000
0.00000 0.72994 0.00000
0.00000 0.73088 0.00000
0.00000 0.73248 0.00000
0.00000 0.73467 0.00000
0.00000 0.73707 0.00000
0.00000 0.73996 0.00000
0.00000 0.74326 0.00000
0.00000 0.74693 0.00000
0.00000 0.75050 0.00000
0.26146 0.75379 0.00000
0.38997 0.75668 0.00000
0.48890 0.75978 0.00000
0.57220 0.76307 0.01182
0.63795 0.76564 0.01755
0.69551 0.76787 0.04648
0.74644 0.77007 0.06383
0.79065 0.77279 0.04805
0.82987 0.77664 0.08842
0.86536 0.77984 0.10876
0.89707 0.78161 0.10847
0.92616 0.78260 0.09420
0.95269 0.78420 0.12981
0.97762 0.78557 0.13608
0.99996 0.78810 0.15473
1.00000 0.78864 0.16584
1.00000 0.78570 0.16367
1.00000 0.78312 0.15689
1.00000 0.78171 0.16016
1.00000 0.77965 0.15698
0.00000 0.75783 0.00000
0.00000 0.75803 0.00000
0.00000 0.75826 0.00000
0.00000 0.75867 0.00000
0.00000 0.75942 0.00000
0.00000 0.76072 0.00000
0.00000 0.76261 0.00000
0.00000 0.76479 0.00000
0.00000 0.76739 0.00000
0.00000 0.77051 0.00000
0.00000 0.77393 0.00000
0.00000 0.77767 0.00000
0.19688 0.78060 0.00000
0.35872 0.78346 0.00000
0.45932 0.78569 0.00000
0.54860 0.78904 0.01168
0.62058 0.79216 0.05705
0.67908 0.79451 0.06138
0.73128 0.79668 0.08447
0.77740 0.79911 0.09227
0.81749 0.80161 0.08122
0.85366 0.80440 0.11764
0.88700 0.80676 0.13346
0.91709 0.80851 0.13711
0.94492 0.80905 0.11742
0.96967 0.81140 0.15472
0.99343 0.81289 0.16225
1.00000 0.81482 0.17263
1.00000 0.81483 0.18641
1.00000 0.81209 0.18503
1.00000 0.80843 0.17140
1.00000 0.80597 0.15954
0.00000 0.78455 0.00000
0.00000 0.78471 0.00000
0.00000 0.78490 0.00000
0.00000 0.78522 0.00000
0.00000 0.78579 0.00000
0.00000 0.78677 0.00000
0.00000 0.78834 0.00000
0.00000 0.79038 0.00000
0.00000 0.79267 0.00000
0.00000 0.79549 0.00000
0.00000 0.79880 0.00000
0.00000 0.80237 0.00000
0.10400 0.80549 0.00000
0.31350 0.80764 0.00000
0.43642 0.80992 0.00000
0.52182 0.81234 0.00000
0.60090 0.81579 0.07113
0.66373 0.81846 0.09395
0.71614 0.82059 0.09571
0.76343 0.82298 0.11425
0.80537 0.82532 0.12244
0.84230 0.82695 0.11545
0.87605 0.82901 0.14628
0.90757 0.83129 0.16114
0.93611 0.83317 0.16823
0.96247 0.83415 0.14683
0.98604 0.83680 0.18190
1.00000 0.83790 0.18767
1.00000 0.83846 0.18957
1.00000 0.83887 0.20094
1.00000 0.83649 0.20368
1.00000 0.83208 0.18640
0.00000 0.80941 0.00000
0.00000 0.80955 0.00000
0.00000 0.80970 0.00000
0.00000 0.80995 0.00000
0.00000 0.81038 0.00000
0.00000 0.81111 0.00000
0.00000 0.81230 0.00000
0.00000 0.81396 0.00000
0.00000 0.81586 0.00000
0.00000 0.81826 0.00000
0.00000 0.82132 0.00000
0.00000 0.82478 0.00000
0.00000 0.82836 0.00000
0.26563 0.83071 0.00000
0.40325 0.83266 0.00000
0.50109 0.83480 0.00000
0.57786 0.83749 0.04753
0.64721 0.84043 0.11005
0.70270 0.84269 0.12167
0.75013 0.84484 0.12733
0.79290 0.84716 0.14616
0.83120 0.84890 0.15285
0.86545 0.85008 0.14636
0.89736 0.85213 0.17635
0.92733 0.85452 0.19109
0.95451 0.85684 0.20061
0.97952 0.85854 0.18332
1.00000 0.86032 0.20333
1.00000 0.86093 0.21319
1.00000 0.86082 0.21014
1.00000 0.86109 0.21951
1.00000 0.85904 0.22331
0.00000 0.83195 0.00000
0.00000 0.83207 0.00000
0.00000 0.83220 0.00000
0.00000 0.83241 0.00000
0.00000 0.83276 0.00000
0.00000 0.83338 0.00000
0.00000 0.83439 0.00000
0.00000 0.83587 0.00000
0.00000 0.83763 0.00000
0.00000 0.83967 0.00000
0.00000 0.84231 0.00000
0.00000 0.84556 0.00000
0.00000 0.84905 0.00000
0.20474 0.85223 0.00000
0.36577 0.85432 0.00000
0.47840 0.85649 0.03071
0.55762 0.85854 0.04170
0.62800 0.86113 0.10275
0.68883 0.86356 0.14350
0.73814 0.86559 0.15228
0.78077 0.86763 0.15881
0.81962 0.86960 0.17481
0.85521 0.87100 0.18203
0.88771 0.87219 0.17887
0.91799 0.87422 0.20682
0.94647 0.87683 0.22158
0.97229 0.87973 0.23038
0.99442 0.88136 0.21419
1.00000 0.88226 0.22719
1.00000 0.88264 0.23972
1.00000 0.88195 0.23177
1.00000 0.88135 0.23471
0.00000 0.85244 0.00000
0.00000 0.85256 0.00000
0.00000 0.85269 0.00000
0.00000 0.85290 0.00000
0.00000 0.85324 0.00000
0.00000 0.85381 0.00000
0.00000 0.85473 0.00000
0.00000 0.85613 0.00000
0.00000 0.85790 0.00000
0.00000 0.85981 0.00000
0.00000 0.86220 0.00000
0.00000 0.86518 0.00000
0.00000 0.86849 0.00000
0.09136 0.87201 0.02364
0.32911 0.87465 0.05301
0.44744 0.87671 0.05540
0.54144 0.87892 0.07731
0.60837 0.88086 0.08499
0.67230 0.88329 0.14333
0.72549 0.88542 0.17128
0.76926 0.88727 0.17628
0.80818 0.88909 0.18700
0.84460 0.89077 0.20350
0.87843 0.89210 0.21154
0.90908 0.89319 0.20903
0.93781 0.89554 0.23755
0.96476 0.89865 0.25121
0.98741 0.90136 0.25851
1.00000 0.90234 0.25008
1.00000 0.90272 0.24885
1.00000 0.90330 0.26304
1.00000 0.90145 0.25541
0.00000 0.87197 0.00000
0.00000 0.87209 0.00000
0.00000 0.87223 0.00000
0.00000 0.87245 0.00000
0.00000 0.87279 0.00000
0.00000 0.87334 0.00000
0.00000 0.87424 0.00000
0.00000 0.87563 0.00000
0.00000 0.87749 0.00000
0.00000 0.87953 0.00000
0.00000 0.88179 0.00000
0.00000 0.88439 0.00000
0.00000 0.88732 0.00128
0.00000 0.89029 0.04679
0.28407 0.89326 0.09071
0.41857 0.89547 0.09426
0.51708 0.89776 0.09839
0.59393 0.89994 0.10680
0.65385 0.90193 0.12406
0.71099 0.90427 0.17610
0.75781 0.90615 0.19686
0.79762 0.90769 0.20159
0.83446 0.90948 0.21532
0.86903 0.91119 0.23150
0.90077 0.91252 0.24081
0.92970 0.91403 0.24196
0.95667 0.91671 0.26676
0.98035 0.91922 0.27797
0.99883 0.92141 0.28536
1.00000 0.92272 0.27770
1.00000 0.92282 0.26977
1.00000 0.92156 0.28807
0.00000 0.89088 0.00000
0.00000 0.89101 0.00000
0.00000 0.89117 0.00000
0.00000 0.89140 0.00000
0.00000 0.89175 0.00000
0.00000 0.89230 0.00000
0.00000 0.89315 0.00000
0.00000 0.89444 0.00000
0.00000 0.89624 0.00000
0.00000 0.89834 0.00000
0.00000 0.90050 0.00000
0.00000 0.90285 0.00000
0.00000 0.90533 0.02858
0.00000 0.90783 0.07510
0.21724 0.91053 0.11373
0.38910 0.91314 0.13234
0.49126 0.91548 0.12575
0.57625 0.91805 0.13118
0.63921 0.92014 0.13094
0.69453 0.92223 0.16339
0.74574 0.92429 0.20723
0.78835 0.92594 0.22198
0.82568 0.92760 0.22604
0.86032 0.92942 0.24261
0.89244 0.93107 0.25972
0.92211 0.93264 0.26997
0.94895 0.93414 0.26791
0.97275 0.93599 0.29196
0.99268 0.93843 0.30431
1.00000 0.94096 0.30975
1.00000 0.94152 0.30995
1.00000 0.93911 0.29599
0.00000 0.90875 0.00000
0.00000 0.90887 0.00000
0.00000 0.90900 0.00000
0.00000 0.90920 0.00000
0.00000 0.90949 0.00000
0.00000 0.90993 0.00000
0.00000 0.91061 0.00000
0.00000 0.91167 0.00000
0.00000 0.91329 0.00000
0.00000 0.91545 0.00000
0.00000 0.91774 0.00000
0.00000 0.92017 0.00000
0.00000 0.92264 0.05203
0.00000 0.92509 0.09910
0.09566 0.92749 0.12952
0.35024 0.93022 0.16084
0.46737 0.93272 0.16455
0.55316 0.93524 0.15852
0.62609 0.93788 0.16543
0.67974 0.93963 0.16152
0.73188 0.94144 0.20192
0.77850 0.94315 0.23597
0.81770 0.94467 0.24570
0.85213 0.94611 0.25050
0.88425 0.94776 0.26924
0.91414 0.94940 0.28537
0.94150 0.95070 0.29458
0.96536 0.95178 0.29464
0.98589 0.95428 0.31869
1.00000 0.95686 0.33043
1.00000 0.95757 0.33656
1.00000 0.95603 0.33820
0.00000 0.92551 0.00000
0.00000 0.92561 0.00000
0.00000 0.92573 0.00000
0.00000 0.92589 0.00000
