cube lut/eterna_DisplayP3.cube
# DisplayP3
# github.com/abpy/FujifilmCameraProfiles
LUT_3D_SIZE 32
0.00000 0.00000 0.00000
0.02769 0.00810 0.00919
0.05775 0.01331 0.01087
0.09044 0.01376 0.01096
0.12789 0.01710 0.01329
0.16614 0.02254 0.01432
0.20492 0.02808 0.01443
0.24636 0.03220 0.01656
0.29165 0.04040 0.02242
0.34060 0.05149 0.02891
0.39169 0.06275 0.03077
0.44221 0.07524 0.03452
0.49153 0.08920 0.04071
0.53858 0.10304 0.04921
0.58306 0.11520 0.05720
0.62551 0.12668 0.06135
0.66499 0.13841 0.06167
0.70119 0.15014 0.05881
0.73514 0.16018 0.05981
0.76723 0.16990 0.06039
0.79700 0.17940 0.05934
0.82464 0.18821 0.05770
0.85039 0.19676 0.05574
0.87424 0.20527 0.05663
0.89505 0.21473 0.06615
0.91057 0.22695 0.09314
0.92050 0.24232 0.12906
0.92698 0.25833 0.15974
0.93143 0.27391 0.18322
0.93542 0.28948 0.20128
0.94047 0.30568 0.21745
0.94966 0.32479 0.24382
0.00480 0.02505 0.00871
0.02409 0.02607 0.01373
0.05478 0.03166 0.01219
0.09006 0.03235 0.01086
0.12650 0.03694 0.01171
0.16511 0.04378 0.01218
0.20417 0.04903 0.01136
0.24568 0.05321 0.01189
0.29108 0.06068 0.01638
0.34027 0.07015 0.02236
0.39177 0.07960 0.02442
0.44258 0.09072 0.02787
0.49204 0.10313 0.03384
0.53914 0.11544 0.04311
0.58357 0.12647 0.05170
0.62610 0.13718 0.05605
0.66564 0.14823 0.05615
0.70183 0.15913 0.05321
0.73576 0.16851 0.05460
0.76781 0.17770 0.05549
0.79755 0.18674 0.05460
0.82515 0.19514 0.05303
0.85087 0.20321 0.05133
0.87469 0.21129 0.05257
0.89549 0.22033 0.06267
0.91101 0.23209 0.09072
0.92088 0.24697 0.12768
0.92731 0.26255 0.15892
0.93168 0.27780 0.18266
0.93558 0.29308 0.20080
0.94055 0.30908 0.21686
0.94964 0.32821 0.24290
0.00000 0.05235 0.00840
0.01868 0.05120 0.01361
0.05151 0.05553 0.01382
0.08789 0.05731 0.01333
0.12493 0.06028 0.01210
0.16422 0.06290 0.01246
0.20362 0.06433 0.01370
0.24445 0.06878 0.01386
0.28973 0.07593 0.01662
0.33919 0.08485 0.02146
0.39126 0.09392 0.02291
0.44251 0.10473 0.02512
0.49224 0.11635 0.03030
0.53951 0.12762 0.03949
0.58393 0.13787 0.04802
0.62661 0.14805 0.05211
0.66625 0.15855 0.05167
0.70247 0.16871 0.04844
0.73640 0.17748 0.05004
0.76843 0.18618 0.05112
0.79813 0.19476 0.05027
0.82570 0.20275 0.04865
0.85139 0.21033 0.04716
0.87520 0.21797 0.04870
0.89600 0.22656 0.05931
0.91151 0.23784 0.08837
0.92132 0.25218 0.12636
0.92768 0.26731 0.15818
0.93196 0.28218 0.18216
0.93578 0.29715 0.20039
0.94063 0.31293 0.21629
0.94960 0.33209 0.24193
0.00000 0.08305 0.00620
0.00562 0.08111 0.01145
0.04040 0.08254 0.01415
0.08119 0.08536 0.01597
0.12258 0.08961 0.01661
0.16173 0.09296 0.01854
0.20228 0.09042 0.01738
0.24380 0.08938 0.01456
0.28884 0.09336 0.01786
0.33797 0.10080 0.02556
0.39027 0.10973 0.02724
0.44196 0.12034 0.02774
0.49208 0.13127 0.03176
0.53968 0.14175 0.04044
0.58413 0.15162 0.04751
0.62708 0.16155 0.05048
0.66693 0.17167 0.04896
0.70324 0.18114 0.04501
0.73721 0.18931 0.04645
0.76924 0.19750 0.04743
0.79890 0.20559 0.04640
0.82644 0.21312 0.04447
0.85211 0.22010 0.04310
0.87589 0.22717 0.04482
0.89670 0.23521 0.05577
0.91221 0.24584 0.08580
0.92196 0.25947 0.12499
0.92822 0.27399 0.15747
0.93238 0.28835 0.18174
0.93606 0.30289 0.20002
0.94077 0.31836 0.21567
0.94956 0.33756 0.24067
0.00000 0.11533 0.00685
0.00000 0.11010 0.01602
0.01938 0.11384 0.01683
0.07034 0.11425 0.02078
0.11663 0.12211 0.02170
0.15829 0.12380 0.02314
0.19945 0.12328 0.02336
0.24143 0.12265 0.02179
0.28762 0.12114 0.02150
0.33774 0.12218 0.02947
0.39018 0.12859 0.03144
0.44175 0.13808 0.03362
0.49189 0.14783 0.03999
0.53970 0.15722 0.04929
0.58408 0.16681 0.05343
0.62736 0.17656 0.05439
0.66754 0.18636 0.05161
0.70402 0.19541 0.04644
0.73810 0.20320 0.04693
0.77015 0.21103 0.04728
0.79980 0.21874 0.04571
0.82733 0.22588 0.04304
0.85298 0.23225 0.04152
0.87675 0.23874 0.04302
0.89758 0.24617 0.05361
0.91313 0.25606 0.08392
0.92280 0.26884 0.12411
0.92894 0.28261 0.15719
0.93296 0.29637 0.18167
0.93646 0.31037 0.19994
0.94095 0.32543 0.21521
0.94949 0.34468 0.23925
0.00000 0.15288 0.00658
0.00000 0.14977 0.01585
0.00000 0.14889 0.02069
0.05348 0.15160 0.02647
0.10486 0.15297 0.02803
0.14966 0.15766 0.02865
0.19536 0.15890 0.02908
0.23738 0.15974 0.03231
0.28465 0.15795 0.03283
0.33599 0.15751 0.04148
0.38980 0.15813 0.03760
0.44217 0.16153 0.03779
0.49255 0.16791 0.04727
0.54030 0.17519 0.06067
0.58429 0.18403 0.06322
0.62764 0.19327 0.06387
0.66814 0.20238 0.06170
0.70480 0.21099 0.05542
0.73902 0.21837 0.05425
0.77112 0.22592 0.05344
0.80077 0.23338 0.05103
0.82829 0.24029 0.04730
0.85396 0.24617 0.04527
0.87774 0.25217 0.04596
0.89862 0.25903 0.05495
0.91424 0.26819 0.08400
0.92384 0.28006 0.12445
0.92986 0.29302 0.15785
0.93369 0.30611 0.18237
0.93698 0.31951 0.20050
0.94121 0.33409 0.21521
0.94941 0.35338 0.23791
0.00000 0.18973 0.00739
0.00000 0.18655 0.01659
0.00000 0.18425 0.02495
0.01753 0.18441 0.02888
0.08771 0.18692 0.03285
0.13837 0.18943 0.03571
0.18440 0.19242 0.03645
0.23203 0.19518 0.04038
0.27966 0.19709 0.04317
0.33165 0.19694 0.05009
0.38664 0.19657 0.04609
0.44109 0.19671 0.04929
0.49304 0.19834 0.05786
0.54096 0.20017 0.06996
0.58517 0.20541 0.06967
0.62849 0.21293 0.07218
0.66916 0.22049 0.07432
0.70587 0.22837 0.06928
0.74012 0.23520 0.06767
0.77221 0.24224 0.06643
0.80183 0.24927 0.06351
0.82933 0.25587 0.05876
0.85503 0.26130 0.05587
0.87882 0.26686 0.05528
0.89978 0.27327 0.06151
0.91552 0.28176 0.08726
0.92507 0.29275 0.12676
0.93097 0.30491 0.15998
0.93460 0.31734 0.18425
0.93763 0.33012 0.20207
0.94155 0.34416 0.21603
0.94932 0.36346 0.23695
0.00000 0.22779 0.00852
0.00000 0.22455 0.01729
0.00000 0.22153 0.02687
0.00000 0.21970 0.03205
0.05850 0.22188 0.03605
0.12361 0.22526 0.03991
0.17433 0.22717 0.04132
0.22224 0.23013 0.04294
0.27382 0.23386 0.04778
0.32664 0.23580 0.05277
0.38124 0.23614 0.05336
0.43698 0.23702 0.06160
0.49094 0.23730 0.07019
0.54000 0.23785 0.07956
0.58602 0.23715 0.07713
0.62969 0.23893 0.07843
0.67067 0.24295 0.08396
0.70750 0.24901 0.08181
0.74173 0.25454 0.08129
0.77368 0.26057 0.08168
0.80316 0.26693 0.08024
0.83055 0.27305 0.07589
0.85625 0.27786 0.07260
0.88003 0.28282 0.07081
0.90105 0.28867 0.07382
0.91697 0.29645 0.09457
0.92648 0.30656 0.13166
0.93227 0.31794 0.16402
0.93569 0.32975 0.18767
0.93843 0.34193 0.20496
0.94199 0.35542 0.21804
0.94924 0.37465 0.23677
0.00000 0.26841 0.00979
0.00000 0.26541 0.01766
0.00000 0.26238 0.02670
0.00000 0.25957 0.03500
0.00341 0.25962 0.03882
0.09857 0.26323 0.04277
0.15855 0.26613 0.04467
0.21093 0.26862 0.04810
0.26302 0.27119 0.05202
0.31856 0.27548 0.05619
0.37407 0.27732 0.06146
0.43090 0.27841 0.07085
0.48582 0.27843 0.08095
0.53780 0.27975 0.08515
0.58566 0.27842 0.08533
0.63042 0.27700 0.08902
0.67222 0.27566 0.09609
0.70944 0.27598 0.09391
0.74372 0.27827 0.09219
0.77564 0.28246 0.09463
0.80497 0.28743 0.09600
0.83214 0.29244 0.09354
0.85776 0.29639 0.09129
0.88147 0.30059 0.08977
0.90249 0.30573 0.09066
0.91863 0.31258 0.10605
0.92810 0.32163 0.13955
0.93378 0.33208 0.17036
0.93696 0.34321 0.19297
0.93939 0.35478 0.20949
0.94255 0.36766 0.22157
0.94917 0.38666 0.23776
0.00000 0.31188 0.01302
0.00000 0.30912 0.02011
0.00000 0.30621 0.02832
0.00000 0.30304 0.03742
0.00000 0.30146 0.04011
0.05461 0.30304 0.04480
0.13459 0.30664 0.04589
0.19397 0.31052 0.05033
0.24968 0.31216 0.05478
0.30551 0.31497 0.05875
0.36477 0.31875 0.06652
0.42437 0.32152 0.07606
0.48092 0.32533 0.08763
0.53474 0.32367 0.08986
0.58407 0.32377 0.09339
0.62977 0.32208 0.09962
0.67243 0.31884 0.10873
0.71088 0.31516 0.10777
0.74582 0.31174 0.10577
0.77789 0.31082 0.10726
0.80713 0.31247 0.10945
0.83413 0.31562 0.10883
0.85965 0.31819 0.10812
0.88323 0.32100 0.10787
0.90415 0.32502 0.10836
0.92052 0.33072 0.11993
0.92995 0.33852 0.14991
0.93554 0.34781 0.17899
0.93847 0.35806 0.20031
0.94055 0.36884 0.21590
0.94327 0.38096 0.22692
0.94915 0.39939 0.24034
0.00000 0.35865 0.01929
0.00000 0.35633 0.02606
0.00000 0.35374 0.03410
0.00000 0.35046 0.04431
0.00000 0.34773 0.05010
0.00000 0.34834 0.04935
0.09785 0.35075 0.05131
0.17248 0.35378 0.05454
0.23213 0.35808 0.05716
0.29145 0.35944 0.06295
0.35161 0.36282 0.07196
0.41611 0.36719 0.08153
0.47550 0.37177 0.09094
0.53025 0.37282 0.09848
0.58171 0.37138 0.10160
0.62826 0.36939 0.10951
0.67015 0.36759 0.11808
0.71048 0.36245 0.11540
0.74675 0.35641 0.11878
0.77996 0.35117 0.12312
0.80960 0.34716 0.12567
0.83647 0.34536 0.12422
0.86174 0.34474 0.12255
0.88517 0.34558 0.12332
0.90593 0.34802 0.12442
0.92253 0.35191 0.13366
0.93193 0.35791 0.16091
0.93749 0.36567 0.18867
0.94021 0.37484 0.20900
0.94194 0.38464 0.22389
0.94420 0.39579 0.23411
0.94923 0.41315 0.24481
0.00000 0.40751 0.02812
0.00000 0.40598 0.03457
0.00000 0.40424 0.04225
0.00000 0.40191 0.05185
0.00000 0.39949 0.06023
0.00000 0.39825 0.06221
0.02623 0.40053 0.06478
0.14103 0.40339 0.06724
0.21268 0.40640 0.07073
0.27608 0.40972 0.07538
0.33873 0.41193 0.07789
0.40360 0.41511 0.08531
0.46674 0.41934 0.09616
0.52491 0.42256 0.10495
0.57757 0.42317 0.10973
0.62544 0.41973 0.11854
0.66923 0.41792 0.12346
0.70857 0.41446 0.12215
0.74563 0.40797 0.12833
0.78037 0.40013 0.13500
0.81131 0.39342 0.14037
0.83902 0.38706 0.14137
0.86405 0.38114 0.13851
0.88718 0.37710 0.13830
0.90760 0.37600 0.13846
0.92442 0.37742 0.14585
0.93386 0.38127 0.17109
0.93950 0.38685 0.19798
0.94206 0.39432 0.21766
0.94349 0.40272 0.23228
0.94536 0.41268 0.24230
0.94949 0.42844 0.25091
0.00000 0.45557 0.03910
0.00000 0.45471 0.04496
0.00000 0.45375 0.05139
0.00000 0.45245 0.05969
0.00000 0.45100 0.06814
0.00000 0.44981 0.07290
0.00000 0.45011 0.07408
0.08778 0.45231 0.07790
0.18305 0.45448 0.08095
0.25432 0.45645 0.08550
0.32068 0.45941 0.09039
0.38610 0.46255 0.09301
0.45362 0.46627 0.09941
0.51661 0.47321 0.11077
0.57198 0.47446 0.11601
0.62142 0.47535 0.12251
0.66615 0.47216 0.12930
0.70632 0.46750 0.12971
0.74339 0.46219 0.13698
0.77905 0.45550 0.14460
0.81108 0.44657 0.14920
0.84015 0.43789 0.15210
0.86568 0.42982 0.15172
0.88897 0.42077 0.15376
0.90906 0.41376 0.15356
0.92607 0.40990 0.15797
0.93552 0.40965 0.18000
0.94132 0.41231 0.20588
0.94387 0.41776 0.22529
0.94511 0.42426 0.24005
0.94669 0.43249 0.25033
0.95000 0.44593 0.25765
0.00000 0.50129 0.05117
0.00000 0.50075 0.05596
0.00000 0.50010 0.06133
0.00000 0.49917 0.06849
0.00000 0.49800 0.07642
0.00000 0.49685 0.08256
0.00000 0.49625 0.08366
0.00000 0.49788 0.08686
0.13796 0.50024 0.09026
0.22654 0.50289 0.09412
0.29895 0.50590 0.09829
0.36966 0.51014 0.10329
0.43731 0.51497 0.10700
0.50237 0.51796 0.11365
0.56284 0.52423 0.12280
0.61559 0.52486 0.12707
0.66183 0.52397 0.13674
0.70242 0.52329 0.13920
0.74061 0.51541 0.14525
0.77478 0.51104 0.15235
0.80778 0.50395 0.15563
0.83817 0.49481 0.15815
0.86500 0.48480 0.15941
0.88912 0.47401 0.16430
0.90952 0.46340 0.16661
0.92707 0.45382 0.17038
0.93691 0.44741 0.18922
0.94293 0.44459 0.21327
0.94548 0.44610 0.23170
0.94661 0.44987 0.24649
0.94807 0.45618 0.25739
0.95072 0.46681 0.26422
0.00000 0.54533 0.06288
0.00000 0.54505 0.06691
0.00000 0.54467 0.07147
0.00000 0.54403 0.07770
0.00000 0.54306 0.08501
0.00000 0.54176 0.09171
0.00000 0.54054 0.09459
0.00000 0.54093 0.09464
0.05925 0.54413 0.09915
0.18754 0.54783 0.10168
0.27351 0.55145 0.10707
0.34832 0.55557 0.11122
0.42071 0.56054 0.11600
0.48658 0.56390 0.12135
0.54821 0.56676 0.12759
0.60506 0.57137 0.13381
0.65489 0.57258 0.14100
0.69717 0.57180 0.14742
0.73550 0.57055 0.15202
0.76977 0.56274 0.15739
0.80196 0.55719 0.16010
0.83294 0.55081 0.16350
0.86099 0.54171 0.16555
0.88647 0.53096 0.17152
0.90812 0.51856 0.17494
0.92642 0.50667 0.17916
0.93747 0.49622 0.19648
0.94417 0.48747 0.22009
0.94692 0.48317 0.23807
0.94796 0.48193 0.25255
0.94932 0.48447 0.26348
0.95151 0.49145 0.27000
0.00000 0.58772 0.07411
0.00000 0.58776 0.07759
0.00000 0.58775 0.08152
0.00000 0.58765 0.08696
0.00000 0.58738 0.09350
0.00000 0.58684 0.09994
0.00000 0.58610 0.10382
0.00000 0.58572 0.10271
0.00000 0.58791 0.10514
0.12835 0.59106 0.10952
0.23770 0.59490 0.10906
0.32204 0.59829 0.11846
0.39878 0.60250 0.12394
0.46929 0.60657 0.12781
0.53235 0.60934 0.13507
0.59060 0.61115 0.13776
0.64403 0.61553 0.14715
0.69034 0.61698 0.15276
0.72960 0.61566 0.15800
0.76481 0.61339 0.16315
0.79716 0.60747 0.16625
0.82714 0.60060 0.16926
0.85527 0.59414 0.17219
0.88130 0.58513 0.17779
0.90456 0.57444 0.18166
0.92433 0.56187 0.18528
0.93687 0.54983 0.20009
0.94456 0.53886 0.22378
0.94795 0.53022 0.24285
0.94903 0.52347 0.25828
0.95036 0.52064 0.26976
0.95222 0.52204 0.27602
0.00000 0.62751 0.08479
0.00000 0.62781 0.08790
0.00000 0.62811 0.09142
0.00000 0.62848 0.09631
0.00000 0.62883 0.10231
0.00000 0.62905 0.10861
0.00000 0.62900 0.11354
0.00000 0.62874 0.11465
0.00000 0.62934 0.11378
0.00369 0.63192 0.11839
0.18779 0.63475 0.12086
0.28817 0.63782 0.12313
0.37253 0.64191 0.13060
0.44935 0.64573 0.13853
0.51598 0.64818 0.14072
0.57519 0.65117 0.14824
0.62996 0.65235 0.14851
0.67925 0.65605 0.15858
0.72221 0.65675 0.16321
0.75890 0.65508 0.16788
0.79190 0.65217 0.17301
0.82175 0.64775 0.17587
0.85027 0.64042 0.17934
0.87597 0.63348 0.18411
0.90022 0.62505 0.18785
0.92170 0.61444 0.19102
0.93598 0.60343 0.20239
0.94435 0.59211 0.22494
0.94839 0.58167 0.24455
0.94961 0.57240 0.26154
0.95095 0.56541 0.27492
0.95272 0.56100 0.28245
0.00000 0.66410 0.09472
0.00000 0.66456 0.09758
0.00000 0.66506 0.10081
0.00000 0.66571 0.10532
0.00000 0.66647 0.11093
0.00000 0.66722 0.11706
0.00000 0.66777 0.12251
0.00000 0.66800 0.12543
0.00000 0.66818 0.12447
0.00000 0.66971 0.12595
0.12067 0.67220 0.13055
0.24769 0.67490 0.13260
0.34341 0.67808 0.13915
0.42433 0.68205 0.14339
0.49843 0.68503 0.15261
0.56034 0.68716 0.15324
0.61541 0.68962 0.16061
0.66481 0.68991 0.15687
0.71079 0.69288 0.17012
0.75133 0.69312 0.17181
0.78632 0.69188 0.17748
0.81565 0.68775 0.18194
0.84457 0.68412 0.18533
0.87106 0.67665 0.19106
0.89585 0.67010 0.19354
0.91835 0.66233 0.19691
0.93508 0.65223 0.20487
0.94449 0.64228 0.22472
0.94891 0.63258 0.24456
0.94999 0.62222 0.26219
0.95116 0.61355 0.27729
0.95291 0.60642 0.28753
0.00000 0.69751 0.10385
0.00000 0.69806 0.10655
0.00000 0.69866 0.10959
0.00000 0.69946 0.11383
0.00000 0.70044 0.11914
0.00000 0.70148 0.12509
0.00000 0.70244 0.13075
0.00000 0.70314 0.13468
0.00000 0.70355 0.13508
0.00000 0.70435 0.13355
0.00000 0.70679 0.13790
0.19725 0.70946 0.14244
0.30946 0.71212 0.14574
0.39955 0.71516 0.15399
0.47589 0.71823 0.15761
0.54473 0.72072 0.16552
0.60182 0.72298 0.16574
0.65253 0.72469 0.17218
0.69712 0.72531 0.16745
0.74009 0.72628 0.18019
0.77855 0.72759 0.18102
0.81066 0.72487 0.18638
0.83879 0.72087 0.19012
0.86526 0.71655 0.19430
0.89074 0.71122 0.19922
0.91407 0.70472 0.20187
0.93298 0.69747 0.20804
0.94386 0.68710 0.22452
0.95010 0.67815 0.24405
0.95088 0.66944 0.26204
0.95148 0.66069 0.27805
0.95302 0.65229 0.29030
0.00000 0.72810 0.11226
0.00000 0.72868 0.11486
0.00000 0.72932 0.11778
0.00000 0.73020 0.12187
0.00000 0.73128 0.12702
0.00000 0.73249 0.13288
0.00000 0.73369 0.13876
0.00000 0.73473 0.14348
0.00000 0.73553 0.14537
0.00000 0.73625 0.14330
0.00000 0.73794 0.14400
0.12306 0.74059 0.15044
0.26698 0.74308 0.15465
0.36979 0.74582 0.16072
0.45328 0.74861 0.16783
0.52389 0.75106 0.17241
0.58658 0.75337 0.17746
0.63887 0.75514 0.17876
0.68550 0.75609 0.18244
0.72718 0.75617 0.18034
0.76640 0.75676 0.18859
0.80240 0.75777 0.19130
0.83378 0.75518 0.19429
0.85954 0.75098 0.19856
0.88510 0.74760 0.20195
0.90899 0.74349 0.20680
0.92990 0.73687 0.21167
0.94185 0.72843 0.22475
0.95008 0.71951 0.24202
0.95214 0.71101 0.26224
0.95255 0.70337 0.27904
0.95360 0.69647 0.29267
0.00000 0.75621 0.11984
0.00000 0.75681 0.12240
0.00000 0.75747 0.12527
0.00000 0.75839 0.12928
0.00000 0.75953 0.13437
0.00000 0.76083 0.14023
0.00000 0.76219 0.14629
0.00000 0.76346 0.15160
0.00000 0.76455 0.15468
0.00000 0.76552 0.15354
0.00000 0.76682 0.15040
0.00000 0.76924 0.15578
0.21377 0.77074 0.16225
0.33245 0.77375 0.16492
0.42615 0.77647 0.17381
0.50250 0.77883 0.17911
0.56720 0.78070 0.18522
0.62390 0.78283 0.18642
0.67236 0.78412 0.18911
0.71575 0.78452 0.19097
0.75459 0.78457 0.18826
0.79112 0.78500 0.19774
0.82470 0.78526 0.19977
0.85498 0.78291 0.20167
0.87961 0.77954 0.20625
0.90356 0.77694 0.20970
0.92520 0.77339 0.21448
0.94105 0.76541 0.22626
0.94984 0.75721 0.24019
0.95272 0.74939 0.26144
0.95376 0.74154 0.27968
0.95508 0.73522 0.29556
0.00000 0.78217 0.12642
0.00000 0.78276 0.12898
0.00000 0.78343 0.13185
0.00000 0.78435 0.13585
0.00000 0.78552 0.14094
0.00000 0.78687 0.14687
0.00000 0.78831 0.15315
0.00000 0.78972 0.15901
0.00000 0.79096 0.16326
0.00000 0.79201 0.16418
0.00000 0.79316 0.16052
0.00000 0.79577 0.16127
0.13329 0.79771 0.16867
0.28785 0.79883 0.17367
0.39381 0.80243 0.17630
0.47830 0.80424 0.18722
0.54708 0.80615 0.19012
0.60626 0.80822 0.19679
0.65802 0.81010 0.19500
0.70339 0.81103 0.19877
0.74405 0.81128 0.19940
0.78020 0.81138 0.19674
0.81451 0.81129 0.20574
0.84671 0.81113 0.20783
0.87480 0.80856 0.20874
0.89970 0.80735 0.21381
0.92100 0.80451 0.21714
0.93745 0.79947 0.22494
0.95079 0.79226 0.23894
0.95307 0.78457 0.25951
0.95452 0.77713 0.27913
0.95566 0.77112 0.29585
0.00000 0.80623 0.13186
0.00000 0.80682 0.13445
0.00000 0.80749 0.13735
0.00000 0.80842 0.14140
0.00000 0.80959 0.14656
0.00000 0.81097 0.15262
0.00000 0.81247 0.15918
0.00000 0.81397 0.16556
0.00000 0.81531 0.17082
0.00000 0.81640 0.17359
0.00000 0.81736 0.17211
0.00000 0.81902 0.16861
0.00000 0.82201 0.17362
0.23099 0.82282 0.18040
0.35310 0.82543 0.18444
0.44909 0.82855 0.19041
0.52515 0.83008 0.19933
0.58681 0.83210 0.20056
0.64176 0.83418 0.20693
0.68958 0.83565 0.20329
0.73217 0.83622 0.20856
0.77007 0.83655 0.20794
0.80364 0.83638 0.20372
0.83695 0.83622 0.21355
0.86757 0.83552 0.21548
0.89408 0.83382 0.21611
0.91865 0.83390 0.22062
0.93466 0.82894 0.22611
0.94845 0.82336 0.23477
0.95377 0.81752 0.25735
0.95424 0.81005 0.27873
0.95545 0.80414 0.29455
0.00000 0.82857 0.13599
0.00000 0.82917 0.13864
0.00000 0.82984 0.14161
0.00000 0.83077 0.14576
0.00000 0.83197 0.15105
0.00000 0.83339 0.15732
0.00000 0.83496 0.16421
0.00000 0.83658 0.17116
0.00000 0.83810 0.17738
0.00000 0.83939 0.18172
0.00000 0.84044 0.18253
0.00000 0.84158 0.17878
0.00000 0.84354 0.17873
0.15130 0.84528 0.18608
0.30612 0.84682 0.19135
0.41217 0.85051 0.19473
0.49844 0.85267 0.20407
0.56690 0.85443 0.20938
0.62313 0.85642 0.21121
0.67458 0.85842 0.21642
0.71897 0.85949 0.21216
0.75870 0.86011 0.21789
0.79382 0.86033 0.21513
0.82602 0.86017 0.21175
0.85788 0.86012 0.22077
0.88662 0.85903 0.22349
0.91140 0.85785 0.22299
0.93302 0.85729 0.22825
0.94610 0.85167 0.23480
0.95376 0.84680 0.25215
0.95460 0.84053 0.27663
0.95574 0.83514 0.29252
0.00000 0.84919 0.13870
0.00000 0.84979 0.14142
0.00000 0.85047 0.14447
0.00000 0.85143 0.14873
0.00000 0.85266 0.15419
0.00000 0.85414 0.16067
0.00000 0.85580 0.16788
0.00000 0.85755 0.17535
0.00000 0.85926 0.18239
0.00000 0.86076 0.18809
0.00000 0.86195 0.19115
0.00000 0.86294 0.18997
0.00000 0.86418 0.18666
0.00000 0.86578 0.19092
0.24936 0.86735 0.19837
0.37117 0.87015 0.20309
0.46651 0.87374 0.20623
0.54315 0.87550 0.21681
0.60486 0.87750 0.21940
0.65718 0.87950 0.22254
0.70520 0.88129 0.22530
0.74606 0.88239 0.21967
0.78287 0.88277 0.22605
0.81635 0.88299 0.22243
0.84706 0.88301 0.21672
0.87716 0.88249 0.22802
0.90407 0.88139 0.23081
0.92575 0.87971 0.22989
0.94405 0.87828 0.23563
0.95454 0.87524 0.24991
0.95614 0.86852 0.27272
0.95895 0.86510 0.28930
0.00000 0.86794 0.14007
0.00000 0.86855 0.14288
0.00000 0.86925 0.14603
0.00000 0.87023 0.15042
0.00000 0.87150 0.15605
0.00000 0.87305 0.16274
0.00000 0.87481 0.17024
0.00000 0.87671 0.17811
0.00000 0.87861 0.18575
0.00000 0.88035 0.19237
0.00000 0.88177 0.19692
0.00000 0.88284 0.19795
0.00000 0.88383 0.19477
0.00000 0.88504 0.19467
0.16933 0.88662 0.20328
0.32502 0.88885 0.21034
0.43028 0.89204 0.21420
0.51585 0.89496 0.21946
0.58385 0.89722 0.22908
0.63969 0.89942 0.22938
0.68911 0.90120 0.23359
0.73347 0.90281 0.23194
0.77063 0.90409 0.22754
0.80567 0.90438 0.23363
0.83805 0.90448 0.22798
0.86759 0.90442 0.22220
0.89568 0.90370 0.23480
0.92031 0.90234 0.23832
0.93887 0.90049 0.23551
0.95235 0.89857 0.24680
0.95622 0.89482 0.27093
0.96001 0.89143 0.28758
0.00000 0.88458 0.14041
0.00000 0.88521 0.14333
0.00000 0.88591 0.14660
0.00000 0.88692 0.15116
0.00000 0.88823 0.15700
0.00000 0.88984 0.16397
0.00000 0.89172 0.17180
0.00000 0.89378 0.18011
0.00000 0.89591 0.18835
0.00000 0.89795 0.19581
0.00000 0.89972 0.20162
0.00000 0.90109 0.20457
0.00000 0.90215 0.20320
0.00000 0.90319 0.19972
0.00000 0.90433 0.20563
0.26674 0.90663 0.21653
0.39044 0.90940 0.22266
0.48372 0.91218 0.22399
0.56003 0.91522 0.23321
0.62121 0.91784 0.24031
0.67228 0.91973 0.23849
0.71922 0.92142 0.24297
0.75982 0.92340 0.23752
0.79456 0.92463 0.23489
0.82838 0.92464 0.24112
0.85955 0.92462 0.23342
0.88700 0.92422 0.22693
0.91317 0.92349 0.24150
0.93612 0.92223 0.24488
0.95056 0.92001 0.24414
0.95452 0.91613 0.26731
0.95743 0.91321 0.28847
0.00000 0.89884 0.13984
0.00000 0.89945 0.14290
0.00000 0.90015 0.14633
0.00000 0.90115 0.15111
0.00000 0.90248 0.15724
0.00000 0.90413 0.16456
0.00000 0.90609 0.17284
0.00000 0.90832 0.18171
0.00000 0.91072 0.19069
0.00000 0.91316 0.19917
0.00000 0.91545 0.20638
0.00000 0.91739 0.21135
0.00000 0.91889 0.21260
0.00000 0.92015 0.20880
0.00000 0.92124 0.20884
0.18627 0.92322 0.21922
0.34271 0.92623 0.22880
0.44790 0.92924 0.23283
0.53204 0.93225 0.23416
0.60027 0.93494 0.24618
0.65623 0.93682 0.24958
0.70373 0.93845 0.24780
0.74759 0.94047 0.25187
0.78515 0.94243 0.24364
0.81822 0.94356 0.24403
0.85047 0.94347 0.24900
0.87954 0.94308 0.23855
0.90501 0.94261 0.23115
0.92987 0.94208 0.24765
0.94918 0.94051 0.25298
0.95442 0.93662 0.26304
0.95658 0.93284 0.28487
0.00000 0.91055 0.13824
0.00000 0.91111 0.14147
0.00000 0.91176 0.14508
0.00000 0.91269 0.15012
