cube lut/eterna_sRGB.cube
# sRGB
# github.com/abpy/FujifilmCameraProfiles
LUT_3D_SIZE 32
0.00000 0.00000 0.00000
0.02660 0.00717 0.00865
0.05488 0.01335 0.01018
0.08816 0.01338 0.01085
0.12359 0.01483 0.01131
0.16203 0.01785 0.00929
0.20024 0.02258 0.01173
0.24000 0.02387 0.01046
0.28198 0.02398 0.00676
0.32810 0.02830 0.01056
0.37787 0.03261 0.01222
0.42946 0.03598 0.00610
0.48073 0.04281 0.00223
0.53068 0.05096 0.00000
0.57871 0.05978 0.00000
0.62399 0.06788 0.00142
0.66759 0.07469 0.00000
0.70904 0.08248 0.00000
0.74725 0.09376 0.00000
0.78271 0.10128 0.00000
0.81607 0.10822 0.00000
0.84783 0.11650 0.00000
0.87732 0.12507 0.00000
0.90496 0.13296 0.00000
0.93087 0.13929 0.00000
0.95519 0.14628 0.00000
0.97707 0.15498 0.00000
0.99432 0.16789 0.00000
1.00000 0.18678 0.01952
1.00000 0.20743 0.09465
1.00000 0.22790 0.13515
1.00000 0.24758 0.16265
0.00698 0.02459 0.01134
0.02463 0.02694 0.01445
0.05291 0.03182 0.01326
0.08847 0.03353 0.01158
0.12404 0.03475 0.01160
0.16311 0.03671 0.01084
0.20024 0.04329 0.01354
0.23997 0.04389 0.01252
0.28204 0.04222 0.00890
0.32800 0.04835 0.01134
0.37799 0.05258 0.01246
0.42991 0.05486 0.00669
0.48137 0.06140 0.00205
0.53145 0.06784 0.00000
0.57957 0.07456 0.00000
0.62465 0.08223 0.00174
0.66826 0.08814 0.00000
0.70979 0.09455 0.00000
0.74796 0.10537 0.00000
0.78340 0.11194 0.00000
0.81672 0.11798 0.00000
0.84842 0.12567 0.00000
0.87786 0.13373 0.00000
0.90546 0.14115 0.00000
0.93134 0.14684 0.00000
0.95563 0.15330 0.00000
0.97749 0.16150 0.00000
0.99471 0.17379 0.00000
1.00000 0.19193 0.02157
1.00000 0.21189 0.09607
1.00000 0.23187 0.13627
1.00000 0.25114 0.16361
0.00000 0.05107 0.01288
0.01891 0.05276 0.01402
0.05222 0.05692 0.01435
0.08657 0.05817 0.01411
0.12279 0.06039 0.01388
0.16235 0.06408 0.01285
0.20091 0.06436 0.01388
0.24092 0.06249 0.01329
0.28312 0.05865 0.01226
0.32841 0.06618 0.01432
0.37834 0.07015 0.01577
0.43045 0.07176 0.01088
0.48202 0.07847 0.00521
0.53223 0.08371 0.00244
0.58049 0.08875 0.00433
0.62531 0.09628 0.00487
0.66896 0.10145 0.00294
0.71061 0.10664 0.00000
0.74873 0.11722 0.00000
0.78417 0.12292 0.00000
0.81746 0.12815 0.00000
0.84909 0.13533 0.00000
0.87846 0.14294 0.00000
0.90602 0.14991 0.00000
0.93188 0.15496 0.00000
0.95613 0.16092 0.00000
0.97796 0.16862 0.00000
0.99516 0.18028 0.00000
1.00000 0.19763 0.02446
1.00000 0.21687 0.09791
1.00000 0.23631 0.13768
1.00000 0.25516 0.16481
0.00000 0.08252 0.01156
0.00719 0.08330 0.01356
0.04381 0.08492 0.01623
0.08197 0.08765 0.01721
0.12258 0.09179 0.01827
0.16171 0.09369 0.01844
0.20028 0.09419 0.01843
0.24069 0.09164 0.01620
0.28418 0.08687 0.01542
0.32994 0.08850 0.01424
0.38001 0.09125 0.01625
0.43230 0.09194 0.01541
0.48355 0.09881 0.00953
0.53370 0.10303 0.00876
0.58202 0.10630 0.01394
0.62628 0.11406 0.01209
0.66994 0.11851 0.01028
0.71178 0.12222 0.00537
0.74981 0.13274 0.00000
0.78526 0.13738 0.00000
0.81851 0.14162 0.00000
0.85004 0.14823 0.00000
0.87932 0.15528 0.00000
0.90682 0.16171 0.00000
0.93265 0.16596 0.00000
0.95685 0.17129 0.00000
0.97863 0.17836 0.00000
0.99581 0.18921 0.00000
1.00000 0.20555 0.02957
1.00000 0.22383 0.10091
1.00000 0.24256 0.13994
1.00000 0.26083 0.16670
0.00000 0.11141 0.01520
0.00000 0.11542 0.01563
0.02880 0.11491 0.02026
0.07661 0.12305 0.02006
0.11875 0.12469 0.02135
0.15961 0.12629 0.02257
0.19884 0.12805 0.02376
0.23977 0.12691 0.02033
0.28212 0.12548 0.01894
0.33048 0.12279 0.01703
0.38148 0.12246 0.01665
0.43532 0.11861 0.01804
0.48620 0.12288 0.00969
0.53624 0.12632 0.01173
0.58458 0.12740 0.02624
0.62797 0.13513 0.02005
0.67155 0.13877 0.01954
0.71359 0.14077 0.02040
0.75132 0.15151 0.00000
0.78676 0.15514 0.00000
0.81996 0.15835 0.00000
0.85133 0.16439 0.00000
0.88046 0.17083 0.00000
0.90789 0.17661 0.00000
0.93368 0.17990 0.00000
0.95781 0.18448 0.00000
0.97953 0.19081 0.00000
0.99669 0.20069 0.00000
1.00000 0.21580 0.03807
1.00000 0.23289 0.10549
1.00000 0.25074 0.14334
1.00000 0.26828 0.16953
0.00000 0.14997 0.01664
0.00000 0.15133 0.01953
0.00298 0.15289 0.02287
0.06016 0.15431 0.02515
0.10809 0.15781 0.02551
0.15219 0.15949 0.02546
0.19535 0.16213 0.02614
0.23669 0.16367 0.02401
0.28158 0.16189 0.02044
0.32939 0.16253 0.01940
0.38115 0.16170 0.01730
0.43596 0.15855 0.01442
0.48823 0.15798 0.01154
0.53885 0.15747 0.01150
0.58729 0.15455 0.03674
0.63037 0.15974 0.02222
0.67392 0.16300 0.02352
0.71629 0.16300 0.03736
0.75347 0.17350 0.00154
0.78887 0.17588 0.00000
0.82200 0.17798 0.00000
0.85306 0.18353 0.00000
0.88197 0.18941 0.00000
0.90927 0.19455 0.00000
0.93502 0.19682 0.00000
0.95905 0.20059 0.00000
0.98068 0.20610 0.00000
0.99783 0.21485 0.00000
1.00000 0.22853 0.05021
1.00000 0.24422 0.11197
1.00000 0.26101 0.14815
1.00000 0.27768 0.17351
0.00000 0.18576 0.01913
0.00000 0.18642 0.02017
0.00000 0.18762 0.02247
0.03242 0.18959 0.02524
0.09590 0.19087 0.02742
0.14342 0.19341 0.02786
0.18813 0.19443 0.02424
0.23363 0.19865 0.02409
0.27928 0.19986 0.01942
0.32733 0.20180 0.01986
0.38014 0.20081 0.01522
0.43342 0.20040 0.00949
0.48797 0.19929 0.01384
0.53940 0.19808 0.01106
0.58715 0.19740 0.02832
0.63270 0.19369 0.02141
0.67662 0.19315 0.02094
0.71936 0.19059 0.04528
0.75613 0.19877 0.00581
0.79152 0.20052 0.00496
0.82474 0.20152 0.01389
0.85537 0.20618 0.00361
0.88393 0.21109 0.00000
0.91106 0.21535 0.00000
0.93674 0.21656 0.00000
0.96062 0.21957 0.00000
0.98209 0.22429 0.00000
0.99923 0.23185 0.00000
1.00000 0.24398 0.06424
1.00000 0.25806 0.12026
1.00000 0.27365 0.15440
1.00000 0.28927 0.17873
0.00000 0.22201 0.01732
0.00000 0.22234 0.01653
0.00000 0.22357 0.01907
0.00000 0.22583 0.02119
0.07436 0.22789 0.02539
0.13238 0.22972 0.02631
0.18087 0.23131 0.02354
0.22646 0.23371 0.02236
0.27510 0.23786 0.02363
0.32464 0.24019 0.01880
0.37675 0.24202 0.02066
0.43067 0.24184 0.00630
0.48554 0.24201 0.01811
0.53752 0.24145 0.01047
0.58684 0.24066 0.01485
0.63383 0.23690 0.01631
0.67848 0.23464 0.01663
0.72178 0.23111 0.04023
0.75888 0.23114 0.00898
0.79438 0.22980 0.00959
0.82792 0.22847 0.02875
0.85808 0.23237 0.01733
0.88626 0.23678 0.00404
0.91322 0.24018 0.00000
0.93885 0.23997 0.00000
0.96254 0.24184 0.00000
0.98375 0.24554 0.00000
1.00000 0.25176 0.00809
1.00000 0.26226 0.07833
1.00000 0.27461 0.12950
1.00000 0.28890 0.16159
1.00000 0.30335 0.18490
0.00000 0.26155 0.01413
0.00000 0.26176 0.01216
0.00000 0.26287 0.01614
0.00000 0.26495 0.01902
0.02978 0.26725 0.02347
0.11156 0.26917 0.02563
0.16778 0.27149 0.02842
0.21713 0.27357 0.02756
0.26686 0.27601 0.02366
0.31974 0.28067 0.02004
0.37335 0.28237 0.01264
0.42707 0.28472 0.01710
0.48282 0.28600 0.02436
0.53564 0.28563 0.01268
0.58608 0.28545 0.00268
0.63380 0.28376 0.01033
0.67904 0.28064 0.00758
0.72228 0.27805 0.02022
0.76055 0.27511 0.00993
0.79663 0.27017 0.01153
0.83111 0.26463 0.04499
0.86096 0.26443 0.03283
0.88874 0.26625 0.01215
0.91554 0.26825 0.00289
0.94111 0.26707 0.01646
0.96464 0.26825 0.01442
0.98555 0.27101 0.01049
1.00000 0.27558 0.02830
1.00000 0.28403 0.09110
1.00000 0.29429 0.13851
1.00000 0.30704 0.16875
1.00000 0.32014 0.19124
0.00000 0.30402 0.01071
0.00000 0.30427 0.00794
0.00000 0.30534 0.01216
0.00000 0.30743 0.01547
0.00000 0.30978 0.01618
0.07163 0.31112 0.02226
0.14405 0.31357 0.02199
0.20344 0.31632 0.02822
0.25673 0.31837 0.02528
0.31027 0.32115 0.01964
0.36679 0.32537 0.02134
0.42517 0.32800 0.02087
0.48107 0.33188 0.02142
0.53323 0.33388 0.02137
0.58513 0.33141 0.00000
0.63301 0.33177 0.00933
0.67821 0.32999 0.00237
0.72064 0.32803 0.00000
0.76051 0.32389 0.00124
0.79703 0.31906 0.00186
0.83174 0.31380 0.02722
0.86287 0.30879 0.03332
0.89102 0.30555 0.01755
0.91778 0.30373 0.00702
0.94328 0.29923 0.03126
0.96662 0.29808 0.03377
0.98718 0.29975 0.03047
1.00000 0.30321 0.04624
1.00000 0.31001 0.10192
1.00000 0.31820 0.14644
1.00000 0.32912 0.17508
1.00000 0.34039 0.19700
0.00000 0.35030 0.01260
0.00000 0.35046 0.00913
0.00000 0.35124 0.00884
0.00000 0.35298 0.01250
0.00000 0.35530 0.01542
0.00000 0.35733 0.02031
0.10939 0.35954 0.02171
0.17878 0.36240 0.01883
0.24297 0.36483 0.02551
0.30020 0.36747 0.02464
0.35784 0.37046 0.02090
0.42019 0.37599 0.02296
0.47839 0.37956 0.01892
0.53211 0.38177 0.01269
0.58153 0.38346 0.00357
0.63120 0.38150 0.01065
0.67647 0.38023 0.00049
0.71885 0.38018 0.00000
0.75858 0.37724 0.00000
0.79528 0.37257 0.00000
0.83025 0.36647 0.00000
0.86231 0.36148 0.00446
0.89196 0.35636 0.00460
0.91915 0.35073 0.00213
0.94475 0.34267 0.03211
0.96807 0.33703 0.04819
0.98829 0.33489 0.04952
1.00000 0.33508 0.05969
1.00000 0.33927 0.11051
1.00000 0.34560 0.15227
1.00000 0.35518 0.17957
1.00000 0.36476 0.20148
0.00000 0.40155 0.00479
0.00000 0.40171 0.00105
0.00000 0.40232 0.00000
0.00000 0.40387 0.00532
0.00000 0.40574 0.00809
0.00000 0.40785 0.00915
0.03370 0.41043 0.01576
0.14915 0.41278 0.02134
0.22123 0.41501 0.02254
0.28717 0.41722 0.02103
0.34775 0.41999 0.02199
0.40957 0.42358 0.01552
0.47109 0.42818 0.02129
0.52861 0.43170 0.01137
0.57921 0.43357 0.00182
0.62766 0.43506 0.00764
0.67292 0.43537 0.00492
0.71640 0.43199 0.00000
0.75561 0.43122 0.00000
0.79213 0.42775 0.00000
0.82710 0.42470 0.00000
0.85962 0.41774 0.00000
0.89034 0.41074 0.00000
0.91811 0.40501 0.00000
0.94412 0.39763 0.00597
0.96759 0.38888 0.02571
0.98766 0.38215 0.04116
1.00000 0.37727 0.06346
1.00000 0.37635 0.11664
1.00000 0.37846 0.15559
1.00000 0.38510 0.18159
1.00000 0.39231 0.20406
0.00000 0.45413 0.00000
0.00000 0.45429 0.00000
0.00000 0.45473 0.00000
0.00000 0.45587 0.00000
0.00000 0.45722 0.00000
0.00000 0.45853 0.00096
0.00000 0.46021 0.00659
0.09018 0.46189 0.01263
0.19094 0.46335 0.01781
0.26644 0.46576 0.02508
0.33189 0.46827 0.01461
0.39661 0.47208 0.01826
0.45969 0.47575 0.00821
0.51974 0.48014 0.01970
0.57469 0.48408 0.00000
0.62363 0.48713 0.00000
0.66928 0.48712 0.00000
0.71062 0.48934 0.00000
0.75161 0.48434 0.00000
0.78784 0.48177 0.00000
0.82135 0.48040 0.00000
0.85403 0.47509 0.00000
0.88487 0.46937 0.00000
0.91371 0.46213 0.00000
0.94038 0.45477 0.00000
0.96396 0.44718 0.00000
0.98445 0.43890 0.00299
1.00000 0.43114 0.03106
1.00000 0.42531 0.10384
1.00000 0.42168 0.15057
1.00000 0.42346 0.17960
1.00000 0.42610 0.20495
0.00000 0.50185 0.00000
0.00000 0.50201 0.00000
0.00000 0.50235 0.00000
0.00000 0.50322 0.00000
0.00000 0.50450 0.00000
0.00000 0.50567 0.00000
0.00000 0.50710 0.00000
0.00000 0.50914 0.00931
0.14918 0.51100 0.01493
0.23808 0.51309 0.01153
0.31609 0.51690 0.02301
0.38289 0.52080 0.00836
0.44760 0.52431 0.01513
0.50839 0.52617 0.00734
0.56545 0.53092 0.01784
0.61694 0.53634 0.00000
0.66360 0.53726 0.00000
0.70584 0.53761 0.00000
0.74489 0.53874 0.00000
0.78139 0.53604 0.00000
0.81489 0.53153 0.00000
0.84665 0.52907 0.00000
0.87747 0.52424 0.00000
0.90627 0.51919 0.00000
0.93280 0.51335 0.00000
0.95779 0.50517 0.00000
0.97911 0.49632 0.00000
0.99764 0.48837 0.00000
1.00000 0.48116 0.07416
1.00000 0.47443 0.13095
1.00000 0.47151 0.16798
1.00000 0.46964 0.19899
0.00000 0.54585 0.00000
0.00000 0.54604 0.00000
0.00000 0.54642 0.00000
0.00000 0.54739 0.00000
0.00000 0.54917 0.00000
0.00000 0.55092 0.00000
0.00000 0.55280 0.00000
0.00000 0.55506 0.00000
0.07502 0.55753 0.00926
0.20904 0.56023 0.01817
0.29122 0.56318 0.01090
0.36872 0.56723 0.02220
0.43417 0.57022 0.01179
0.49629 0.57262 0.01967
0.55363 0.57482 0.00928
0.60733 0.57932 0.01119
0.65581 0.58329 0.00247
0.69830 0.58431 0.00000
0.73860 0.58458 0.00000
0.77392 0.58489 0.00000
0.80649 0.58526 0.00000
0.83985 0.57759 0.00000
0.86994 0.57394 0.00000
0.89797 0.57105 0.00000
0.92451 0.56588 0.00000
0.94911 0.56033 0.00000
0.97192 0.55301 0.00000
0.99114 0.54406 0.00000
1.00000 0.53563 0.03418
1.00000 0.52867 0.10357
1.00000 0.52471 0.14610
1.00000 0.52082 0.18260
0.00000 0.59203 0.00000
0.00000 0.59228 0.00000
0.00000 0.59267 0.00000
0.00000 0.59358 0.00000
0.00000 0.59528 0.00000
0.00000 0.59702 0.00000
0.00000 0.59859 0.00000
0.00000 0.60043 0.00000
0.00000 0.60271 0.00513
0.15540 0.60474 0.00926
0.26596 0.60717 0.01650
0.34692 0.61031 0.01959
0.42070 0.61334 0.02782
0.48307 0.61548 0.02155
0.54193 0.61776 0.02781
0.59557 0.62005 0.01442
0.64566 0.62362 0.01680
0.69089 0.62655 0.00289
0.73081 0.62680 0.00000
0.76692 0.62753 0.00000
0.80006 0.62767 0.00000
0.83175 0.62603 0.00000
0.86261 0.62030 0.00000
0.89107 0.61537 0.00000
0.91601 0.61351 0.00000
0.94117 0.60895 0.00000
0.96475 0.60219 0.00000
0.98450 0.59658 0.00000
0.99608 0.58907 0.00000
1.00000 0.58094 0.06741
1.00000 0.57544 0.12200
1.00000 0.57076 0.16209
0.00000 0.63563 0.00000
0.00000 0.63584 0.00000
0.00000 0.63614 0.00000
0.00000 0.63680 0.00000
0.00000 0.63808 0.00000
0.00000 0.63976 0.00000
0.00000 0.64120 0.00000
0.00000 0.64276 0.00000
0.00000 0.64451 0.00000
0.07244 0.64657 0.01580
0.22925 0.64854 0.02413
0.32237 0.65052 0.02066
0.40277 0.65319 0.04526
0.47071 0.65527 0.04750
0.52926 0.65743 0.04246
0.58436 0.65967 0.04637
0.63433 0.66116 0.02751
0.68072 0.66318 0.03158
0.72251 0.66559 0.01503
0.75989 0.66629 0.00000
0.79347 0.66708 0.00000
0.82542 0.66508 0.00000
0.85493 0.66314 0.00000
0.88335 0.65919 0.00000
0.90949 0.65436 0.00000
0.93350 0.65171 0.00000
0.95700 0.64726 0.00000
0.97841 0.64119 0.00000
0.99061 0.63543 0.00000
0.99988 0.62971 0.00702
1.00000 0.62453 0.08770
1.00000 0.61865 0.13900
0.00000 0.67558 0.00000
0.00000 0.67577 0.00000
0.00000 0.67601 0.00000
0.00000 0.67648 0.00000
0.00000 0.67736 0.00000
0.00000 0.67868 0.00000
0.00000 0.67999 0.00000
0.00000 0.68136 0.00000
0.00000 0.68293 0.00412
0.00000 0.68476 0.02457
0.18577 0.68644 0.03739
0.30170 0.68826 0.05527
0.38094 0.68988 0.04682
0.45671 0.69212 0.07530
0.51805 0.69411 0.06966
0.57267 0.69595 0.06799
0.62378 0.69721 0.06997
0.66990 0.69777 0.04903
0.71260 0.69953 0.05552
0.75156 0.70181 0.03329
0.78660 0.70286 0.00000
0.81843 0.70256 0.00000
0.84863 0.69966 0.00000
0.87605 0.69771 0.00000
0.90195 0.69547 0.00000
0.92702 0.69125 0.00000
0.95024 0.68617 0.00000
0.97120 0.68241 0.00000
0.98512 0.67742 0.00000
0.99534 0.67174 0.00000
0.99918 0.66819 0.05617
1.00000 0.66474 0.10897
0.00000 0.71151 0.00207
0.00000 0.71168 0.00000
0.00000 0.71190 0.00000
0.00000 0.71228 0.00000
0.00000 0.71296 0.00000
0.00000 0.71400 0.00000
0.00000 0.71525 0.00132
0.00000 0.71657 0.01162
0.00000 0.71806 0.02275
0.00000 0.71964 0.03586
0.13898 0.72131 0.06369
0.27208 0.72258 0.07041
0.36752 0.72389 0.08354
0.43876 0.72547 0.08322
0.50669 0.72746 0.10301
0.56207 0.72922 0.09426
0.61270 0.73034 0.09512
0.65984 0.73103 0.09311
0.70232 0.73138 0.07079
0.74171 0.73278 0.07428
0.77812 0.73490 0.05368
0.81117 0.73539 0.01255
0.84229 0.73471 0.00000
0.86987 0.73245 0.00000
0.89575 0.73040 0.00000
0.91998 0.72959 0.00000
0.94342 0.72530 0.00000
0.96486 0.71944 0.00000
0.97924 0.71476 0.00000
0.99056 0.71099 0.00000
0.99517 0.70693 0.03303
0.99637 0.70371 0.09439
0.00000 0.74384 0.02682
0.00000 0.74400 0.02008
0.00000 0.74420 0.01224
0.00000 0.74454 0.00291
0.00000 0.74512 0.00000
0.00000 0.74604 0.00327
0.00000 0.74724 0.02356
0.00000 0.74846 0.03746
0.00000 0.74974 0.05015
0.00000 0.75112 0.06208
0.04761 0.75257 0.08015
0.24572 0.75377 0.09439
0.34707 0.75490 0.10415
0.42479 0.75610 0.10562
0.49175 0.75760 0.11650
0.55197 0.75914 0.12850
0.60199 0.76051 0.11629
0.64888 0.76137 0.11519
0.69251 0.76174 0.11116
0.73159 0.76197 0.08257
0.76863 0.76306 0.09187
0.80285 0.76469 0.08120
0.83469 0.76541 0.03166
0.86425 0.76494 0.00000
0.89052 0.76369 0.00000
0.91466 0.76140 0.00000
0.93674 0.76037 0.00000
0.95766 0.75710 0.00000
0.97430 0.75046 0.00000
0.98633 0.74499 0.00000
0.99090 0.74224 0.00865
0.99251 0.73944 0.08711
0.00000 0.77376 0.05705
0.00000 0.77392 0.05127
0.00000 0.77410 0.04386
0.00000 0.77441 0.03349
0.00000 0.77496 0.02472
0.00000 0.77586 0.02597
0.00000 0.77688 0.04582
0.00000 0.77775 0.06348
0.00000 0.77854 0.07489
0.00000 0.77947 0.08519
0.00000 0.78058 0.09495
0.21437 0.78178 0.11608
0.32578 0.78284 0.12189
0.41342 0.78383 0.13493
0.47762 0.78493 0.12755
0.53958 0.78652 0.14471
0.59261 0.78804 0.14718
0.63826 0.78910 0.13372
0.68190 0.78978 0.13289
0.72253 0.79003 0.12730
0.75907 0.79014 0.10744
0.79358 0.79103 0.11787
0.82608 0.79253 0.10172
0.85711 0.79383 0.06211
0.88585 0.79427 0.00000
0.90968 0.79254 0.00000
0.93195 0.79005 0.00000
0.95172 0.78864 0.00000
0.96789 0.78522 0.00000
0.98172 0.77917 0.00000
0.98731 0.77394 0.01613
0.98846 0.77098 0.07769
0.00000 0.80107 0.08525
0.00000 0.80124 0.08094
0.00000 0.80144 0.07556
0.00000 0.80176 0.06795
0.00000 0.80230 0.06032
0.00000 0.80319 0.05855
0.00000 0.80418 0.07045
0.00000 0.80487 0.08760
0.00000 0.80530 0.09826
0.00000 0.80577 0.10924
0.00000 0.80653 0.12015
0.16890 0.80750 0.13405
0.30714 0.80853 0.14867
0.39484 0.80944 0.15123
0.46982 0.81040 0.16004
0.52541 0.81191 0.15181
0.58163 0.81361 0.16753
0.62921 0.81497 0.16403
0.67150 0.81588 0.15189
0.71235 0.81639 0.15380
0.75019 0.81649 0.15123
0.78405 0.81651 0.13259
0.81672 0.81725 0.13763
0.84842 0.81898 0.12071
0.87826 0.82068 0.08823
0.90414 0.82027 0.00000
0.92658 0.81874 0.01643
0.94690 0.81647 0.00402
0.96303 0.81366 0.00000
0.97628 0.81088 0.01675
0.98301 0.80668 0.06225
0.98469 0.80164 0.09301
0.00000 0.82564 0.11073
0.00000 0.82577 0.10767
0.00000 0.82593 0.10389
0.00000 0.82619 0.09859
0.00000 0.82662 0.09327
0.00000 0.82733 0.09141
0.00000 0.82825 0.09914
0.00000 0.82899 0.11594
0.00000 0.82946 0.12812
0.00000 0.82994 0.13799
0.00000 0.83070 0.14668
0.10940 0.83177 0.15422
0.28157 0.83291 0.16988
0.37739 0.83397 0.17352
0.45386 0.83489 0.17776
0.51599 0.83607 0.17650
0.56786 0.83771 0.17496
0.61920 0.83928 0.18813
0.66273 0.84038 0.18241
0.70224 0.84103 0.17364
0.74030 0.84139 0.17650
0.77535 0.84135 0.17202
0.80710 0.84126 0.15067
0.83886 0.84215 0.15646
0.86919 0.84377 0.14267
0.89649 0.84477 0.11617
0.92055 0.84404 0.01789
0.94141 0.84283 0.03278
0.95879 0.84036 0.04532
0.97189 0.83740 0.04195
0.97843 0.83589 0.08500
0.98064 0.83294 0.11838
0.00000 0.84870 0.13606
0.00000 0.84880 0.13355
0.00000 0.84892 0.13046
0.00000 0.84912 0.12609
0.00000 0.84943 0.12150
0.00000 0.84992 0.11928
0.00000 0.85059 0.12413
0.00000 0.85127 0.13853
0.00000 0.85184 0.15301
0.00000 0.85249 0.16197
0.00000 0.85340 0.16900
0.00158 0.85463 0.17503
0.24472 0.85599 0.18216
0.35808 0.85718 0.19456
0.43571 0.85818 0.19430
0.50468 0.85919 0.20131
0.55662 0.86059 0.19217
0.60689 0.86219 0.20063
0.65377 0.86346 0.20990
0.69385 0.86429 0.20239
0.73068 0.86479 0.19481
0.76599 0.86498 0.19607
0.79895 0.86484 0.19046
0.82949 0.86492 0.17250
0.85989 0.86562 0.17812
0.88806 0.86670 0.16266
0.91339 0.86734 0.13737
0.93562 0.86647 0.06262
0.95360 0.86502 0.07223
0.96775 0.86320 0.09312
0.97503 0.86098 0.10143
0.97710 0.85959 0.12665
0.00000 0.87047 0.15861
0.00000 0.87056 0.15652
0.00000 0.87065 0.15396
0.00000 0.87081 0.15025
0.00000 0.87104 0.14616
0.00000 0.87138 0.14363
0.00000 0.87185 0.14618
0.00000 0.87242 0.15722
0.00000 0.87305 0.17235
0.00000 0.87380 0.18203
0.00000 0.87478 0.19026
0.00000 0.87602 0.19718
0.21144 0.87739 0.20309
0.33682 0.87869 0.21636
0.42228 0.87991 0.22128
0.48887 0.88110 0.21985
0.54960 0.88237 0.22492
0.59513 0.88382 0.21403
0.64312 0.88520 0.22714
0.68576 0.88616 0.23020
0.72266 0.88681 0.21982
0.75714 0.88722 0.21434
0.79042 0.88732 0.21552
0.82198 0.88717 0.21066
0.85120 0.88713 0.19110
0.87968 0.88759 0.19379
0.90580 0.88834 0.18074
0.92909 0.88864 0.16208
0.94859 0.88768 0.11955
0.96381 0.88637 0.10319
0.97192 0.88510 0.13675
0.97448 0.88324 0.15080
0.00000 0.89109 0.17659
0.00000 0.89116 0.17486
0.00000 0.89123 0.17273
0.00000 0.89135 0.16964
0.00000 0.89152 0.16614
0.00000 0.89176 0.16386
0.00000 0.89211 0.16558
0.00000 0.89260 0.17497
0.00000 0.89324 0.19090
0.00000 0.89406 0.20358
0.00000 0.89507 0.21251
0.00000 0.89626 0.21954
0.17744 0.89756 0.22596
0.31022 0.89888 0.23241
0.40672 0.90021 0.24434
0.47579 0.90157 0.24372
0.53679 0.90294 0.24713
0.58869 0.90429 0.24660
0.63138 0.90559 0.23848
0.67655 0.90658 0.25043
0.71563 0.90737 0.24845
0.74990 0.90800 0.23641
0.78260 0.90831 0.23293
0.81431 0.90834 0.23337
0.84440 0.90819 0.22640
0.87188 0.90808 0.20636
0.89830 0.90831 0.21117
0.92247 0.90877 0.20215
0.94374 0.90893 0.18570
0.96021 0.90805 0.15155
0.96826 0.90645 0.14185
0.97135 0.90548 0.18071
0.00000 0.91065 0.19142
0.00000 0.91072 0.19001
0.00000 0.91079 0.18829
0.00000 0.91089 0.18577
0.00000 0.91103 0.18290
0.00000 0.91123 0.18102
0.00000 0.91150 0.18237
0.00000 0.91189 0.19034
0.00000 0.91252 0.20574
0.00000 0.91341 0.22123
0.00000 0.91444 0.23086
0.00000 0.91559 0.23875
0.12901 0.91680 0.24498
0.28471 0.91806 0.24980
0.38618 0.91937 0.26049
0.46363 0.92076 0.26781
0.52329 0.92214 0.26600
0.57961 0.92343 0.27181
0.62379 0.92451 0.26189
0.66594 0.92551 0.26109
0.70811 0.92636 0.27114
0.74414 0.92710 0.26494
0.77629 0.92765 0.25209
0.80741 0.92805 0.25069
0.83742 0.92819 0.25004
0.86565 0.92801 0.24269
0.89116 0.92777 0.22465
0.91575 0.92780 0.23066
0.93793 0.92813 0.22178
0.95533 0.92814 0.20598
0.96432 0.92687 0.19031
0.96744 0.92502 0.18518
0.00000 0.92861 0.21205
0.00000 0.92869 0.21107
0.00000 0.92878 0.20985
0.00000 0.92890 0.20808
0.00000 0.92908 0.20603
0.00000 0.92931 0.20461
0.00000 0.92962 0.20524
0.00000 0.93005 0.21036
0.00000 0.93067 0.22227
0.00000 0.93153 0.23768
0.00000 0.93254 0.24837
0.00000 0.93368 0.25671
0.05628 0.93492 0.26319
0.26145 0.93620 0.26948
0.36490 0.93747 0.27574
0.45024 0.93871 0.28902
0.51381 0.93994 0.29033
0.56791 0.94100 0.28895
0.61916 0.94183 0.29358
0.65841 0.94283 0.28073
0.69933 0.94384 0.28521
0.73799 0.94464 0.29003
0.77142 0.94540 0.28105
0.80165 0.94611 0.26939
0.83110 0.94667 0.26885
0.85922 0.94685 0.26702
0.88548 0.94653 0.26027
0.90911 0.94610 0.24325
0.93168 0.94610 0.24791
0.94991 0.94630 0.24055
0.96060 0.94562 0.23189
0.96478 0.94398 0.22861
0.00000 0.94479 0.23708
0.00000 0.94492 0.23623
0.00000 0.94506 0.23518
0.00000 0.94527 0.23361
