cube lut/eterna_DisplayP3.cube
# DisplayP3
# github.com/abpy/FujifilmCameraProfiles
LUT_3D_SIZE 5
DOMAIN_MIN 0.000000 0.000000 0.000000
DOMAIN_MAX 0.903226 0.903226 0.903226
0.00000 0.00000 0.00000
0.24636 0.03220 0.01656
0.58306 0.11520 0.05720
0.82464 0.18821 0.05770
0.93143 0.27391 0.18322
0.00000 0.22779 0.00852
0.22224 0.23013 0.04294
0.58602 0.23715 0.07713
0.83055 0.27305 0.07589
0.93569 0.32975 0.18767
0.00000 0.54533 0.06288
0.00000 0.54093 0.09464
0.54821 0.56676 0.12759
0.83294 0.55081 0.16350
0.94692 0.48317 0.23807
0.00000 0.78217 0.12642
0.00000 0.78972 0.15901
0.39381 0.80243 0.17630
0.78020 0.81138 0.19674
0.95079 0.79226 0.23894
0.00000 0.91055 0.13824
0.00000 0.91965 0.18252
0.00000 0.93762 0.21325
0.68923 0.95359 0.25865
0.92168 0.95984 0.23626
0.03252 0.03567 0.26149
0.28098 0.08310 0.28258
0.60388 0.14097 0.28737
0.83608 0.18268 0.23255
0.93473 0.26779 0.26207
0.00000 0.24946 0.23267
0.26603 0.26544 0.26563
0.60341 0.29573 0.29776
0.84292 0.29395 0.23104
0.93951 0.31259 0.26084
0.00000 0.55271 0.23713
0.09639 0.56244 0.26377
0.57357 0.58562 0.29807
0.83501 0.58616 0.25783
0.95119 0.51786 0.25410
0.00000 0.78473 0.25281
0.00000 0.79084 0.27616
0.44576 0.80308 0.31351
0.79128 0.81571 0.30950
0.95169 0.80484 0.26884
0.00000 0.91123 0.25214
0.00000 0.91961 0.27716
0.00000 0.93536 0.31314
0.70921 0.95369 0.36304
0.92689 0.96141 0.31278
0.07897 0.09054 0.62372
0.31234 0.11874 0.64818
0.65717 0.20987 0.67741
0.86650 0.24127 0.63695
0.94833 0.30320 0.54804
0.16777 0.33454 0.59305
0.36136 0.35892 0.61420
0.65202 0.38885 0.64321
0.86258 0.41107 0.64646
0.95389 0.42301 0.59187
0.00000 0.59733 0.55732
0.25647 0.60473 0.58254
0.61939 0.61945 0.61894
0.84950 0.62864 0.62845
0.96566 0.62996 0.60216
0.00000 0.78871 0.52706
0.00000 0.79472 0.55203
0.53301 0.81140 0.60570
0.81435 0.82451 0.62975
0.96716 0.82829 0.61258
0.00000 0.91050 0.48994
0.00000 0.91791 0.52193
0.34458 0.93430 0.59616
0.75943 0.95448 0.63810
0.94928 0.96250 0.62726
0.13267 0.15987 0.87302
0.33637 0.17585 0.89753
0.66220 0.23561 0.93168
0.88192 0.32064 0.92792
0.96027 0.38515 0.86933
0.18966 0.37515 0.83704
0.39553 0.40065 0.86293
0.68230 0.43599 0.89163
0.87938 0.48724 0.89303
0.96643 0.50638 0.85818
0.25192 0.64269 0.79655
0.41012 0.65108 0.81155
0.67367 0.67332 0.83969
0.86541 0.68557 0.85660
0.97175 0.69874 0.84896
0.00000 0.80659 0.74888
0.22749 0.81268 0.77148
0.60010 0.82832 0.81215
0.83983 0.83989 0.83945
0.97622 0.84571 0.84381
0.00000 0.91565 0.71008
0.00000 0.92345 0.72987
0.47021 0.94184 0.78512
0.79100 0.95898 0.82714
0.96234 0.96527 0.83933
0.18403 0.23405 0.96838
0.34826 0.23828 0.97858
0.65443 0.28701 0.98253
0.87270 0.35237 0.98695
0.96264 0.44026 0.98734
0.22421 0.41363 0.95041
0.39906 0.42616 0.97246
0.67931 0.45605 0.98382
0.87841 0.49055 0.98837
0.96931 0.56432 0.98896
0.40439 0.69049 0.92355
0.53343 0.70580 0.93933
0.72467 0.72846 0.96808
0.88375 0.74609 0.98393
0.98031 0.75856 0.98109
0.34343 0.82826 0.89927
0.46071 0.83356 0.91408
0.67791 0.84850 0.94769
0.86295 0.86402 0.97075
0.98123 0.87061 0.97613
0.00000 0.92658 0.85392
0.23026 0.93313 0.87379
0.57873 0.95131 0.91624
0.81665 0.96408 0.94836
0.97006 0.96995 0.96983
