cube lut/eterna_DisplayP3.cube
# DisplayP3
# github.com/abpy/FujifilmCameraProfiles
LUT_3D_SIZE 8
DOMAIN_MIN 0.000000 0.000000 0.000000
DOMAIN_MAX 0.903226 0.903226 0.903226
0.00000 0.00000 0.00000
0.12789 0.01710 0.01329
0.29165 0.04040 0.02242
0.49153 0.08920 0.04071
0.66499 0.13841 0.06167
0.79700 0.17940 0.05934
0.89505 0.21473 0.06615
0.93143 0.27391 0.18322
0.00000 0.11533 0.00685
0.11663 0.12211 0.02170
0.28762 0.12114 0.02150
0.49189 0.14783 0.03999
0.66754 0.18636 0.05161
0.79980 0.21874 0.04571
0.89758 0.24617 0.05361
0.93296 0.29637 0.18167
0.00000 0.26841 0.00979
0.00341 0.25962 0.03882
0.26302 0.27119 0.05202
0.48582 0.27843 0.08095
0.67222 0.27566 0.09609
0.80497 0.28743 0.09600
0.90249 0.30573 0.09066
0.93696 0.34321 0.19297
0.00000 0.45557 0.03910
0.00000 0.45100 0.06814
0.18305 0.45448 0.08095
0.45362 0.46627 0.09941
0.66615 0.47216 0.12930
0.81108 0.44657 0.14920
0.90906 0.41376 0.15356
0.94387 0.41776 0.22529
0.00000 0.62751 0.08479
0.00000 0.62883 0.10231
0.00000 0.62934 0.11378
0.37253 0.64191 0.13060
0.62996 0.65235 0.14851
0.79190 0.65217 0.17301
0.90022 0.62505 0.18785
0.94839 0.58167 0.24455
0.00000 0.75621 0.11984
0.00000 0.75953 0.13437
0.00000 0.76455 0.15468
0.21377 0.77074 0.16225
0.56720 0.78070 0.18522
0.75459 0.78457 0.18826
0.87961 0.77954 0.20625
0.94984 0.75721 0.24019
0.00000 0.84919 0.13870
0.00000 0.85266 0.15419
0.00000 0.85926 0.18239
0.00000 0.86418 0.18666
0.46651 0.87374 0.20623
0.70520 0.88129 0.22530
0.84706 0.88301 0.21672
0.94405 0.87828 0.23563
0.00000 0.91055 0.13824
0.00000 0.91393 0.15657
0.00000 0.92217 0.19225
0.00000 0.93312 0.22082
0.28281 0.94183 0.23182
0.63769 0.95208 0.25782
0.80918 0.95966 0.25301
0.92168 0.95984 0.23626
0.01595 0.01671 0.13814
0.14849 0.04204 0.14671
0.30157 0.06180 0.15004
0.49862 0.09632 0.14645
0.67069 0.13862 0.14875
0.80106 0.17686 0.13908
0.89900 0.21040 0.13263
0.93266 0.27150 0.21537
0.00000 0.13074 0.12026
0.14127 0.14171 0.14129
0.29699 0.15503 0.15507
0.49881 0.16814 0.15053
0.67300 0.18557 0.14277
0.80360 0.21249 0.13023
0.90139 0.23931 0.12442
0.93422 0.29202 0.21371
0.00000 0.26956 0.11703
0.08215 0.27348 0.13820
0.28123 0.28488 0.15466
0.49223 0.30030 0.15406
0.67724 0.29638 0.13461
0.80959 0.29021 0.14712
0.90645 0.29937 0.14385
0.93850 0.33603 0.22232
0.00000 0.45794 0.12383
0.00000 0.45738 0.13771
0.21480 0.46419 0.15281
0.46588 0.47789 0.16394
0.66935 0.48999 0.16609
0.81183 0.46729 0.15609
0.91259 0.42435 0.17903
0.94623 0.41768 0.24629
0.00000 0.62939 0.14801
0.00000 0.63093 0.15505
0.00000 0.63428 0.15614
0.39406 0.64674 0.18044
0.63647 0.65853 0.18910
0.79304 0.66061 0.18920
0.90022 0.63707 0.19139
0.94938 0.59450 0.25005
0.00000 0.75759 0.17241
0.00000 0.76075 0.18051
0.00000 0.76541 0.19422
0.24434 0.77209 0.19980
0.57775 0.78228 0.22537
0.75874 0.78723 0.21435
0.88211 0.78463 0.21556
0.95026 0.76282 0.23946
0.00000 0.85010 0.18613
0.00000 0.85341 0.19660
0.00000 0.85930 0.21765
0.00000 0.86326 0.21833
0.48067 0.87357 0.24800
0.71106 0.88221 0.25848
0.84947 0.88441 0.23813
0.94432 0.88034 0.24349
0.00000 0.91094 0.18601
0.00000 0.91426 0.19900
0.00000 0.92221 0.22632
0.00000 0.93259 0.25349
0.30545 0.94123 0.26401
0.64575 0.95204 0.29313
0.81360 0.95971 0.27968
0.92297 0.96058 0.25017
0.03853 0.04293 0.30936
0.16305 0.05949 0.31814
0.33310 0.09929 0.33387
0.52370 0.13013 0.33718
0.68863 0.16468 0.32921
0.81335 0.17824 0.28615
0.90842 0.20201 0.24810
0.93579 0.26590 0.28118
0.07930 0.16924 0.28960
0.18227 0.18083 0.30071
0.32852 0.19441 0.31710
0.51788 0.21812 0.34144
0.69024 0.23513 0.34442
0.81633 0.23464 0.29992
0.91045 0.22987 0.24031
0.93736 0.28136 0.27784
0.00000 0.29722 0.27709
0.13966 0.30124 0.29548
0.31445 0.31423 0.31396
0.51586 0.33129 0.33701
0.69184 0.34609 0.34508
0.82191 0.34642 0.31443
0.91538 0.32617 0.23665
0.94307 0.33024 0.27948
0.00000 0.47223 0.27717
0.00000 0.47655 0.28722
0.25956 0.48637 0.31045
0.49220 0.49859 0.33118
0.68197 0.51538 0.34403
0.81573 0.51233 0.31785
0.91585 0.48170 0.24310
0.95059 0.44260 0.26765
0.00000 0.63524 0.28253
0.00000 0.63816 0.29343
0.10073 0.64760 0.31402
0.44157 0.65748 0.33957
0.65459 0.66793 0.35240
0.79848 0.67484 0.33513
0.90273 0.66155 0.28864
0.95150 0.62750 0.25660
0.00000 0.75991 0.28552
0.00000 0.76275 0.29450
0.00000 0.76707 0.32425
0.32427 0.77524 0.33838
0.60409 0.78470 0.36197
0.77129 0.79055 0.35362
0.88889 0.79568 0.32014
0.95375 0.77504 0.28370
0.00000 0.85118 0.28478
0.00000 0.85402 0.29305
0.00000 0.85858 0.31729
0.00000 0.86260 0.32561
0.52036 0.87339 0.37133
0.72805 0.88356 0.37831
0.85873 0.88604 0.35288
0.94850 0.88520 0.31097
0.00000 0.91124 0.27942
0.00000 0.91434 0.28827
0.00000 0.92156 0.31087
0.00000 0.93076 0.34624
0.36322 0.94033 0.36751
0.66696 0.95162 0.39448
0.82543 0.95958 0.38071
0.92914 0.96161 0.34804
0.06838 0.07496 0.52540
0.18150 0.08348 0.53572
0.35167 0.11182 0.55202
0.55844 0.17437 0.56810
0.71791 0.19984 0.55983
0.83303 0.22174 0.52766
0.92094 0.23724 0.48785
0.94399 0.26809 0.41786
0.10875 0.19522 0.50340
0.21639 0.21056 0.51802
0.37007 0.23030 0.53565
0.55637 0.26757 0.55022
0.71552 0.28012 0.55721
0.83433 0.28278 0.54045
0.92350 0.28854 0.50130
0.94638 0.30229 0.43092
0.11802 0.34121 0.49128
0.21059 0.34722 0.50197
0.36460 0.36112 0.51961
0.55157 0.37961 0.53897
0.71199 0.39848 0.55064
0.83185 0.41158 0.55168
0.92444 0.41799 0.53384
0.95256 0.41647 0.47974
0.00000 0.50551 0.47582
0.09156 0.50759 0.48928
0.31392 0.51616 0.50628
0.52827 0.52814 0.52792
0.70079 0.53989 0.53920
0.82484 0.54527 0.54164
0.91989 0.54404 0.52137
0.95875 0.53481 0.48046
0.00000 0.64877 0.46107
0.00000 0.65330 0.47189
0.20991 0.66135 0.49482
0.47885 0.67012 0.52009
0.67445 0.67886 0.53740
0.80862 0.68720 0.54093
0.90910 0.68569 0.52523
0.96235 0.67669 0.49275
0.00000 0.76331 0.45185
0.00000 0.76629 0.46320
0.00000 0.77162 0.48724
0.40090 0.77970 0.51872
0.63557 0.78961 0.54207
0.78498 0.79582 0.54770
0.89497 0.80111 0.53971
0.96408 0.79528 0.50355
0.00000 0.85130 0.43360
0.00000 0.85374 0.44567
0.00000 0.85804 0.47992
0.26521 0.86498 0.51624
0.57402 0.87636 0.54350
0.75332 0.88429 0.55990
0.87253 0.88825 0.54454
0.95771 0.89112 0.51102
0.00000 0.91068 0.41331
0.00000 0.91349 0.42338
0.00000 0.91998 0.45300
0.00000 0.92886 0.50413
0.46369 0.94008 0.53750
0.70210 0.95188 0.55580
0.84396 0.95929 0.55782
0.94301 0.96203 0.53734
0.10146 0.11345 0.71018
0.19758 0.11865 0.72276
0.36773 0.14375 0.74050
0.57190 0.19043 0.76326
0.73718 0.24184 0.76842
0.85225 0.26114 0.75425
0.93179 0.27147 0.71342
0.95116 0.32837 0.65442
0.13330 0.21826 0.68991
0.23005 0.22623 0.70704
0.39107 0.24603 0.72728
0.58150 0.27514 0.74872
0.73686 0.32037 0.75210
0.85035 0.33223 0.74541
0.93331 0.32552 0.71904
0.95279 0.36586 0.66276
0.19975 0.39805 0.67369
0.28580 0.41111 0.68218
0.42796 0.42821 0.69784
0.58914 0.44413 0.71273
0.73065 0.45461 0.72356
0.84269 0.46498 0.72652
0.92872 0.47023 0.71858
0.95967 0.47974 0.68956
0.12502 0.53997 0.65345
0.22612 0.54289 0.66152
0.38253 0.55171 0.67645
0.56661 0.56577 0.69614
0.71859 0.57503 0.70673
0.83457 0.57918 0.71352
0.92464 0.58775 0.70804
0.96739 0.59850 0.69621
0.00000 0.67088 0.62403
0.00000 0.67494 0.63684
0.30439 0.67863 0.65356
0.51995 0.68666 0.67772
0.69532 0.69547 0.69493
0.81989 0.70178 0.70325
0.91729 0.70298 0.70174
0.97040 0.70534 0.69310
0.00000 0.77023 0.60195
0.00000 0.77331 0.61169
0.13984 0.77895 0.63461
0.45486 0.78762 0.66072
0.65862 0.79784 0.68504
0.79788 0.80464 0.69807
0.90294 0.81029 0.70019
0.97162 0.80848 0.69324
0.00000 0.85242 0.58425
0.00000 0.85487 0.59356
0.00000 0.85990 0.61567
0.35041 0.86809 0.65007
0.60977 0.87946 0.68125
0.77172 0.88740 0.70238
0.88441 0.89299 0.70362
0.96674 0.89618 0.69936
0.00000 0.91083 0.56360
0.00000 0.91369 0.57405
0.00000 0.92065 0.60019
0.14786 0.92974 0.63607
0.53632 0.94328 0.67474
0.73477 0.95360 0.70107
0.86072 0.96069 0.71331
0.95323 0.96250 0.70306
0.12921 0.15120 0.84634
0.21265 0.15274 0.85846
0.38026 0.17341 0.87530
0.57722 0.21457 0.89788
0.73822 0.25969 0.90849
0.85831 0.30411 0.90387
0.93988 0.32733 0.88506
0.95864 0.37098 0.83309
0.15402 0.24500 0.82879
0.24148 0.24858 0.84265
0.40160 0.26396 0.86253
0.59122 0.29565 0.88520
0.74298 0.32978 0.89368
0.85817 0.36966 0.88973
0.93958 0.38563 0.87532
0.96098 0.41687 0.83355
0.21962 0.42419 0.80521
0.30031 0.43421 0.81376
0.45378 0.45607 0.82988
0.61191 0.47538 0.84502
0.74405 0.48078 0.85692
0.85195 0.51831 0.85510
0.93615 0.51562 0.85336
0.96723 0.53248 0.82752
0.25213 0.57833 0.78186
0.32877 0.58531 0.78729
0.45260 0.59419 0.79929
0.60810 0.60954 0.81517
0.73756 0.61933 0.82609
0.84425 0.62210 0.83671
0.93143 0.63214 0.83607
0.97068 0.63987 0.82307
0.13820 0.68847 0.75604
0.23797 0.69093 0.76353
0.39352 0.69683 0.77831
0.56691 0.70580 0.79672
0.71852 0.71748 0.81375
0.83153 0.72360 0.82485
0.92319 0.73041 0.82744
0.97230 0.73309 0.82071
0.00000 0.78309 0.72743
0.00000 0.78545 0.73726
0.29201 0.79113 0.75575
0.50882 0.79978 0.77900
0.68544 0.80867 0.80096
0.81483 0.81496 0.81448
0.91129 0.82176 0.82035
0.97518 0.82159 0.81935
0.00000 0.85748 0.70279
0.00000 0.85964 0.71115
0.02422 0.86549 0.73290
0.42584 0.87539 0.76231
0.64150 0.88659 0.78812
0.78756 0.89439 0.80777
0.89486 0.89793 0.81691
0.97201 0.90068 0.81819
0.00000 0.91385 0.68432
0.00000 0.91671 0.69179
0.00000 0.92374 0.71069
0.29232 0.93459 0.74308
0.57680 0.94600 0.77736
0.75331 0.95590 0.80087
0.87312 0.96167 0.81590
0.96034 0.96433 0.81633
0.15090 0.18908 0.94026
0.22540 0.18825 0.95067
0.38836 0.20728 0.96635
0.57453 0.23735 0.97619
0.73289 0.26800 0.98044
0.85407 0.32008 0.98278
0.94284 0.37631 0.97507
0.96236 0.41292 0.94879
0.17010 0.27287 0.92693
0.24945 0.27514 0.93902
0.40936 0.28916 0.95790
0.58800 0.31062 0.97276
0.74004 0.33689 0.97823
0.85704 0.37810 0.97857
0.94365 0.42794 0.96983
0.96443 0.46056 0.94371
0.22347 0.43626 0.90179
0.30539 0.44615 0.91161
0.45647 0.46562 0.93092
0.61406 0.47753 0.94691
0.75265 0.50073 0.95555
0.85862 0.52449 0.95700
0.94277 0.55218 0.95332
0.96991 0.57470 0.93243
0.32683 0.60925 0.87997
0.40204 0.61945 0.88504
0.51270 0.63278 0.89466
0.64528 0.64716 0.90997
0.75908 0.65984 0.92044
0.85516 0.66138 0.93207
0.93784 0.67213 0.93423
0.97538 0.68469 0.92268
0.31188 0.71054 0.85822
0.37167 0.71404 0.86380
0.47961 0.72063 0.87479
0.61858 0.73325 0.89098
0.74542 0.74540 0.90593
0.84560 0.75187 0.91656
0.93120 0.75776 0.92337
0.97949 0.76165 0.91555
0.17016 0.79437 0.83439
0.26166 0.79651 0.84106
0.40737 0.80212 0.85548
0.56869 0.81133 0.87490
0.71490 0.82103 0.89255
0.83014 0.82947 0.90497
0.91993 0.83435 0.91198
0.98081 0.83770 0.91167
0.00000 0.86673 0.80545
0.00000 0.86864 0.81405
0.28666 0.87373 0.83279
0.49961 0.88310 0.85647
0.67350 0.89301 0.87921
0.80555 0.89950 0.89513
0.90461 0.90468 0.90431
0.97871 0.90763 0.90798
0.00000 0.92223 0.78092
0.00000 0.92534 0.78826
0.00000 0.93239 0.80745
0.39954 0.94042 0.83684
0.61712 0.94924 0.86508
0.77288 0.95816 0.88433
0.88311 0.96278 0.89652
0.96713 0.96761 0.90174
0.18403 0.23405 0.96838
0.24415 0.23140 0.97385
0.39148 0.24322 0.97996
0.57096 0.26469 0.98149
0.72706 0.30085 0.98339
0.84782 0.32897 0.98548
0.94213 0.36108 0.98734
0.96264 0.44026 0.98734
0.19571 0.30573 0.95944
0.26279 0.30675 0.96792
0.41151 0.31732 0.98060
0.58375 0.33471 0.98255
0.73598 0.36562 0.98423
0.85107 0.38658 0.98609
0.94293 0.42209 0.98788
0.96470 0.48517 0.98786
0.23728 0.45455 0.94675
0.30476 0.46036 0.95502
0.45389 0.47498 0.97128
0.61338 0.48870 0.98116
0.75112 0.51265 0.98584
0.85612 0.52361 0.98771
0.94327 0.55694 0.98917
0.97142 0.59820 0.98927
0.35593 0.62473 0.92923
0.41744 0.63177 0.93603
0.53203 0.64689 0.95004
0.66062 0.66472 0.96788
0.76481 0.67145 0.98072
0.86297 0.68662 0.98743
0.94099 0.69251 0.99038
0.97872 0.72344 0.98406
0.40800 0.73646 0.91697
0.46633 0.74323 0.92376
0.55883 0.75242 0.93650
0.66617 0.76369 0.95316
0.77038 0.77326 0.96833
0.85992 0.78220 0.97873
0.93723 0.78603 0.98466
0.98128 0.78933 0.97934
0.36507 0.81132 0.90314
0.41118 0.81348 0.90888
0.50582 0.81863 0.92191
0.62577 0.82727 0.94120
0.74586 0.83734 0.95710
0.84626 0.84686 0.97102
0.92621 0.85133 0.97796
0.98176 0.85542 0.97644
0.21866 0.87669 0.88092
0.29324 0.87870 0.88740
0.42351 0.88385 0.90204
0.57350 0.89230 0.92290
0.71098 0.90100 0.94287
0.82258 0.90692 0.95857
0.91115 0.91346 0.97110
0.97812 0.91562 0.97560
0.00000 0.92658 0.85392
0.00000 0.92893 0.86180
0.28933 0.93513 0.87901
0.48975 0.94507 0.90313
0.65991 0.95727 0.92908
0.78934 0.96280 0.94439
0.88992 0.96807 0.96014
0.97006 0.96995 0.96983
