cube lut/eterna_sRGB.cube
# sRGB
# github.com/abpy/FujifilmCameraProfiles
LUT_3D_SIZE 8
DOMAIN_MIN 0.000000 0.000000 0.000000
DOMAIN_MAX 0.903226 0.903226 0.903226
0.00000 0.00000 0.00000
0.12359 0.01483 0.01131
0.28198 0.02398 0.00676
0.48073 0.04281 0.00223
0.66759 0.07469 0.00000
0.81607 0.10822 0.00000
0.93087 0.13929 0.00000
1.00000 0.18678 0.01952
0.00000 0.11141 0.01520
0.11875 0.12469 0.02135
0.28212 0.12548 0.01894
0.48620 0.12288 0.00969
0.67155 0.13877 0.01954
0.81996 0.15835 0.00000
0.93368 0.17990 0.00000
1.00000 0.21580 0.03807
0.00000 0.26155 0.01413
0.02978 0.26725 0.02347
0.26686 0.27601 0.02366
0.48282 0.28600 0.02436
0.67904 0.28064 0.00758
0.83111 0.26463 0.04499
0.94111 0.26707 0.01646
1.00000 0.28403 0.09110
0.00000 0.45413 0.00000
0.00000 0.45722 0.00000
0.19094 0.46335 0.01781
0.45969 0.47575 0.00821
0.66928 0.48712 0.00000
0.82135 0.48040 0.00000
0.94038 0.45477 0.00000
1.00000 0.42531 0.10384
0.00000 0.63563 0.00000
0.00000 0.63808 0.00000
0.00000 0.64451 0.00000
0.40277 0.65319 0.04526
0.63433 0.66116 0.02751
0.79347 0.66708 0.00000
0.90949 0.65436 0.00000
0.99061 0.63543 0.00000
0.00000 0.77376 0.05705
0.00000 0.77496 0.02472
0.00000 0.77854 0.07489
0.32578 0.78284 0.12189
0.59261 0.78804 0.14718
0.75907 0.79014 0.10744
0.88585 0.79427 0.00000
0.96789 0.78522 0.00000
0.00000 0.87047 0.15861
0.00000 0.87104 0.14616
0.00000 0.87305 0.17235
0.21144 0.87739 0.20309
0.54960 0.88237 0.22492
0.72266 0.88681 0.21982
0.85120 0.88713 0.19110
0.94859 0.88768 0.11955
0.00000 0.94479 0.23708
0.00000 0.94556 0.23169
0.00000 0.94753 0.24121
0.00000 0.95121 0.28273
0.50515 0.95585 0.31398
0.69121 0.95946 0.29953
0.82569 0.96333 0.28601
0.92565 0.96296 0.25957
0.01477 0.01564 0.13674
0.14427 0.04007 0.14395
0.29204 0.05516 0.15020
0.48616 0.07358 0.14989
0.67340 0.07726 0.13273
0.82033 0.09858 0.10089
0.93462 0.12722 0.06627
1.00000 0.17549 0.10992
0.00000 0.13264 0.12661
0.14116 0.14172 0.14126
0.29139 0.15249 0.15370
0.49073 0.16228 0.15852
0.67711 0.16060 0.13913
0.82452 0.16080 0.10535
0.93765 0.17380 0.07689
1.00000 0.20621 0.11677
0.00000 0.27286 0.13111
0.08761 0.27865 0.14423
0.28407 0.28775 0.15748
0.48899 0.30541 0.16894
0.68174 0.30669 0.14114
0.83107 0.29083 0.06364
0.94458 0.27818 0.07594
1.00000 0.28710 0.13231
0.00000 0.46399 0.12908
0.00000 0.46699 0.13792
0.22362 0.47213 0.15214
0.47119 0.48412 0.16330
0.67314 0.49862 0.14830
0.82081 0.49760 0.10735
0.93839 0.47471 0.00967
1.00000 0.44574 0.08933
0.00000 0.64084 0.13062
0.00000 0.64353 0.13509
0.00000 0.64968 0.15297
0.42345 0.65678 0.17921
0.64205 0.66472 0.18020
0.79525 0.67195 0.15461
0.91013 0.66161 0.09771
0.99060 0.64529 0.02411
0.00000 0.77474 0.16979
0.00000 0.77613 0.16446
0.00000 0.77957 0.18906
0.35178 0.78326 0.21774
0.60305 0.78852 0.24212
0.76445 0.79094 0.21922
0.88803 0.79682 0.15116
0.96960 0.78922 0.15118
0.00000 0.87059 0.22921
0.00000 0.87118 0.22163
0.00000 0.87295 0.25287
0.25591 0.87724 0.27564
0.56245 0.88271 0.29694
0.72950 0.88692 0.29633
0.85537 0.88724 0.27220
0.95098 0.88894 0.22201
0.00000 0.94430 0.28707
0.00000 0.94518 0.28244
0.00000 0.94731 0.30110
0.11831 0.95083 0.33861
0.51998 0.95557 0.36661
0.69820 0.95924 0.35142
0.83011 0.96319 0.34452
0.92911 0.96290 0.32540
0.03574 0.04000 0.30449
0.15989 0.05474 0.31213
0.32200 0.09088 0.32370
0.51011 0.11948 0.33365
0.69200 0.13505 0.33524
0.83450 0.15930 0.32245
0.94584 0.15142 0.26219
1.00000 0.17067 0.22924
0.08377 0.17060 0.28817
0.17969 0.17755 0.29714
0.32187 0.18815 0.31137
0.50899 0.20657 0.33366
0.69180 0.22340 0.34877
0.83752 0.23375 0.33820
0.94802 0.22498 0.27729
1.00000 0.22319 0.23136
0.00000 0.29900 0.28952
0.13845 0.30334 0.29935
0.31450 0.31422 0.31392
0.51270 0.32701 0.33356
0.69533 0.34321 0.34737
0.84036 0.35306 0.33738
0.94964 0.34548 0.28895
1.00000 0.33716 0.20974
0.00000 0.48191 0.29240
0.00000 0.48614 0.30063
0.26100 0.49129 0.31569
0.49439 0.50176 0.33278
0.68412 0.51748 0.34756
0.82463 0.52517 0.34461
0.93604 0.52075 0.30477
1.00000 0.50010 0.23117
0.00000 0.65066 0.31035
0.00000 0.65384 0.31447
0.11180 0.65902 0.32804
0.46101 0.66411 0.35603
0.65753 0.67105 0.36521
0.80105 0.67963 0.36305
0.91205 0.67802 0.34000
0.99331 0.66562 0.27824
0.00000 0.77672 0.34440
0.00000 0.77811 0.35003
0.00000 0.78133 0.36244
0.40838 0.78514 0.38380
0.62536 0.78996 0.39997
0.77460 0.79332 0.39285
0.89107 0.79935 0.37544
0.97469 0.79735 0.34957
0.00000 0.87036 0.37606
0.00000 0.87124 0.38241
0.00000 0.87370 0.39979
0.34535 0.87802 0.41583
0.59100 0.88358 0.43340
0.74612 0.88679 0.44296
0.86428 0.88798 0.42025
0.95668 0.89149 0.40084
0.00000 0.94342 0.40752
0.00000 0.94444 0.41049
0.00000 0.94655 0.43223
0.27454 0.95029 0.45626
0.55348 0.95539 0.47462
0.71588 0.95887 0.46418
0.84087 0.96266 0.46752
0.93783 0.96281 0.45695
0.05353 0.06570 0.51821
0.17912 0.07571 0.52788
0.34418 0.10259 0.54266
0.54752 0.15349 0.55542
0.72147 0.18984 0.55557
0.85485 0.20251 0.54578
0.95806 0.22692 0.52384
1.00000 0.26824 0.49022
0.11213 0.19580 0.50103
0.21558 0.20846 0.51098
0.36359 0.22959 0.52418
0.54678 0.25325 0.53749
0.71779 0.27395 0.55103
0.85180 0.29107 0.55273
0.95531 0.30880 0.54239
1.00000 0.33342 0.51148
0.10981 0.34042 0.49522
0.20608 0.34523 0.50199
0.36077 0.35682 0.51606
0.54767 0.37191 0.53313
0.71649 0.38534 0.54700
0.84824 0.40273 0.54882
0.94963 0.42214 0.54572
1.00000 0.43534 0.52398
0.00000 0.50941 0.49157
0.04762 0.51287 0.49754
0.31452 0.51810 0.51070
0.52829 0.52813 0.52789
0.70294 0.53802 0.53758
0.83452 0.54618 0.54367
0.93818 0.55416 0.53705
1.00000 0.55692 0.51663
0.00000 0.66452 0.49066
0.00000 0.66598 0.49658
0.23123 0.66906 0.50899
0.49135 0.67493 0.52902
0.67576 0.68040 0.54156
0.81149 0.68811 0.54721
0.91741 0.69125 0.54514
0.99784 0.69169 0.53018
0.00000 0.78001 0.50067
0.00000 0.78116 0.50727
0.12356 0.78452 0.52170
0.45411 0.78938 0.54102
0.64788 0.79426 0.55673
0.78578 0.79803 0.56300
0.89616 0.80360 0.56370
0.98128 0.80504 0.54626
0.00000 0.87073 0.52322
0.00000 0.87201 0.52991
0.00000 0.87563 0.54417
0.41808 0.88030 0.56011
0.62042 0.88458 0.57726
0.76449 0.88739 0.59254
0.87489 0.89058 0.58173
0.96455 0.89452 0.57946
0.00000 0.94224 0.54861
0.00000 0.94316 0.55443
0.00000 0.94603 0.56788
0.38645 0.95114 0.58529
0.59569 0.95563 0.60138
0.74015 0.95902 0.60334
0.85569 0.96250 0.61788
0.94751 0.96304 0.60249
0.08868 0.10398 0.71015
0.19153 0.10918 0.72255
0.35923 0.13080 0.73657
0.56630 0.16329 0.75681
0.74341 0.22664 0.76145
0.87207 0.26502 0.75037
0.96781 0.28600 0.73608
1.00000 0.30943 0.70192
0.12895 0.21501 0.69356
0.23019 0.22239 0.70756
0.38468 0.24035 0.72298
0.57863 0.26579 0.74177
0.74100 0.32086 0.74283
0.86594 0.34668 0.73756
0.96199 0.36181 0.73125
1.00000 0.37892 0.71024
0.20614 0.40130 0.67870
0.27782 0.40718 0.68410
0.42089 0.42052 0.69670
0.58373 0.43443 0.70831
0.73400 0.44341 0.72047
0.85569 0.46010 0.72130
0.95260 0.47246 0.72079
1.00000 0.49016 0.71015
0.08839 0.54210 0.66464
0.21229 0.54494 0.66951
0.38305 0.55220 0.68140
0.56377 0.56252 0.69574
0.71852 0.57065 0.70429
0.84204 0.57902 0.71214
0.94190 0.58500 0.71039
1.00000 0.59463 0.70088
0.00000 0.68099 0.64855
0.00153 0.68160 0.65285
0.32534 0.68464 0.66504
0.52819 0.68925 0.68280
0.69527 0.69547 0.69490
0.82190 0.70132 0.70328
0.92381 0.70633 0.70366
1.00000 0.70814 0.69814
0.00000 0.78720 0.64276
0.00000 0.78839 0.64796
0.26342 0.79158 0.65905
0.49592 0.79606 0.67471
0.66660 0.80194 0.69050
0.79795 0.80595 0.70117
0.90378 0.81141 0.70543
0.98865 0.81270 0.70463
0.00000 0.87381 0.64607
0.00000 0.87506 0.65159
0.20350 0.87820 0.66381
0.46786 0.88269 0.68073
0.64533 0.88657 0.69947
0.77838 0.89165 0.71138
0.88524 0.89442 0.71475
0.97095 0.89739 0.71556
0.00000 0.94357 0.65615
0.00000 0.94477 0.66161
0.16271 0.94791 0.67402
0.44748 0.95268 0.69177
0.62702 0.95687 0.70982
0.75910 0.96093 0.72019
0.86761 0.96355 0.73154
0.95416 0.96300 0.72645
0.11894 0.14372 0.85594
0.20479 0.14491 0.86647
0.37191 0.16168 0.88015
0.57519 0.19601 0.89951
0.74774 0.23801 0.90943
0.87872 0.30032 0.90240
0.97416 0.34303 0.88441
1.00000 0.37146 0.86116
0.14477 0.23957 0.84012
0.23804 0.24407 0.85130
0.39777 0.25781 0.86710
0.59121 0.28998 0.88548
0.75147 0.32017 0.89337
0.87431 0.38160 0.88359
0.96781 0.41688 0.87007
1.00000 0.42869 0.85457
0.22363 0.42807 0.81681
0.30353 0.43695 0.82248
0.45113 0.45375 0.83408
0.60738 0.46915 0.84514
0.74892 0.48127 0.85410
0.86195 0.50729 0.85184
0.95572 0.52672 0.85030
1.00000 0.53708 0.84354
0.25271 0.58286 0.79220
0.31985 0.58561 0.79600
0.44992 0.59391 0.80452
0.60175 0.60368 0.81676
0.73517 0.61001 0.82622
0.84903 0.61762 0.83390
0.94438 0.62620 0.83579
1.00000 0.63755 0.83341
0.15857 0.69623 0.77502
0.25676 0.69781 0.77909
0.40717 0.70139 0.78815
0.57169 0.70706 0.80101
0.71663 0.71545 0.81349
0.83218 0.72064 0.82336
0.92821 0.72879 0.82535
1.00000 0.73065 0.82594
0.00000 0.79809 0.76125
0.15783 0.79944 0.76564
0.36052 0.80223 0.77581
0.54015 0.80625 0.79028
0.69159 0.81158 0.80420
0.81479 0.81496 0.81448
0.91209 0.82112 0.82014
0.99072 0.82292 0.82136
0.00000 0.88013 0.75594
0.01969 0.88143 0.76055
0.32319 0.88458 0.77073
0.51524 0.88914 0.78447
0.66946 0.89356 0.79992
0.79345 0.89676 0.81209
0.89530 0.89860 0.81912
0.97628 0.90189 0.82084
0.00000 0.94739 0.75615
0.00000 0.94830 0.76079
0.30074 0.95073 0.77128
0.49495 0.95432 0.78588
0.65187 0.95817 0.80051
0.77622 0.96312 0.81300
0.87951 0.96282 0.82219
0.96140 0.96529 0.82278
0.13471 0.18013 0.95831
0.21465 0.17947 0.96820
0.37956 0.19430 0.98368
0.57180 0.22210 0.99588
0.74471 0.25488 1.00000
0.87594 0.31098 0.99932
0.97354 0.37735 0.98895
1.00000 0.44348 0.97043
0.15420 0.26720 0.94514
0.24328 0.26979 0.95499
0.40353 0.28087 0.97234
0.58781 0.30480 0.98696
0.75210 0.33478 0.99394
0.87624 0.38052 0.98943
0.97005 0.44220 0.97865
1.00000 0.49788 0.96261
0.21831 0.43860 0.92037
0.30212 0.44649 0.92781
0.45443 0.46298 0.94132
0.61365 0.47520 0.95235
0.75850 0.50764 0.95511
0.87004 0.52003 0.96168
0.95903 0.56334 0.95442
1.00000 0.58536 0.94791
0.35104 0.61734 0.89306
0.40197 0.62067 0.89596
0.51373 0.63414 0.90078
0.63934 0.64170 0.91299
0.75507 0.65063 0.92112
0.85815 0.65965 0.93002
0.94729 0.66605 0.93502
1.00000 0.68175 0.92917
0.33183 0.71713 0.87435
0.38354 0.71916 0.87742
0.48859 0.72418 0.88474
0.61984 0.73344 0.89639
0.74168 0.74114 0.90735
0.84429 0.74555 0.91693
0.93467 0.75381 0.92128
1.00000 0.75754 0.92132
0.27756 0.80733 0.86083
0.33946 0.80876 0.86444
0.45443 0.81215 0.87271
0.58973 0.81695 0.88458
0.71908 0.82272 0.89573
0.82902 0.82815 0.90490
0.92016 0.83247 0.91012
0.99503 0.83574 0.91299
0.21361 0.88657 0.85075
0.29065 0.88783 0.85448
0.42012 0.89068 0.86306
0.56353 0.89456 0.87537
0.69694 0.89834 0.88743
0.81043 0.90137 0.89786
0.90456 0.90469 0.90432
0.98248 0.90771 0.90816
0.17044 0.95139 0.84544
0.26022 0.95217 0.84933
0.39792 0.95395 0.85813
0.54407 0.95693 0.87003
0.67888 0.96101 0.88161
0.79386 0.96196 0.89303
0.88803 0.96558 0.89879
0.96731 0.96795 0.90339
0.16068 0.22268 1.00000
0.22755 0.22138 1.00000
0.38062 0.23170 1.00000
0.56746 0.25073 1.00000
0.73818 0.28481 1.00000
0.87102 0.31567 1.00000
0.96968 0.38687 1.00000
1.00000 0.45115 1.00000
0.17330 0.29812 1.00000
0.25065 0.30057 1.00000
0.40514 0.31043 1.00000
0.58314 0.32679 1.00000
0.74619 0.35821 1.00000
0.87234 0.38647 1.00000
0.96829 0.44358 1.00000
1.00000 0.50566 1.00000
0.22523 0.45484 0.98635
0.30428 0.46079 0.99231
0.45301 0.47430 1.00000
0.61395 0.48667 1.00000
0.75688 0.51085 1.00000
0.87129 0.53352 1.00000
0.96096 0.56503 1.00000
1.00000 0.61321 1.00000
0.37484 0.63200 0.96073
0.42822 0.63646 0.96419
0.53674 0.65033 0.97339
0.65739 0.66157 0.98519
0.76347 0.66730 0.99473
0.86617 0.68812 0.99807
0.94943 0.69004 1.00000
1.00000 0.70854 0.99626
0.44813 0.74656 0.94407
0.48336 0.74835 0.94740
0.55649 0.75189 0.95498
0.66422 0.76286 0.96558
0.76492 0.76848 0.97660
0.85696 0.77450 0.98488
0.93890 0.78269 0.98822
1.00000 0.78374 0.98880
0.41516 0.82118 0.93306
0.45212 0.82255 0.93663
0.53233 0.82616 0.94527
0.63860 0.83136 0.95709
0.74736 0.83788 0.96576
0.84417 0.84412 0.97560
0.92552 0.84751 0.98053
0.99425 0.85153 0.98118
0.38346 0.89369 0.92159
0.42451 0.89485 0.92491
0.50945 0.89766 0.93259
0.61738 0.90152 0.94316
0.72699 0.90458 0.95345
0.82501 0.90827 0.96397
0.91021 0.91280 0.97226
0.98159 0.91446 0.97691
0.34911 0.95547 0.91119
0.39284 0.95672 0.91454
0.48165 0.95984 0.92248
0.59401 0.96331 0.93335
0.70522 0.96461 0.94214
0.80496 0.96676 0.95252
0.89372 0.96978 0.96221
0.97005 0.96995 0.96989
