cube lut/eterna_sRGB.cube
# sRGB
# github.com/abpy/FujifilmCameraProfiles
LUT_3D_SIZE 5
DOMAIN_MIN 0.000000 0.000000 0.000000
DOMAIN_MAX 0.903226 0.903226 0.903226
0.00000 0.00000 0.00000
0.24000 0.02387 0.01046
0.57871 0.05978 0.00000
0.84783 0.11650 0.00000
1.00000 0.18678 0.01952
0.00000 0.22201 0.01732
0.22646 0.23371 0.02236
0.58684 0.24066 0.01485
0.85808 0.23237 0.01733
1.00000 0.26226 0.07833
0.00000 0.54585 0.00000
0.00000 0.55506 0.00000
0.55363 0.57482 0.00928
0.83985 0.57759 0.00000
1.00000 0.53563 0.03418
0.00000 0.80107 0.08525
0.00000 0.80487 0.08760
0.46982 0.81040 0.16004
0.78405 0.81651 0.13259
0.96303 0.81366 0.00000
0.00000 0.94479 0.23708
0.00000 0.94691 0.23263
0.34923 0.95358 0.29473
0.73053 0.96038 0.30713
0.92565 0.96296 0.25957
0.02851 0.03361 0.25766
0.27267 0.07581 0.27471
0.59817 0.11299 0.28801
0.86067 0.13231 0.23981
1.00000 0.16571 0.19315
0.00000 0.25213 0.24450
0.26616 0.26540 0.26563
0.60220 0.29152 0.29787
0.86819 0.29665 0.26165
1.00000 0.28588 0.18390
0.00000 0.56379 0.25395
0.06285 0.57355 0.27076
0.57678 0.59026 0.30374
0.84202 0.60226 0.29620
1.00000 0.57632 0.17576
0.00000 0.80167 0.31465
0.00000 0.80496 0.32605
0.51067 0.81212 0.36084
0.79588 0.81838 0.35509
0.96861 0.82022 0.28638
0.00000 0.94374 0.37063
0.00000 0.94621 0.38400
0.41432 0.95286 0.42995
0.74758 0.95987 0.44042
0.93516 0.96280 0.41975
0.07704 0.08827 0.62181
0.30559 0.10893 0.64102
0.65357 0.18991 0.66628
0.89050 0.24543 0.65438
1.00000 0.28947 0.60091
0.17708 0.33683 0.59379
0.35504 0.35131 0.61055
0.65123 0.37451 0.63774
0.88101 0.40387 0.64502
1.00000 0.44069 0.62935
0.00000 0.60592 0.57793
0.26103 0.60789 0.59121
0.61936 0.61945 0.61889
0.85570 0.63173 0.63032
1.00000 0.63962 0.61873
0.00000 0.80662 0.57568
0.00000 0.81029 0.59115
0.56583 0.81947 0.62115
0.81474 0.82648 0.63987
0.98047 0.83278 0.63885
0.00000 0.94252 0.60416
0.00000 0.94577 0.61904
0.52415 0.95424 0.64937
0.78138 0.96055 0.67018
0.95099 0.96289 0.66835
0.12540 0.15364 0.88515
0.32788 0.16512 0.90566
0.66692 0.21881 0.93528
0.90525 0.32001 0.93014
1.00000 0.39278 0.89238
0.19316 0.37760 0.85170
0.39492 0.39912 0.87065
0.68606 0.43911 0.89012
0.89202 0.49203 0.88816
1.00000 0.52428 0.87579
0.25267 0.64694 0.81055
0.41212 0.65297 0.82011
0.66909 0.66859 0.84055
0.86816 0.68062 0.85493
1.00000 0.69132 0.85596
0.00000 0.82302 0.78510
0.32803 0.82647 0.79649
0.62193 0.83354 0.82066
0.83980 0.83989 0.83945
0.98860 0.84558 0.84518
0.00000 0.94895 0.77967
0.27663 0.95141 0.79107
0.58635 0.95669 0.81481
0.80817 0.96279 0.83697
0.96326 0.96600 0.84392
0.16068 0.22268 1.00000
0.33632 0.22786 1.00000
0.65639 0.26843 1.00000
0.89847 0.32924 1.00000
1.00000 0.45115 1.00000
0.20808 0.41084 0.99168
0.39602 0.42385 1.00000
0.68193 0.45119 1.00000
0.89689 0.49656 1.00000
1.00000 0.58511 1.00000
0.43790 0.69982 0.95151
0.53380 0.70714 0.95994
0.71942 0.72407 0.97906
0.88388 0.74048 0.99069
1.00000 0.74698 0.99256
0.40780 0.83956 0.93092
0.50284 0.84329 0.94041
0.68832 0.85159 0.95901
0.86130 0.86200 0.97444
0.99105 0.86741 0.97993
0.34911 0.95547 0.91119
0.45620 0.95887 0.92006
0.65108 0.96388 0.93790
0.82799 0.96748 0.95559
0.97005 0.96995 0.96989
