cube lut/nostalgic neg_sRGB.cube
# sRGB
# github.com/abpy/FujifilmCameraProfiles
LUT_3D_SIZE 8
DOMAIN_MIN 0.000000 0.000000 0.000000
DOMAIN_MAX 0.903226 0.903226 0.903226
0.01590 0.01602 0.01456
0.12866 0.01808 0.00531
0.34411 0.02094 0.00000
0.54919 0.02800 0.00000
0.75086 0.09440 0.00000
0.86520 0.17202 0.00000
0.92395 0.23117 0.00000
0.95066 0.27260 0.00000
0.00000 0.10522 0.00721
0.08882 0.10247 0.00179
0.32346 0.07794 0.00000
0.54180 0.07781 0.00000
0.75053 0.12623 0.00000
0.86994 0.19610 0.00000
0.93105 0.25101 0.00000
0.95457 0.28786 0.00000
0.00000 0.27705 0.00190
0.00000 0.27214 0.00000
0.26800 0.26313 0.00000
0.51696 0.26364 0.00000
0.74074 0.25930 0.00000
0.87912 0.27092 0.02941
0.95048 0.30602 0.06349
0.96585 0.33001 0.03863
0.00000 0.45012 0.12532
0.00000 0.44648 0.11821
0.13130 0.44744 0.04983
0.45839 0.45661 0.00000
0.72442 0.46816 0.00000
0.86023 0.46776 0.00000
0.95423 0.44980 0.03001
0.97588 0.43493 0.07898
0.00000 0.62120 0.25519
0.00000 0.62166 0.25251
0.00000 0.62278 0.23629
0.38688 0.63782 0.14792
0.65581 0.65332 0.00000
0.82663 0.65880 0.00000
0.93713 0.64445 0.00000
0.96609 0.62510 0.00000
0.08885 0.73939 0.39348
0.09974 0.73960 0.38778
0.19613 0.74023 0.39030
0.40905 0.75609 0.34718
0.61492 0.77974 0.24481
0.77266 0.79216 0.00000
0.88776 0.78343 0.00000
0.93440 0.78027 0.00000
0.32631 0.82790 0.51855
0.33185 0.82890 0.51380
0.36054 0.82886 0.51440
0.48102 0.83613 0.50362
0.64692 0.86211 0.45695
0.76625 0.87691 0.38098
0.86335 0.88166 0.24684
0.90498 0.88135 0.19012
0.42526 0.88094 0.59994
0.43136 0.88232 0.59616
0.45317 0.88496 0.59565
0.55511 0.89602 0.60763
0.69443 0.92085 0.61419
0.79654 0.94096 0.58556
0.87459 0.95119 0.55473
0.91296 0.95203 0.49649
0.01813 0.01013 0.18131
0.14896 0.02068 0.12546
0.34138 0.01863 0.03905
0.54939 0.01897 0.02613
0.76117 0.08441 0.02014
0.87402 0.16613 0.01763
0.92901 0.22834 0.01461
0.95354 0.27083 0.00000
0.00000 0.10419 0.12571
0.10758 0.10166 0.10286
0.32317 0.08945 0.04869
0.53646 0.09983 0.02152
0.75690 0.13556 0.02057
0.87942 0.19419 0.03938
0.93782 0.24912 0.05161
0.95794 0.28562 0.02372
0.00000 0.27156 0.09338
0.00000 0.27133 0.07806
0.28046 0.27259 0.04320
0.51587 0.28400 0.03742
0.74163 0.28940 0.00000
0.87967 0.29387 0.02776
0.95713 0.31382 0.09263
0.97059 0.33402 0.09120
0.00000 0.44904 0.17872
0.00000 0.44797 0.16888
0.16019 0.45420 0.10932
0.47093 0.46490 0.00000
0.72339 0.47758 0.00000
0.86022 0.48213 0.00000
0.95348 0.46612 0.00730
0.97587 0.45103 0.07009
0.00000 0.62089 0.28444
0.00000 0.62059 0.28282
0.05823 0.62559 0.25373
0.40166 0.64081 0.18156
0.66238 0.65450 0.00000
0.82727 0.66256 0.00000
0.93735 0.65252 0.00000
0.96641 0.63600 0.00000
0.07206 0.73730 0.41549
0.08463 0.73723 0.41196
0.21195 0.73982 0.40659
0.41982 0.75713 0.36458
0.62290 0.78067 0.27693
0.77738 0.79347 0.10318
0.89040 0.78879 0.00383
0.93682 0.78669 0.03616
0.31760 0.82448 0.53419
0.32399 0.82524 0.52842
0.35911 0.82420 0.52630
0.48519 0.83468 0.51391
0.65517 0.86526 0.48130
0.77217 0.87924 0.41038
0.86835 0.88677 0.28582
0.90872 0.88544 0.24029
0.41902 0.87812 0.61302
0.42553 0.87960 0.60905
0.45548 0.88328 0.60928
0.56118 0.89620 0.62037
0.70017 0.92216 0.62746
0.79979 0.94181 0.59891
0.87803 0.95326 0.57238
0.91687 0.95558 0.51781
0.01052 0.01383 0.42393
0.11854 0.01356 0.38707
0.36553 0.03958 0.28475
0.57364 0.07428 0.23618
0.78946 0.11201 0.20186
0.90531 0.20113 0.19580
0.95206 0.25541 0.17225
0.96537 0.28227 0.14812
0.00000 0.12543 0.36041
0.11867 0.13404 0.34022
0.35422 0.15920 0.28874
0.55767 0.17698 0.25229
0.77694 0.20667 0.22782
0.90655 0.25380 0.20746
0.96156 0.29405 0.18511
0.97197 0.30838 0.16112
0.00000 0.29664 0.34703
0.00000 0.30015 0.33220
0.32849 0.31868 0.30908
0.54273 0.32032 0.27128
0.76146 0.33574 0.24445
0.90024 0.35625 0.21768
0.96974 0.37429 0.18182
0.98113 0.38115 0.16078
0.00000 0.46744 0.35180
0.00000 0.46875 0.33956
0.19153 0.47936 0.30561
0.50636 0.48937 0.28580
0.73110 0.50131 0.26899
0.87630 0.50960 0.23530
0.96615 0.51440 0.20231
0.98302 0.50350 0.16118
0.00000 0.62638 0.41246
0.00000 0.62734 0.40538
0.10181 0.63516 0.37505
0.43458 0.65210 0.32864
0.68097 0.66298 0.28701
0.83923 0.67284 0.26657
0.94525 0.67440 0.22287
0.97415 0.66288 0.16523
0.00540 0.73500 0.49817
0.09506 0.73602 0.49504
0.25906 0.74318 0.48081
0.44654 0.76186 0.44699
0.64442 0.78370 0.38717
0.79436 0.79659 0.31661
0.90560 0.80158 0.29778
0.94877 0.79907 0.26589
0.29423 0.81621 0.58091
0.30984 0.81668 0.57871
0.37663 0.82135 0.57566
0.50935 0.83766 0.56402
0.67141 0.86949 0.54610
0.78655 0.88261 0.48901
0.88230 0.89605 0.40505
0.92440 0.89464 0.38782
0.39755 0.87108 0.64853
0.41033 0.87305 0.64756
0.46917 0.88108 0.65166
0.58193 0.89873 0.66054
0.71374 0.92494 0.66545
0.80873 0.94372 0.64021
0.88749 0.95813 0.62339
0.92734 0.96266 0.57616
0.01702 0.05667 0.67546
0.11172 0.05617 0.65425
0.40856 0.09174 0.58297
0.62210 0.14861 0.49043
0.81816 0.19469 0.44493
0.93058 0.26054 0.42014
0.98215 0.32350 0.39403
0.99588 0.36267 0.38435
0.00000 0.18483 0.63725
0.12544 0.19357 0.60389
0.39445 0.21218 0.55134
0.60244 0.25241 0.48627
0.79964 0.28155 0.45309
0.92419 0.32320 0.43698
0.98597 0.37337 0.41999
1.00000 0.40361 0.40669
0.00000 0.34157 0.58292
0.00000 0.34458 0.56333
0.35904 0.35981 0.53570
0.58741 0.37794 0.49828
0.78365 0.38872 0.46504
0.91545 0.41167 0.44700
0.98755 0.45065 0.43842
1.00000 0.47329 0.42595
0.00000 0.50075 0.56153
0.00000 0.50353 0.54972
0.25270 0.51428 0.53061
0.55241 0.53216 0.51636
0.75632 0.53370 0.48161
0.89428 0.54079 0.46120
0.98186 0.55668 0.44566
1.00000 0.56729 0.43171
0.00000 0.63917 0.56009
0.00000 0.64187 0.55403
0.17299 0.65393 0.54097
0.48094 0.67371 0.52383
0.71182 0.68474 0.50383
0.85870 0.68858 0.48250
0.95932 0.69519 0.46744
0.99372 0.69609 0.45272
0.05997 0.73964 0.60302
0.14447 0.74177 0.60018
0.29255 0.75103 0.59194
0.47737 0.77081 0.57634
0.67549 0.79362 0.54951
0.82020 0.80351 0.51872
0.92688 0.81466 0.50605
0.96707 0.81176 0.48198
0.29652 0.81441 0.65782
0.32584 0.81710 0.65790
0.41106 0.82632 0.65744
0.54240 0.84631 0.65249
0.68798 0.87190 0.64021
0.80785 0.88838 0.60894
0.90347 0.90429 0.57511
0.94818 0.90324 0.56058
0.42985 0.87331 0.71169
0.45087 0.87719 0.71356
0.51131 0.88774 0.71862
0.61516 0.90633 0.72610
0.73032 0.92790 0.72679
0.82560 0.94868 0.71628
0.90331 0.96385 0.70950
0.94258 0.96597 0.66369
0.19518 0.18171 0.79293
0.21322 0.17799 0.78208
0.38845 0.19728 0.73760
0.63295 0.24564 0.69617
0.81336 0.30733 0.64185
0.92856 0.34975 0.61349
0.99314 0.39268 0.59397
1.00000 0.41921 0.57971
0.08642 0.25277 0.79703
0.16253 0.25706 0.78324
0.39013 0.27016 0.74284
0.62990 0.30909 0.69507
0.80940 0.36457 0.63902
0.92603 0.39731 0.61491
0.99359 0.43496 0.60095
1.00000 0.46131 0.59148
0.00000 0.41272 0.76552
0.14126 0.41602 0.75099
0.39447 0.42556 0.72286
0.61706 0.44801 0.68430
0.79949 0.46410 0.64527
0.91990 0.48397 0.62612
0.99293 0.51034 0.61487
1.00000 0.53624 0.60475
0.00000 0.54278 0.74126
0.00000 0.54525 0.73109
0.30673 0.55320 0.71285
0.57639 0.57137 0.69155
0.77846 0.58620 0.66394
0.90304 0.59341 0.64286
0.98938 0.60258 0.62351
1.00000 0.61903 0.61654
0.00000 0.66418 0.70077
0.00000 0.66740 0.69692
0.26010 0.67827 0.69390
0.52182 0.69785 0.69150
0.74283 0.71583 0.68121
0.87856 0.71618 0.65995
0.97202 0.72173 0.64152
1.00000 0.72470 0.63361
0.16373 0.75274 0.70637
0.22036 0.75593 0.70479
0.34048 0.76618 0.70322
0.51528 0.78650 0.70272
0.70587 0.80883 0.69602
0.84550 0.81916 0.68065
0.94416 0.82713 0.66749
0.98306 0.82627 0.65614
0.34116 0.82299 0.73506
0.37101 0.82683 0.73546
0.44792 0.83756 0.73726
0.57002 0.85680 0.74094
0.70841 0.87952 0.73935
0.83102 0.90053 0.73014
0.92412 0.91128 0.71423
0.96640 0.90994 0.69593
0.45371 0.87648 0.77066
0.47845 0.88152 0.77305
0.54038 0.89356 0.77896
0.63716 0.91120 0.78746
0.74658 0.93275 0.79484
0.84164 0.95451 0.79572
0.91737 0.96682 0.78466
0.95723 0.96725 0.75368
0.22712 0.30162 0.86839
0.23288 0.30688 0.86954
0.28659 0.31334 0.86259
0.51977 0.34954 0.84899
0.75299 0.42092 0.82701
0.88917 0.48572 0.80736
0.96601 0.52392 0.79040
1.00000 0.50485 0.72809
0.17318 0.36892 0.89042
0.18449 0.37379 0.88956
0.29280 0.37925 0.87879
0.55068 0.41101 0.85691
0.76428 0.45936 0.82410
0.89364 0.51616 0.80025
0.97240 0.54934 0.78020
1.00000 0.53543 0.72712
0.00813 0.47544 0.88036
0.16742 0.48213 0.87497
0.38289 0.49535 0.86453
0.59951 0.51884 0.84222
0.78363 0.54841 0.80979
0.89938 0.58194 0.79097
0.98661 0.59091 0.75554
1.00000 0.60806 0.74379
0.00000 0.59629 0.84968
0.15049 0.60036 0.84764
0.37728 0.61134 0.84144
0.60967 0.62598 0.82211
0.78253 0.64823 0.80569
0.89891 0.66517 0.79340
0.98648 0.66550 0.76113
1.00000 0.68505 0.76248
0.00000 0.69274 0.82185
0.14023 0.69685 0.82118
0.34432 0.70733 0.82102
0.56320 0.72518 0.82001
0.75875 0.74435 0.81331
0.88971 0.75257 0.79545
0.97519 0.76048 0.78168
1.00000 0.76477 0.77871
0.25160 0.77008 0.80038
0.30088 0.77426 0.80065
0.40800 0.78610 0.80439
0.56304 0.80710 0.81221
0.73182 0.82847 0.81619
0.86403 0.84064 0.80840
0.95690 0.84643 0.79728
0.99320 0.84728 0.78748
0.38938 0.83371 0.80811
0.42107 0.83893 0.80928
0.49610 0.85142 0.81366
0.60777 0.86995 0.82290
0.73622 0.89418 0.83232
0.84687 0.91335 0.82923
0.93675 0.92089 0.81835
0.97896 0.92081 0.80467
0.48439 0.88112 0.82701
0.51166 0.88741 0.82942
0.57249 0.90038 0.83542
0.66169 0.91746 0.84532
0.76505 0.93874 0.85688
0.85461 0.95845 0.86216
0.92779 0.96865 0.85188
0.96851 0.97165 0.83370
0.21298 0.33977 0.88304
0.22256 0.33822 0.88118
0.30245 0.34790 0.87752
0.53049 0.38811 0.86735
0.75070 0.45519 0.85808
0.87586 0.52431 0.85894
0.95263 0.57772 0.85582
0.97917 0.61076 0.84800
0.15957 0.40359 0.90188
0.18215 0.40219 0.90014
0.31084 0.40932 0.89493
0.54663 0.44378 0.88397
0.75693 0.50220 0.87276
0.87606 0.56022 0.87069
0.95498 0.60869 0.86261
0.98269 0.64280 0.85736
0.05453 0.52245 0.91563
0.14999 0.52686 0.91677
0.34396 0.54075 0.92132
0.56865 0.56078 0.92122
0.76419 0.60952 0.90915
0.87728 0.64099 0.89750
0.95984 0.67337 0.87607
0.98923 0.69492 0.87307
0.18650 0.65262 0.92491
0.26469 0.65638 0.92737
0.42764 0.67073 0.93312
0.61568 0.68626 0.93370
0.77462 0.70850 0.92732
0.88843 0.72813 0.90587
0.96435 0.73903 0.88773
0.99507 0.75729 0.88963
0.22056 0.72626 0.91516
0.28384 0.73003 0.91784
0.41759 0.74038 0.92495
0.60063 0.76049 0.93196
0.76554 0.78064 0.93421
0.88667 0.79199 0.91173
0.96557 0.80468 0.89955
0.99688 0.81279 0.89676
0.33021 0.79128 0.89069
0.36918 0.79549 0.89427
0.46140 0.80674 0.90369
0.60133 0.82608 0.91504
0.75324 0.84883 0.92022
0.87446 0.86345 0.91692
0.96172 0.87093 0.91305
0.99618 0.87275 0.89383
0.44924 0.85068 0.88034
0.47790 0.85517 0.88245
0.54534 0.86654 0.88927
0.64528 0.88564 0.90261
0.76079 0.90868 0.91630
0.86415 0.92554 0.91971
0.95106 0.93566 0.91264
0.98714 0.93217 0.89926
0.51024 0.88380 0.88265
0.53454 0.88922 0.88484
0.59305 0.90211 0.89112
0.68135 0.92164 0.90288
0.78078 0.94444 0.91776
0.86607 0.96091 0.92584
0.93674 0.97320 0.91834
0.97625 0.97401 0.90423
0.20132 0.36938 0.89110
0.22798 0.36734 0.88876
0.33916 0.37847 0.88407
0.56559 0.41632 0.87220
0.76660 0.47295 0.85817
0.87969 0.52094 0.85151
0.95761 0.57808 0.84893
0.97621 0.62707 0.86279
0.17042 0.42070 0.90387
0.21424 0.42100 0.90208
0.35421 0.43107 0.89800
0.58023 0.46327 0.88687
0.77360 0.51412 0.87105
0.88205 0.56060 0.86468
0.95905 0.60999 0.86055
0.97917 0.65925 0.87561
0.14266 0.52880 0.91586
0.22143 0.53331 0.91714
0.39638 0.54733 0.92202
0.60802 0.57246 0.91926
0.78359 0.61332 0.90722
0.88951 0.65155 0.89710
0.96071 0.68435 0.89071
0.98557 0.72650 0.90298
0.27519 0.66359 0.93204
0.34364 0.66940 0.93558
0.49412 0.68837 0.94549
0.66383 0.71034 0.95166
0.79447 0.72850 0.94652
0.89890 0.75928 0.93713
0.96391 0.76878 0.92466
0.99150 0.79026 0.92677
0.40898 0.75942 0.94472
0.44961 0.76332 0.94844
0.53929 0.77252 0.95613
0.67923 0.79350 0.96475
0.79982 0.81039 0.96708
0.89574 0.82494 0.96018
0.96583 0.83692 0.95068
0.99453 0.84280 0.94269
0.44277 0.81565 0.93632
0.47258 0.81960 0.94074
0.54544 0.82978 0.95114
0.65980 0.84658 0.96343
0.78598 0.86658 0.97078
0.88640 0.87989 0.97066
0.95999 0.88679 0.96585
0.99301 0.89162 0.95549
0.51935 0.86668 0.92475
0.54269 0.87085 0.92873
0.59927 0.88108 0.93859
0.68602 0.89712 0.95334
0.78534 0.91536 0.96881
0.87625 0.92939 0.97690
0.95133 0.93616 0.97022
0.98827 0.93663 0.96388
0.56450 0.89626 0.91939
0.58594 0.90044 0.92272
0.63752 0.91078 0.93127
0.71290 0.92690 0.94471
0.79221 0.94495 0.95876
0.86841 0.96007 0.96946
0.93654 0.97017 0.96751
0.98037 0.96986 0.95848
