cube lut/nostalgic neg_DisplayP3.cube
# DisplayP3
# github.com/abpy/FujifilmCameraProfiles
LUT_3D_SIZE 32
0.01592 0.01601 0.01469
0.03305 0.01655 0.01301
0.05337 0.01781 0.00956
0.08914 0.01938 0.00920
0.14325 0.02526 0.01007
0.20139 0.03446 0.01094
0.25827 0.04313 0.01142
0.30525 0.05128 0.01178
0.34929 0.05949 0.01167
0.39703 0.06982 0.01257
0.45033 0.08357 0.01657
0.50983 0.09917 0.02227
0.56610 0.11555 0.03065
0.61721 0.13381 0.04234
0.66301 0.15420 0.05375
0.70168 0.17346 0.06075
0.73478 0.19200 0.06475
0.76284 0.20957 0.06778
0.78437 0.22254 0.06790
0.80079 0.23295 0.06515
0.81409 0.24284 0.06073
0.82778 0.25557 0.05936
0.84197 0.27110 0.06240
0.85425 0.28533 0.06338
0.86253 0.29503 0.05629
0.86713 0.30010 0.03756
0.86884 0.30173 0.00840
0.86945 0.30223 0.00000
0.86987 0.30299 0.00000
0.87058 0.30480 0.00000
0.87271 0.30963 0.00000
0.87970 0.32402 0.00000
0.00353 0.03477 0.01204
0.02655 0.02967 0.01132
0.04385 0.03241 0.00775
0.08073 0.03042 0.00630
0.13502 0.03555 0.00655
0.19460 0.04511 0.00871
0.25331 0.05212 0.01027
0.30099 0.05959 0.01035
0.34569 0.06744 0.01034
0.39394 0.07722 0.01164
0.44760 0.09000 0.01591
0.50767 0.10520 0.02155
0.56466 0.12119 0.03012
0.61632 0.13890 0.04231
0.66257 0.15893 0.05402
0.70140 0.17798 0.06101
0.73463 0.19645 0.06495
0.76297 0.21386 0.06818
0.78484 0.22675 0.06862
0.80153 0.23710 0.06622
0.81498 0.24689 0.06215
0.82871 0.25939 0.06100
0.84286 0.27455 0.06428
0.85506 0.28848 0.06540
0.86325 0.29799 0.05855
0.86777 0.30297 0.04050
0.86941 0.30453 0.01150
0.86996 0.30500 0.00000
0.87033 0.30576 0.00000
0.87099 0.30757 0.00000
0.87305 0.31238 0.00000
0.87994 0.32683 0.00000
0.00000 0.05662 0.01294
0.01497 0.04838 0.01087
0.03517 0.04962 0.00895
0.07329 0.04946 0.00734
0.12608 0.04940 0.00572
0.18859 0.05521 0.00862
0.24801 0.05856 0.01175
0.29619 0.06549 0.01150
0.34125 0.07344 0.01170
0.38999 0.08305 0.01338
0.44400 0.09547 0.01733
0.50465 0.11080 0.02262
0.56256 0.12670 0.03129
0.61497 0.14398 0.04381
0.66184 0.16380 0.05546
0.70093 0.18276 0.06226
0.73436 0.20122 0.06605
0.76305 0.21855 0.06938
0.78535 0.23140 0.07013
0.80239 0.24175 0.06812
0.81604 0.25146 0.06443
0.82981 0.26370 0.06348
0.84390 0.27846 0.06691
0.85601 0.29206 0.06815
0.86409 0.30135 0.06153
0.86852 0.30623 0.04428
0.87008 0.30772 0.01556
0.87057 0.30816 0.00000
0.87088 0.30892 0.00000
0.87147 0.31072 0.00000
0.87344 0.31551 0.00000
0.88023 0.33003 0.00000
0.00000 0.08441 0.01764
0.00000 0.07449 0.01007
0.01643 0.07404 0.00865
0.05815 0.07300 0.00876
0.11291 0.07099 0.00816
0.17591 0.07455 0.01066
0.23958 0.07175 0.01266
0.29013 0.07507 0.01250
0.33608 0.08121 0.01393
0.38484 0.08938 0.01780
0.43883 0.10130 0.02148
0.50001 0.11702 0.02639
0.55918 0.13294 0.03529
0.61270 0.14984 0.04786
0.66055 0.16971 0.05893
0.70009 0.18881 0.06534
0.73381 0.20742 0.06892
0.76305 0.22477 0.07223
0.78605 0.23773 0.07335
0.80363 0.24818 0.07187
0.81760 0.25785 0.06871
0.83143 0.26978 0.06793
0.84544 0.28398 0.07146
0.85742 0.29712 0.07277
0.86532 0.30613 0.06644
0.86963 0.31089 0.05026
0.87107 0.31227 0.02233
0.87146 0.31267 0.00000
0.87169 0.31345 0.00000
0.87219 0.31524 0.00000
0.87404 0.31999 0.00000
0.88066 0.33459 0.00000
0.00000 0.12146 0.02289
0.00000 0.10940 0.01324
0.00000 0.10528 0.01135
0.02123 0.10618 0.01008
0.08910 0.10161 0.01023
0.15822 0.10279 0.01194
0.22339 0.09711 0.01419
0.27927 0.09431 0.01527
0.32761 0.09686 0.01767
0.37892 0.10116 0.02271
0.43370 0.11059 0.02605
0.49469 0.12526 0.03195
0.55462 0.14012 0.04250
0.60940 0.15610 0.05514
0.65862 0.17625 0.06504
0.69880 0.19567 0.07083
0.73291 0.21445 0.07429
0.76288 0.23208 0.07737
0.78687 0.24541 0.07889
0.80525 0.25617 0.07809
0.81971 0.26593 0.07562
0.83365 0.27757 0.07502
0.84755 0.29111 0.07854
0.85934 0.30371 0.07983
0.86702 0.31238 0.07382
0.87116 0.31700 0.05892
0.87245 0.31828 0.03295
0.87271 0.31863 0.00020
0.87283 0.31944 0.00000
0.87321 0.32123 0.00000
0.87488 0.32592 0.00000
0.88126 0.34060 0.00000
0.00000 0.16508 0.03156
0.00000 0.15936 0.01891
0.00000 0.15570 0.01365
0.00000 0.15161 0.01239
0.04092 0.14565 0.01180
0.13309 0.13663 0.01342
0.19986 0.13157 0.01574
0.26559 0.12528 0.01896
0.31557 0.12518 0.02294
0.37045 0.12661 0.02999
0.42686 0.13168 0.03198
0.48873 0.14069 0.03778
0.54972 0.15181 0.04924
0.60568 0.16486 0.06314
0.65629 0.18452 0.07246
0.69716 0.20378 0.07839
0.73164 0.22221 0.08250
0.76250 0.24021 0.08516
0.78778 0.25406 0.08705
0.80722 0.26530 0.08700
0.82234 0.27533 0.08533
0.83646 0.28676 0.08488
0.85025 0.29962 0.08829
0.86181 0.31165 0.08951
0.86921 0.31998 0.08384
0.87314 0.32450 0.07032
0.87425 0.32571 0.04804
0.87436 0.32604 0.01571
0.87434 0.32690 0.00000
0.87457 0.32872 0.00000
0.87601 0.33333 0.00000
0.88206 0.34805 0.00000
0.00000 0.20514 0.04649
0.00000 0.19991 0.03071
0.00000 0.19499 0.02170
0.00000 0.19060 0.01730
0.00000 0.18530 0.01586
0.07405 0.17993 0.01574
0.16982 0.17136 0.01789
0.24823 0.16797 0.02293
0.30670 0.16633 0.02827
0.36148 0.16657 0.03604
0.41759 0.16846 0.03831
0.47913 0.17110 0.04670
0.54249 0.17607 0.05762
0.60117 0.18223 0.06990
0.65365 0.19817 0.07836
0.69534 0.21537 0.08533
0.73014 0.23190 0.09148
0.76192 0.24979 0.09453
0.78879 0.26405 0.09740
0.80957 0.27569 0.09850
0.82556 0.28596 0.09781
0.83993 0.29718 0.09747
0.85356 0.30931 0.10060
0.86484 0.32072 0.10167
0.87191 0.32874 0.09630
0.87559 0.33321 0.08408
0.87649 0.33440 0.06513
0.87643 0.33477 0.03707
0.87627 0.33575 0.00078
0.87632 0.33764 0.00000
0.87748 0.34217 0.00000
0.88310 0.35685 0.00000
0.00000 0.24681 0.06759
0.00000 0.24209 0.05239
0.00000 0.23703 0.03882
0.00000 0.23225 0.02938
0.00000 0.22813 0.02613
0.00000 0.22496 0.02310
0.11608 0.21930 0.02245
0.21486 0.21466 0.02507
0.29500 0.21449 0.03328
0.35548 0.21587 0.04201
0.40901 0.21335 0.04502
0.46743 0.21390 0.05450
0.53196 0.21685 0.06579
0.59391 0.21752 0.07592
0.64918 0.22391 0.08406
0.69283 0.23435 0.09134
0.72824 0.24659 0.09890
0.76108 0.26285 0.10307
0.78976 0.27655 0.10754
0.81219 0.28801 0.11065
0.82940 0.29832 0.11188
0.84423 0.30924 0.11230
0.85767 0.32044 0.11533
0.86857 0.33103 0.11622
0.87518 0.33861 0.11102
0.87854 0.34302 0.09986
0.87920 0.34423 0.08348
0.87894 0.34465 0.06136
0.87861 0.34583 0.02813
0.87848 0.34786 0.00000
0.87934 0.35231 0.00000
0.88439 0.36684 0.00000
0.00000 0.29109 0.09505
0.00000 0.28741 0.08261
0.00000 0.28323 0.07021
0.00000 0.27827 0.05757
0.00000 0.27396 0.04981
0.00000 0.27091 0.04418
0.05642 0.26644 0.03628
0.16954 0.26360 0.03232
0.26367 0.26128 0.03604
0.34275 0.26257 0.04559
0.40506 0.26248 0.05392
0.45860 0.26115 0.06149
0.52081 0.26321 0.07209
0.58382 0.26219 0.08002
0.64170 0.26354 0.08864
0.68866 0.26718 0.09820
0.72538 0.27223 0.10678
0.75967 0.28279 0.11113
0.79033 0.29376 0.11619
0.81469 0.30395 0.12137
0.83353 0.31353 0.12507
0.84921 0.32363 0.12707
0.86259 0.33357 0.13081
0.87312 0.34307 0.13220
0.87917 0.35000 0.12752
0.88211 0.35420 0.11742
0.88246 0.35534 0.10302
0.88196 0.35575 0.08473
0.88143 0.35710 0.05977
0.88109 0.35928 0.02088
0.88160 0.36365 0.00000
0.88598 0.37783 0.00000
0.00000 0.33593 0.12531
0.00000 0.33327 0.11585
0.00000 0.33015 0.10631
0.00000 0.32593 0.09550
0.00000 0.32140 0.08738
0.00000 0.31567 0.08085
0.02494 0.31338 0.06974
0.12748 0.31069 0.05649
0.22408 0.31003 0.04802
0.31201 0.30908 0.05058
0.39134 0.31070 0.05976
0.45456 0.31207 0.06834
0.51370 0.31196 0.07782
0.57253 0.31056 0.08418
0.63172 0.31081 0.09281
0.68298 0.31095 0.10352
0.72185 0.31146 0.11363
0.75741 0.31569 0.11947
0.79021 0.32058 0.12569
0.81674 0.32631 0.13139
0.83733 0.33324 0.13637
0.85434 0.34177 0.14009
0.86801 0.34991 0.14502
0.87827 0.35762 0.14739
0.88376 0.36343 0.14372
0.88628 0.36717 0.13517
0.88634 0.36817 0.12287
0.88558 0.36844 0.10764
0.88482 0.36989 0.08783
0.88422 0.37213 0.05971
0.88435 0.37631 0.01352
0.88792 0.38981 0.00000
0.00000 0.37964 0.15448
0.00000 0.37776 0.14688
0.00000 0.37551 0.13909
0.00000 0.37220 0.12975
0.00000 0.36812 0.12123
0.00000 0.36221 0.11547
0.02812 0.35893 0.10964
0.10385 0.35619 0.09563
0.19156 0.35639 0.07456
0.27414 0.35716 0.06444
0.35662 0.35706 0.06449
0.43715 0.36008 0.07346
0.50968 0.36260 0.08364
0.56670 0.36101 0.09078
0.62290 0.36010 0.09803
0.67574 0.36136 0.10847
0.71843 0.35983 0.11830
0.75445 0.35964 0.12420
0.78844 0.35979 0.13361
0.81763 0.36037 0.14183
0.84065 0.36191 0.14805
0.85916 0.36601 0.15206
0.87329 0.37080 0.15706
0.88358 0.37605 0.16043
0.88870 0.38018 0.15808
0.89084 0.38278 0.15120
0.89062 0.38317 0.14092
0.88967 0.38308 0.12854
0.88876 0.38456 0.11267
0.88794 0.38682 0.09133
0.88767 0.39072 0.05929
0.89031 0.40310 0.00729
0.00000 0.42151 0.18228
0.00000 0.42008 0.17571
0.00000 0.41836 0.16882
0.00000 0.41581 0.16020
0.01650 0.41243 0.15138
0.02903 0.40868 0.14519
0.03878 0.40274 0.14091
0.09126 0.39960 0.13287
0.16497 0.39974 0.11701
0.24345 0.40221 0.09495
0.32194 0.40430 0.07940
0.40133 0.40431 0.07876
0.48720 0.41084 0.08783
0.56033 0.41012 0.09776
0.61892 0.41068 0.10520
0.67055 0.41382 0.11468
0.71374 0.41300 0.12192
0.75142 0.41060 0.12761
0.78547 0.40823 0.13833
0.81574 0.40437 0.14800
0.84164 0.40183 0.15686
0.86305 0.40086 0.16321
0.87839 0.40027 0.16859
0.88886 0.40067 0.17210
0.89357 0.40151 0.17004
0.89548 0.40223 0.16461
0.89511 0.40156 0.15631
0.89405 0.40056 0.14641
0.89301 0.40160 0.13356
0.89205 0.40360 0.11670
0.89149 0.40722 0.09329
0.89320 0.41814 0.05582
0.00000 0.46238 0.21028
0.00000 0.46114 0.20441
0.00737 0.45961 0.19809
0.02557 0.45729 0.18987
0.04557 0.45409 0.18079
0.05875 0.45043 0.17329
0.06514 0.44667 0.16934
0.08600 0.44169 0.16586
0.14668 0.44085 0.15586
0.21973 0.44278 0.13760
0.29327 0.44614 0.11400
0.36902 0.44916 0.09291
0.44993 0.45262 0.09405
0.53764 0.45881 0.10230
0.61156 0.46039 0.11290
0.67020 0.46492 0.12168
0.71297 0.46512 0.12736
0.74986 0.46220 0.13162
0.78327 0.46082 0.14204
0.81304 0.45601 0.15147
0.83988 0.44920 0.16083
0.86423 0.44434 0.16908
0.88165 0.43970 0.17637
0.89360 0.43513 0.18236
0.89864 0.43125 0.18144
0.90026 0.42792 0.17666
0.89954 0.42445 0.16900
0.89837 0.42175 0.16083
0.89735 0.42198 0.15056
0.89634 0.42331 0.13708
0.89559 0.42630 0.11882
0.89648 0.43536 0.09028
0.02594 0.50354 0.24005
0.03704 0.50258 0.23483
0.04864 0.50139 0.22912
0.06192 0.49950 0.22147
0.07523 0.49680 0.21256
0.08608 0.49349 0.20417
0.09192 0.49039 0.19913
0.09787 0.48705 0.19803
0.13499 0.48399 0.19334
0.20296 0.48551 0.18062
0.27282 0.48935 0.16253
0.34436 0.49389 0.13711
0.42117 0.49814 0.11437
0.50442 0.50432 0.11153
0.59006 0.50971 0.11772
0.65928 0.51393 0.12875
0.71007 0.51552 0.13419
0.74843 0.51462 0.13762
0.78488 0.51178 0.14686
0.81231 0.50816 0.15525
0.83840 0.50171 0.16280
0.86341 0.49411 0.17174
0.88228 0.48543 0.17934
0.89576 0.47727 0.18752
0.90273 0.47057 0.18992
0.90509 0.46347 0.18765
0.90422 0.45575 0.18118
0.90275 0.44911 0.17373
0.90152 0.44664 0.16440
0.90047 0.44640 0.15303
0.89967 0.44860 0.13852
0.89996 0.45559 0.11534
0.08030 0.54470 0.27205
0.08599 0.54417 0.26755
0.09186 0.54347 0.26256
0.09923 0.54231 0.25573
0.10735 0.54050 0.24741
0.11501 0.53800 0.23872
0.12048 0.53528 0.23207
0.12337 0.53329 0.22982
0.13743 0.53051 0.22970
0.19041 0.52996 0.22193
0.25955 0.53385 0.20755
0.32744 0.53906 0.18877
0.39944 0.54396 0.16186
0.47704 0.55008 0.13977
0.55914 0.55584 0.13014
0.63600 0.56166 0.13277
0.69762 0.56511 0.14030
0.74181 0.56375 0.14486
0.78103 0.56340 0.15251
0.81360 0.55998 0.15887
0.83877 0.55378 0.16520
0.86305 0.54680 0.17329
0.88207 0.53701 0.18086
0.89582 0.52556 0.18965
0.90455 0.51581 0.19407
0.90861 0.50732 0.19469
0.90846 0.49729 0.19101
0.90709 0.48637 0.18569
0.90580 0.47945 0.17772
0.90456 0.47537 0.16741
0.90351 0.47485 0.15448
0.90330 0.47904 0.13434
0.12850 0.58442 0.30574
0.13213 0.58435 0.30201
0.13595 0.58419 0.29783
0.14085 0.58383 0.29204
0.14636 0.58313 0.28479
0.15170 0.58191 0.27670
0.15583 0.58021 0.26930
0.15813 0.57871 0.26511
0.16007 0.57771 0.26580
0.18906 0.57517 0.26293
0.25203 0.57773 0.25152
0.31747 0.58255 0.23512
0.38366 0.58824 0.21502
0.45579 0.59374 0.18814
0.53223 0.60049 0.16292
0.60698 0.60543 0.14896
0.67430 0.61166 0.14748
0.72761 0.61275 0.15116
0.76867 0.61098 0.15643
0.80526 0.60974 0.16267
0.83590 0.60469 0.16761
0.86254 0.59765 0.17495
0.88288 0.58954 0.18242
0.89654 0.57803 0.19122
0.90536 0.56641 0.19664
0.91079 0.55612 0.19905
0.91150 0.54508 0.19708
0.91046 0.53276 0.19415
0.90963 0.52244 0.18908
0.90854 0.51383 0.18119
0.90732 0.50869 0.17008
0.90658 0.50800 0.15182
0.17399 0.62111 0.33981
0.17693 0.62138 0.33681
0.18008 0.62164 0.33344
0.18421 0.62193 0.32875
0.18902 0.62213 0.32279
0.19395 0.62210 0.31593
0.19817 0.62166 0.30906
0.20092 0.62095 0.30406
0.20249 0.62051 0.30256
0.21012 0.61832 0.30258
0.25024 0.61698 0.29427
0.31190 0.62187 0.27955
0.37359 0.62764 0.26158
0.43961 0.63368 0.23797
0.51134 0.64072 0.21082
0.58275 0.64706 0.18248
0.64740 0.65148 0.16705
0.70596 0.65627 0.16014
0.75310 0.65639 0.16212
0.79198 0.65488 0.16696
0.82522 0.65128 0.17112
0.85563 0.64547 0.17654
0.88114 0.63727 0.18417
0.89868 0.62917 0.19340
0.90726 0.61735 0.19871
0.91288 0.60655 0.20222
0.91445 0.59580 0.20175
0.91315 0.58335 0.19971
0.91265 0.57193 0.19654
0.91197 0.56135 0.19186
0.91080 0.55197 0.18403
0.90977 0.54549 0.16905
0.21616 0.65399 0.37292
0.21883 0.65444 0.37051
0.22174 0.65493 0.36781
0.22565 0.65556 0.36403
0.23034 0.65625 0.35918
0.23539 0.65685 0.35345
0.24008 0.65713 0.34731
0.24348 0.65692 0.34188
0.24519 0.65646 0.33881
0.24730 0.65568 0.33857
0.26591 0.65356 0.33557
0.31381 0.65612 0.32408
0.37070 0.66209 0.30639
0.42883 0.66864 0.28620
0.49549 0.67558 0.25848
0.56377 0.68373 0.23052
0.62745 0.68900 0.20151
0.68339 0.69189 0.18463
0.73397 0.69565 0.17302
0.77737 0.69510 0.17378
0.81229 0.69238 0.17636
0.84416 0.68611 0.17980
0.87200 0.68054 0.18629
0.89586 0.67156 0.19446
0.90814 0.66369 0.20105
0.91482 0.65257 0.20474
0.91739 0.64286 0.20528
0.91640 0.63293 0.20411
0.91558 0.62244 0.20193
0.91514 0.61178 0.19881
0.91408 0.60100 0.19385
0.91272 0.59094 0.18348
0.25459 0.68322 0.40438
0.25710 0.68375 0.40243
0.25987 0.68433 0.40023
0.26364 0.68510 0.39714
0.26827 0.68598 0.39312
0.27343 0.68686 0.38828
0.27856 0.68753 0.38284
0.28279 0.68772 0.37740
0.28525 0.68741 0.37325
0.28649 0.68691 0.37157
0.29259 0.68553 0.37102
0.32345 0.68586 0.36543
0.37504 0.69177 0.35252
0.42796 0.69779 0.33215
0.48527 0.70481 0.30881
0.55053 0.71341 0.27937
0.61314 0.72213 0.25159
0.66652 0.72576 0.22017
0.71545 0.72786 0.20065
0.75904 0.72918 0.18458
0.79859 0.72789 0.18486
0.83118 0.72257 0.18533
0.86092 0.71596 0.18943
0.88699 0.71018 0.19707
0.90298 0.70185 0.20194
0.91411 0.69271 0.20707
0.91869 0.68360 0.20891
0.91842 0.67567 0.20735
0.91789 0.66670 0.20638
0.91754 0.65793 0.20392
0.91724 0.64960 0.20062
0.91561 0.63904 0.19361
0.28968 0.70949 0.43412
0.29206 0.71004 0.43252
0.29470 0.71063 0.43070
0.29832 0.71142 0.42812
0.30280 0.71235 0.42474
0.30788 0.71330 0.42058
0.31309 0.71408 0.41573
0.31771 0.71444 0.41049
0.32092 0.71423 0.40564
0.32258 0.71369 0.40257
0.32411 0.71278 0.40144
0.33995 0.71212 0.39984
0.38063 0.71597 0.39299
0.43188 0.72275 0.37790
0.48364 0.72921 0.35554
0.54009 0.73729 0.32980
0.60041 0.74672 0.29938
0.65295 0.75313 0.26752
0.69973 0.75584 0.23515
0.74244 0.75755 0.21202
0.78292 0.75816 0.19869
0.81837 0.75510 0.19648
0.84877 0.74890 0.19754
0.87599 0.74222 0.20182
0.89376 0.73744 0.20837
0.90787 0.72998 0.21191
0.91704 0.72008 0.21432
0.91761 0.71264 0.21234
0.91774 0.70463 0.21063
0.91786 0.69598 0.20912
0.91834 0.68934 0.20570
0.91741 0.68417 0.20205
0.32212 0.73355 0.46239
0.32442 0.73409 0.46107
0.32698 0.73469 0.45955
0.33050 0.73549 0.45739
0.33491 0.73644 0.45451
0.33999 0.73744 0.45091
0.34535 0.73833 0.44663
0.35040 0.73888 0.44179
0.35441 0.73888 0.43686
0.35699 0.73839 0.43302
0.35826 0.73771 0.43101
0.36220 0.73665 0.42978
0.39055 0.73828 0.42732
0.43673 0.74489 0.41934
0.48600 0.75160 0.40156
0.53717 0.75869 0.37786
0.59120 0.76734 0.35022
0.64380 0.77553 0.31793
0.68912 0.77958 0.28326
0.72992 0.78226 0.25078
0.76975 0.78461 0.22976
0.80538 0.78288 0.21558
0.83709 0.77872 0.21118
0.86493 0.77175 0.21290
0.88613 0.76674 0.21601
0.89970 0.76234 0.22037
0.91110 0.75591 0.22328
0.91354 0.74644 0.22122
0.91458 0.73819 0.21873
0.91543 0.73026 0.21661
0.91645 0.72270 0.21272
0.91636 0.71888 0.21045
0.35237 0.75597 0.48960
0.35464 0.75652 0.48851
0.35716 0.75712 0.48726
0.36064 0.75794 0.48545
0.36503 0.75891 0.48300
0.37011 0.75996 0.47987
0.37557 0.76094 0.47601
0.38093 0.76167 0.47148
0.38559 0.76199 0.46653
0.38907 0.76190 0.46201
0.39168 0.76177 0.45947
0.39218 0.76093 0.45775
0.40510 0.76057 0.45643
0.44189 0.76443 0.45270
0.48969 0.77197 0.44287
0.53781 0.77861 0.42325
0.58807 0.78622 0.39920
0.63754 0.79418 0.36952
0.68252 0.80071 0.33589
0.72109 0.80368 0.29926
0.75870 0.80714 0.26923
0.79353 0.80743 0.24828
0.82542 0.80370 0.23233
0.85436 0.79837 0.22773
0.87833 0.79250 0.22955
0.89257 0.78871 0.23012
0.90442 0.78423 0.23327
0.90843 0.77963 0.23400
0.91000 0.77064 0.22963
0.91118 0.76210 0.22637
0.91232 0.75416 0.22287
0.91290 0.74976 0.22011
0.38072 0.77713 0.51605
0.38304 0.77774 0.51523
0.38563 0.77840 0.51428
0.38922 0.77929 0.51289
0.39374 0.78039 0.51097
0.39902 0.78158 0.50843
0.40472 0.78272 0.50518
0.41037 0.78360 0.50110
0.41535 0.78401 0.49619
0.41903 0.78382 0.49086
0.42136 0.78328 0.48639
0.42265 0.78271 0.48388
0.42578 0.78197 0.48258
0.45119 0.78386 0.48180
0.49185 0.78884 0.47592
0.53852 0.79549 0.46257
0.58608 0.80231 0.44157
0.63308 0.80959 0.41705
0.67714 0.81741 0.38701
0.71569 0.82302 0.35307
0.75085 0.82589 0.31919
0.78374 0.82857 0.28939
0.81458 0.82663 0.26700
0.84378 0.82184 0.25043
0.86935 0.81623 0.24536
0.88626 0.81158 0.24433
0.89753 0.80814 0.24466
0.90360 0.80416 0.24594
0.90539 0.80110 0.24757
0.90652 0.79312 0.24117
0.90794 0.78409 0.23687
0.90883 0.77843 0.23310
0.40649 0.79682 0.54117
0.40898 0.79753 0.54068
0.41176 0.79832 0.54010
0.41565 0.79941 0.53925
0.42062 0.80079 0.53807
0.42651 0.80237 0.53647
0.43304 0.80404 0.53434
0.43976 0.80559 0.53154
0.44608 0.80679 0.52791
0.45126 0.80740 0.52345
0.45488 0.80742 0.51882
0.45738 0.80732 0.51562
0.45854 0.80698 0.51383
0.46927 0.80659 0.51217
0.50115 0.80824 0.50757
0.54091 0.81223 0.49784
0.58520 0.81765 0.48100
0.63083 0.82420 0.45925
0.67290 0.83078 0.43393
0.71290 0.83853 0.40607
0.74732 0.84322 0.37502
0.77762 0.84598 0.34086
0.80701 0.84733 0.31121
0.83465 0.84397 0.28830
0.86058 0.83865 0.27232
0.88060 0.83450 0.26557
0.89254 0.83251 0.27056
0.89928 0.82785 0.26463
0.90166 0.82439 0.26165
0.90243 0.82108 0.26089
0.90344 0.81386 0.25546
0.90452 0.80654 0.25101
0.42791 0.81404 0.56345
0.43059 0.81487 0.56327
0.43362 0.81580 0.56306
0.43788 0.81711 0.56275
0.44340 0.81882 0.56232
0.45007 0.82088 0.56172
0.45769 0.82322 0.56088
0.46590 0.82569 0.55971
0.47420 0.82812 0.55804
0.48192 0.83025 0.55575
0.48838 0.83194 0.55301
0.49326 0.83321 0.55066
0.49664 0.83419 0.54955
0.50107 0.83443 0.54887
0.52431 0.83523 0.54701
0.55932 0.83676 0.54010
0.59415 0.83806 0.52503
0.63358 0.84146 0.50402
0.67361 0.84615 0.47920
0.71113 0.85256 0.45561
0.74628 0.85949 0.43000
0.77498 0.86240 0.39683
0.80233 0.86419 0.36317
0.82885 0.86408 0.33495
0.85302 0.86005 0.31315
0.87537 0.85580 0.29671
0.88928 0.85860 0.30605
0.89783 0.85684 0.31254
0.90079 0.85167 0.30104
0.90112 0.84730 0.29208
0.90169 0.84418 0.29170
0.90179 0.83829 0.28388
0.44316 0.82773 0.58137
0.44600 0.82862 0.58141
0.44921 0.82964 0.58147
0.45377 0.83110 0.58156
0.45972 0.83303 0.58168
0.46702 0.83542 0.58183
0.47552 0.83825 0.58199
0.48497 0.84142 0.58210
0.49494 0.84480 0.58202
0.50480 0.84815 0.58157
0.51367 0.85114 0.58051
0.52064 0.85342 0.57891
0.52537 0.85492 0.57758
0.52846 0.85599 0.57727
0.54183 0.85764 0.57832
0.57791 0.86092 0.57764
0.61129 0.86169 0.56826
0.64399 0.86223 0.55083
0.68104 0.86608 0.53086
0.71599 0.87024 0.50813
0.74818 0.87574 0.48548
0.77684 0.88010 0.45731
0.80089 0.88084 0.42235
0.82559 0.88095 0.38920
0.84900 0.87972 0.36127
0.86995 0.87470 0.33512
0.88695 0.87801 0.33825
0.89642 0.88365 0.35583
0.90194 0.88279 0.36428
0.90256 0.87763 0.34941
0.90207 0.87425 0.34166
0.90270 0.87227 0.34185
0.45137 0.83741 0.59427
0.45426 0.83830 0.59442
0.45755 0.83931 0.59459
0.46221 0.84076 0.59485
0.46835 0.84270 0.59521
0.47592 0.84514 0.59569
0.48485 0.84807 0.59630
0.49496 0.85148 0.59703
0.50594 0.85529 0.59783
0.51734 0.85939 0.59860
0.52852 0.86357 0.59920
0.53861 0.86753 0.59955
0.54676 0.87090 0.59988
0.55235 0.87333 0.60056
0.55698 0.87464 0.60114
0.58433 0.87834 0.60368
0.62496 0.88250 0.60252
0.65481 0.88187 0.59048
0.68862 0.88437 0.57567
0.72388 0.88946 0.55943
0.75358 0.89285 0.53879
0.78186 0.89773 0.51804
0.80599 0.90030 0.49162
0.82745 0.89969 0.45959
0.84967 0.89883 0.42720
0.86918 0.89594 0.39576
0.88569 0.89469 0.38075
0.89566 0.90105 0.39166
0.90174 0.90634 0.40519
0.90433 0.90627 0.41073
0.90374 0.90506 0.40555
0.90332 0.90102 0.39505
0.45312 0.84362 0.60282
0.45598 0.84442 0.60295
0.45923 0.84533 0.60311
0.46385 0.84664 0.60333
0.46992 0.84838 0.60365
0.47744 0.85058 0.60407
0.48631 0.85323 0.60459
0.49636 0.85632 0.60518
0.50732 0.85977 0.60581
0.51879 0.86350 0.60637
0.53014 0.86731 0.60668
0.54055 0.87091 0.60653
0.54902 0.87388 0.60586
0.55505 0.87589 0.60509
0.55810 0.87713 0.60479
0.57029 0.87950 0.60674
0.61122 0.88585 0.61041
0.65243 0.89090 0.60921
0.68823 0.89524 0.60310
0.72640 0.90282 0.59623
0.76008 0.90941 0.58457
0.78711 0.91356 0.56893
0.81202 0.91771 0.55271
0.83420 0.91989 0.53264
0.85413 0.91887 0.50378
0.87271 0.91698 0.47102
0.88808 0.91492 0.44693
0.89629 0.91379 0.43503
0.90279 0.91979 0.44236
0.90653 0.92411 0.45091
0.90641 0.92312 0.45228
0.90579 0.91998 0.44262
0.44990 0.84758 0.60854
0.45271 0.84826 0.60860
0.45590 0.84903 0.60868
0.46044 0.85013 0.60879
