cube lut/nostalgic neg_DisplayP3.cube
# DisplayP3
# github.com/abpy/FujifilmCameraProfiles
LUT_3D_SIZE 8
DOMAIN_MIN 0.000000 0.000000 0.000000
DOMAIN_MAX 0.903226 0.903226 0.903226
0.01592 0.01601 0.01469
0.14325 0.02526 0.01007
0.34929 0.05949 0.01167
0.56610 0.11555 0.03065
0.73478 0.19200 0.06475
0.81409 0.24284 0.06073
0.86253 0.29503 0.05629
0.86987 0.30299 0.00000
0.00000 0.12146 0.02289
0.08910 0.10161 0.01023
0.32761 0.09686 0.01767
0.55462 0.14012 0.04250
0.73291 0.21445 0.07429
0.81971 0.26593 0.07562
0.86702 0.31238 0.07382
0.87283 0.31944 0.00000
0.00000 0.29109 0.09505
0.00000 0.27396 0.04981
0.26367 0.26128 0.03604
0.52081 0.26321 0.07209
0.72538 0.27223 0.10678
0.83353 0.31353 0.12507
0.87917 0.35000 0.12752
0.88143 0.35710 0.05977
0.00000 0.46238 0.21028
0.04557 0.45409 0.18079
0.14668 0.44085 0.15586
0.44993 0.45262 0.09405
0.71297 0.46512 0.12736
0.83988 0.44920 0.16083
0.89864 0.43125 0.18144
0.89735 0.42198 0.15056
0.17399 0.62111 0.33981
0.18902 0.62213 0.32279
0.20249 0.62051 0.30256
0.37359 0.62764 0.26158
0.64740 0.65148 0.16705
0.82522 0.65128 0.17112
0.90726 0.61735 0.19871
0.91265 0.57193 0.19654
0.32212 0.73355 0.46239
0.33491 0.73644 0.45451
0.35441 0.73888 0.43686
0.39055 0.73828 0.42732
0.59120 0.76734 0.35022
0.76975 0.78461 0.22976
0.88613 0.76674 0.21601
0.91458 0.73819 0.21873
0.42791 0.81404 0.56345
0.44340 0.81882 0.56232
0.47420 0.82812 0.55804
0.49664 0.83419 0.54955
0.59415 0.83806 0.52503
0.74628 0.85949 0.43000
0.85302 0.86005 0.31315
0.90079 0.85167 0.30104
0.44990 0.84758 0.60854
0.46641 0.85161 0.60895
0.50314 0.86116 0.60976
0.54513 0.87301 0.60720
0.58471 0.88119 0.60698
0.75863 0.91825 0.61319
0.85836 0.93555 0.56598
0.90451 0.92916 0.48171
0.01704 0.01061 0.18621
0.16222 0.02942 0.12077
0.35072 0.05817 0.05995
0.57442 0.11181 0.08215
0.74584 0.19131 0.11187
0.81938 0.24212 0.11333
0.86653 0.29782 0.11488
0.87164 0.30497 0.04553
0.00000 0.10670 0.12708
0.10655 0.10186 0.10287
0.32393 0.10283 0.06280
0.55632 0.13710 0.07598
0.74228 0.20943 0.11330
0.82576 0.26185 0.12037
0.87089 0.31222 0.12358
0.87463 0.31958 0.06398
0.00000 0.28155 0.13860
0.00000 0.26911 0.09097
0.27513 0.26914 0.06471
0.51956 0.27893 0.08067
0.72912 0.28897 0.11939
0.84280 0.31475 0.15324
0.88416 0.34689 0.16118
0.88381 0.35452 0.11530
0.00000 0.46051 0.23208
0.03355 0.45149 0.19612
0.17280 0.44563 0.15987
0.46132 0.45909 0.09424
0.71276 0.47505 0.13017
0.83882 0.46287 0.16302
0.90371 0.43917 0.19864
0.90142 0.42454 0.17757
0.17766 0.62261 0.35310
0.19081 0.62291 0.33250
0.20280 0.62029 0.30338
0.38640 0.62965 0.25891
0.65331 0.65318 0.16295
0.82353 0.65460 0.17059
0.90729 0.62683 0.19747
0.91387 0.58540 0.20383
0.32560 0.73463 0.47179
0.33737 0.73698 0.46226
0.35345 0.73766 0.43875
0.39758 0.73859 0.42714
0.59873 0.76922 0.35014
0.77233 0.78915 0.23588
0.88499 0.77290 0.21618
0.91343 0.74726 0.22063
0.43172 0.81522 0.57154
0.44650 0.81972 0.56965
0.47483 0.82791 0.56267
0.49484 0.83321 0.54830
0.60033 0.83887 0.52651
0.75328 0.86470 0.44176
0.85602 0.86674 0.32639
0.90059 0.86033 0.31059
0.45317 0.84800 0.61514
0.46926 0.85193 0.61515
0.50476 0.86120 0.61478
0.54456 0.87268 0.60941
0.59086 0.88196 0.60864
0.76388 0.92061 0.61768
0.86299 0.93992 0.57903
0.90684 0.93401 0.49723
0.00915 0.01424 0.42645
0.13681 0.01982 0.38597
0.37625 0.07784 0.28268
0.60182 0.13170 0.23614
0.77794 0.20098 0.22668
0.84310 0.25695 0.21055
0.87906 0.30916 0.20164
0.87785 0.31271 0.16848
0.00000 0.12697 0.37041
0.12430 0.13841 0.34395
0.35825 0.17090 0.28777
0.57431 0.20101 0.25584
0.77012 0.24623 0.24020
0.85568 0.28921 0.22335
0.88347 0.31951 0.20247
0.88092 0.32277 0.17161
0.00000 0.29801 0.35145
0.00000 0.29614 0.33774
0.32677 0.31902 0.31016
0.54663 0.32418 0.27236
0.75440 0.34733 0.25229
0.86568 0.36868 0.23104
0.89995 0.37212 0.21705
0.89422 0.36196 0.19537
0.00000 0.46634 0.36059
0.00000 0.46472 0.34710
0.18592 0.46975 0.31117
0.49772 0.48531 0.28452
0.72226 0.50243 0.27417
0.85482 0.50348 0.23900
0.90968 0.48401 0.21386
0.91063 0.45398 0.20876
0.16901 0.62428 0.42114
0.17363 0.62352 0.40933
0.20084 0.62212 0.39472
0.41393 0.63999 0.33701
0.67022 0.65908 0.28220
0.82759 0.66743 0.26519
0.91133 0.65353 0.22780
0.91787 0.61805 0.21236
0.32616 0.73415 0.50727
0.33405 0.73486 0.49812
0.34031 0.73194 0.48517
0.41865 0.73928 0.46033
0.61783 0.77350 0.39650
0.78282 0.79365 0.29631
0.88924 0.78938 0.27520
0.91476 0.77120 0.23937
0.43496 0.81534 0.59521
0.44717 0.81877 0.59246
0.46728 0.82309 0.58431
0.48415 0.82424 0.56253
0.61349 0.83960 0.54579
0.77040 0.87528 0.49140
0.86807 0.88258 0.37508
0.90206 0.87572 0.32661
0.45744 0.84750 0.63311
0.47214 0.85107 0.63250
0.50361 0.85918 0.63075
0.53818 0.86885 0.62508
0.60585 0.88285 0.62633
0.77602 0.92565 0.63759
0.87275 0.94725 0.61109
0.91558 0.94602 0.53709
0.04900 0.07702 0.67041
0.14109 0.07548 0.64526
0.42475 0.13412 0.57364
0.63874 0.19495 0.48773
0.81054 0.24623 0.44821
0.88222 0.30947 0.40997
0.91061 0.35076 0.38462
0.90330 0.34571 0.32566
0.00000 0.18967 0.64302
0.13980 0.19790 0.61166
0.40632 0.22170 0.55532
0.61637 0.27756 0.48735
0.79658 0.30467 0.45684
0.88736 0.34622 0.42704
0.91715 0.37622 0.39672
0.91083 0.37088 0.34437
0.00000 0.34458 0.59757
0.03401 0.34564 0.57530
0.36170 0.36389 0.53901
0.59284 0.38921 0.49871
0.77656 0.40793 0.46995
0.88695 0.43674 0.45578
0.92985 0.45916 0.43427
0.92930 0.45874 0.40508
0.00000 0.49983 0.56925
0.00000 0.49872 0.56222
0.23987 0.50801 0.53356
0.54889 0.53286 0.51818
0.74858 0.53779 0.48298
0.87669 0.54631 0.46456
0.93594 0.55295 0.43900
0.93941 0.54904 0.41677
0.15767 0.63480 0.56805
0.16457 0.63470 0.56202
0.22440 0.63660 0.54757
0.45704 0.66256 0.52379
0.70299 0.68225 0.50255
0.84950 0.68834 0.48211
0.93374 0.68801 0.45120
0.94460 0.67867 0.43200
0.31757 0.73304 0.60294
0.32289 0.73337 0.60019
0.33214 0.73261 0.59537
0.44871 0.74819 0.57951
0.65031 0.78335 0.54700
0.81023 0.80115 0.50508
0.91520 0.81014 0.48789
0.93898 0.79965 0.44794
0.42551 0.80924 0.65081
0.43355 0.81085 0.65015
0.44579 0.81121 0.64919
0.48444 0.81537 0.64400
0.64492 0.84990 0.63609
0.79148 0.88138 0.59931
0.89289 0.89964 0.53643
0.92620 0.89313 0.49286
0.45313 0.84201 0.67199
0.46492 0.84461 0.67219
0.48879 0.84993 0.67478
0.51677 0.85703 0.68300
0.63451 0.88703 0.69305
0.79253 0.92954 0.69792
0.88885 0.95529 0.68457
0.93472 0.96203 0.62800
0.20598 0.20490 0.77854
0.22803 0.20116 0.76688
0.40392 0.22480 0.72376
0.63534 0.29566 0.68885
0.79582 0.35431 0.64868
0.89265 0.39452 0.62924
0.92675 0.40703 0.58938
0.92748 0.41718 0.55307
0.15043 0.26354 0.78383
0.20004 0.26564 0.77087
0.40617 0.28428 0.72863
0.63729 0.33615 0.68316
0.79715 0.39005 0.64179
0.89403 0.42484 0.62560
0.93287 0.43536 0.59527
0.93253 0.44515 0.56506
0.00000 0.41095 0.77304
0.17858 0.41946 0.75340
0.40591 0.43336 0.72221
0.62716 0.46252 0.68127
0.79209 0.48362 0.64418
0.89528 0.50367 0.62837
0.94555 0.52242 0.61001
0.94699 0.53144 0.59962
0.00000 0.54206 0.75151
0.00000 0.54284 0.74029
0.30775 0.55141 0.71592
0.57779 0.57509 0.69345
0.77464 0.59393 0.66376
0.89000 0.59767 0.64230
0.95162 0.61172 0.62719
0.95987 0.62785 0.62343
0.17030 0.65785 0.70930
0.17836 0.65715 0.70492
0.27790 0.66348 0.69255
0.50256 0.68950 0.69181
0.73814 0.71676 0.68490
0.87050 0.71779 0.66189
0.94972 0.71879 0.64135
0.96413 0.72208 0.63759
0.32446 0.74080 0.70997
0.32952 0.74154 0.70763
0.35435 0.74406 0.70269
0.48097 0.76437 0.69861
0.68376 0.80041 0.69690
0.83825 0.81774 0.67997
0.93443 0.82604 0.66248
0.95795 0.82070 0.65055
0.41752 0.80335 0.72894
0.42491 0.80509 0.72822
0.44097 0.80862 0.72684
0.51086 0.82391 0.72968
0.66849 0.85968 0.73601
0.81570 0.89231 0.72689
0.91725 0.90966 0.70523
0.95372 0.90423 0.68040
0.44485 0.83285 0.73670
0.45560 0.83522 0.73825
0.48057 0.84146 0.74317
0.53259 0.85905 0.75346
0.67087 0.89845 0.77459
0.81251 0.93638 0.78550
0.90762 0.96240 0.78087
0.95342 0.96587 0.73867
0.24422 0.31361 0.84249
0.25004 0.31563 0.84280
0.30893 0.31936 0.83746
0.55104 0.37790 0.82911
0.75615 0.46634 0.82322
0.86533 0.52178 0.81348
0.91877 0.51169 0.76532
0.92469 0.50542 0.73561
0.22610 0.38623 0.86876
0.23340 0.38628 0.86730
0.32239 0.38868 0.85920
0.57078 0.43327 0.84304
0.76257 0.49589 0.82311
0.87001 0.54382 0.80827
0.92646 0.53891 0.76324
0.93233 0.53322 0.73606
0.19064 0.48480 0.86918
0.23299 0.49131 0.86510
0.39555 0.50686 0.86060
0.60958 0.53976 0.84510
0.77844 0.56628 0.81215
0.88441 0.60627 0.79427
0.94183 0.60814 0.76680
0.95114 0.60678 0.73918
0.14976 0.59304 0.84881
0.22792 0.60005 0.84383
0.38693 0.61295 0.84200
0.61750 0.63544 0.82451
0.78386 0.66406 0.80971
0.88859 0.67664 0.79776
0.95470 0.67981 0.76877
0.96529 0.68754 0.75322
0.20700 0.68193 0.82049
0.23704 0.68391 0.81757
0.35057 0.69502 0.81603
0.55243 0.71964 0.82048
0.75758 0.74769 0.81809
0.88491 0.75803 0.79949
0.95617 0.76323 0.78503
0.97107 0.76639 0.77232
0.33979 0.75191 0.80119
0.34460 0.75293 0.79911
0.39243 0.76092 0.79583
0.53158 0.78675 0.80326
0.71548 0.82221 0.81630
0.85996 0.84144 0.81176
0.94859 0.84716 0.79775
0.96970 0.84718 0.79257
0.42144 0.80194 0.80275
0.42677 0.80356 0.80192
0.44484 0.80912 0.80062
0.54882 0.83788 0.80650
0.69864 0.87381 0.82411
0.83669 0.90781 0.83144
0.93274 0.92002 0.81851
0.96946 0.91761 0.80303
0.45387 0.82904 0.80381
0.46462 0.83214 0.80438
0.48863 0.83996 0.80605
0.54705 0.86030 0.81341
0.69311 0.90505 0.83567
0.82723 0.94278 0.85524
0.91937 0.96530 0.85332
0.96674 0.97020 0.82941
0.24018 0.34407 0.85374
0.25199 0.33886 0.84993
0.35075 0.35287 0.84446
0.57660 0.40520 0.83276
0.76002 0.47028 0.82525
0.86417 0.53796 0.82870
0.91053 0.57574 0.83041
0.91646 0.59409 0.83339
0.22418 0.40449 0.87220
0.24329 0.40062 0.86905
0.36572 0.40979 0.86270
0.58906 0.45285 0.84897
0.76563 0.51003 0.83849
0.86654 0.56762 0.83855
0.91569 0.60595 0.84184
0.92387 0.62197 0.83990
0.22427 0.51735 0.88695
0.25834 0.52140 0.88813
0.39824 0.53779 0.89440
0.60371 0.56346 0.89298
0.77672 0.61202 0.87964
0.87268 0.65076 0.87486
0.93061 0.67633 0.86543
0.94267 0.68806 0.85325
0.26957 0.64190 0.90132
0.32866 0.65086 0.90538
0.45133 0.66567 0.91562
0.63432 0.69123 0.92453
0.78690 0.72020 0.91811
0.88491 0.73670 0.90040
0.94513 0.74975 0.88530
0.95890 0.76199 0.87558
0.30406 0.71466 0.89624
0.33636 0.71871 0.89843
0.42712 0.72974 0.90830
0.59831 0.75563 0.92461
0.77115 0.78482 0.93184
0.88716 0.80124 0.91111
0.95332 0.81107 0.89940
0.96849 0.81937 0.89356
0.37685 0.76967 0.87376
0.38979 0.77256 0.87410
0.44535 0.78351 0.88077
0.57314 0.80866 0.90270
0.74178 0.84328 0.91890
0.87361 0.86585 0.91991
0.95589 0.87319 0.91381
0.97660 0.87632 0.89795
0.43174 0.80443 0.86899
0.44072 0.80945 0.86875
0.48446 0.82771 0.87011
0.59093 0.85440 0.88044
0.72986 0.89089 0.90553
0.85529 0.92148 0.92087
0.94838 0.93618 0.91496
0.97936 0.93124 0.89853
0.45998 0.82359 0.86412
0.46723 0.82599 0.86495
0.48796 0.83454 0.86544
0.56761 0.86418 0.87111
0.71187 0.91006 0.89395
0.84199 0.94878 0.91907
0.92849 0.96929 0.92013
0.97539 0.97412 0.90417
0.24345 0.37551 0.86225
0.27219 0.37060 0.85790
0.39426 0.38612 0.85178
0.60323 0.43258 0.83910
0.77058 0.49189 0.83038
0.86447 0.53959 0.82490
0.91224 0.56539 0.81591
0.92153 0.61883 0.83969
0.23793 0.42240 0.87441
0.27665 0.42372 0.87264
0.40896 0.43784 0.86818
0.61505 0.47724 0.85508
0.77731 0.52918 0.84259
0.86831 0.57007 0.83607
0.91802 0.59968 0.83019
0.92703 0.64734 0.85114
0.25400 0.52610 0.88834
0.29728 0.53158 0.88982
0.43945 0.54848 0.89604
0.63513 0.57843 0.89342
0.79133 0.62295 0.88056
0.87986 0.65237 0.87064
0.93246 0.68265 0.86744
0.94141 0.71758 0.88137
0.32052 0.65296 0.90454
0.37715 0.66080 0.90954
0.50829 0.68141 0.92228
0.68183 0.71284 0.93296
0.80701 0.73606 0.92773
0.89884 0.76371 0.91900
0.94854 0.77430 0.90784
0.96019 0.80132 0.91989
0.40654 0.74163 0.91236
0.45686 0.75094 0.91970
0.55221 0.76723 0.93361
0.68540 0.79154 0.94830
0.81058 0.81580 0.95465
0.90045 0.83338 0.94992
0.95770 0.84149 0.93882
0.97006 0.84756 0.93919
0.44908 0.79318 0.89971
0.47199 0.79832 0.90525
0.53480 0.81164 0.92029
0.64444 0.83437 0.94308
0.78178 0.86276 0.96074
0.88759 0.88196 0.96474
0.95625 0.89036 0.96058
0.97792 0.89465 0.95244
0.48130 0.82491 0.88932
0.49753 0.83033 0.89233
0.54747 0.84561 0.90276
0.64240 0.87122 0.92551
0.76247 0.90161 0.95333
0.86897 0.92564 0.97271
0.94893 0.93675 0.96943
0.98147 0.93659 0.96166
0.48231 0.83130 0.88609
0.48872 0.83463 0.88666
0.52648 0.85252 0.89158
0.61603 0.88189 0.90772
0.74251 0.91782 0.93646
0.84667 0.94887 0.96030
0.92851 0.96723 0.96886
0.97855 0.97020 0.95962
