cube lut/nostalgic neg_sRGB.cube
# sRGB
# github.com/abpy/FujifilmCameraProfiles
LUT_3D_SIZE 32
0.01590 0.01602 0.01456
0.03323 0.01619 0.01291
0.04809 0.01715 0.00845
0.08244 0.01786 0.00707
0.12866 0.01808 0.00531
0.18518 0.02160 0.00377
0.24579 0.02226 0.00000
0.29909 0.02028 0.00000
0.34411 0.02094 0.00000
0.38775 0.01990 0.00000
0.43574 0.02037 0.00000
0.48898 0.02349 0.00000
0.54919 0.02800 0.00000
0.60753 0.03602 0.00000
0.66042 0.05051 0.00000
0.70886 0.07217 0.00000
0.75086 0.09440 0.00000
0.78598 0.11728 0.00000
0.81743 0.13966 0.00000
0.84411 0.15776 0.00000
0.86520 0.17202 0.00000
0.88171 0.18474 0.00000
0.89565 0.19762 0.00000
0.91000 0.21369 0.00000
0.92395 0.23117 0.00000
0.93611 0.24774 0.00000
0.94412 0.25992 0.00000
0.94892 0.26821 0.00000
0.95066 0.27260 0.00000
0.95105 0.27538 0.00000
0.95119 0.27891 0.00000
0.95126 0.28324 0.00000
0.00429 0.03182 0.01098
0.02657 0.02964 0.01173
0.04265 0.03261 0.00854
0.07563 0.03121 0.00504
0.12361 0.02868 0.00357
0.18193 0.03161 0.00372
0.24277 0.03194 0.00000
0.29642 0.02843 0.00000
0.34053 0.02857 0.00000
0.38511 0.02799 0.00000
0.43348 0.02891 0.00000
0.48698 0.03104 0.00000
0.54764 0.03715 0.00000
0.60644 0.04505 0.00000
0.65982 0.05769 0.00000
0.70867 0.07898 0.00000
0.75085 0.10028 0.00000
0.78597 0.12207 0.00000
0.81753 0.14469 0.00000
0.84449 0.16234 0.00000
0.86594 0.17631 0.00000
0.88270 0.18899 0.00000
0.89682 0.20181 0.00000
0.91120 0.21762 0.00000
0.92506 0.23457 0.00000
0.93708 0.25073 0.00000
0.94493 0.26266 0.00000
0.94962 0.27084 0.00000
0.95128 0.27517 0.00000
0.95162 0.27793 0.00000
0.95172 0.28149 0.00000
0.95176 0.28586 0.00000
0.00000 0.05052 0.00980
0.01395 0.04880 0.01049
0.03310 0.04962 0.00843
0.07188 0.05021 0.00527
0.11815 0.04481 0.00419
0.17873 0.04631 0.00400
0.24001 0.04396 0.00000
0.29448 0.03727 0.00000
0.33687 0.03608 0.00000
0.38267 0.03618 0.00000
0.43116 0.03763 0.00000
0.48460 0.03818 0.00000
0.54566 0.04652 0.00000
0.60495 0.05353 0.00000
0.65895 0.06442 0.00000
0.70836 0.08591 0.00000
0.75079 0.10638 0.00000
0.78592 0.12701 0.00000
0.81763 0.15009 0.00000
0.84491 0.16729 0.00000
0.86681 0.18100 0.00000
0.88387 0.19368 0.00000
0.89819 0.20648 0.00000
0.91260 0.22202 0.00000
0.92636 0.23838 0.00000
0.93820 0.25410 0.00000
0.94588 0.26575 0.00000
0.95043 0.27380 0.00000
0.95200 0.27809 0.00000
0.95228 0.28082 0.00000
0.95235 0.28443 0.00000
0.95235 0.28884 0.00000
0.00000 0.07458 0.00966
0.00000 0.07263 0.00737
0.01237 0.07346 0.00727
0.05750 0.07177 0.00617
0.11066 0.06896 0.00464
0.17021 0.07020 0.00323
0.23185 0.06465 0.00001
0.28871 0.05542 0.00000
0.33193 0.05145 0.00000
0.37999 0.05004 0.00000
0.42923 0.05157 0.00000
0.48226 0.04839 0.00000
0.54360 0.05902 0.00000
0.60308 0.06462 0.00000
0.65771 0.07284 0.00000
0.70786 0.09532 0.00000
0.75064 0.11470 0.00000
0.78578 0.13351 0.00000
0.81771 0.15758 0.00000
0.84550 0.17414 0.00000
0.86812 0.18751 0.00000
0.88562 0.20025 0.00000
0.90024 0.21306 0.00000
0.91470 0.22824 0.00000
0.92830 0.24379 0.00000
0.93988 0.25887 0.00000
0.94728 0.27014 0.00000
0.95163 0.27803 0.00000
0.95307 0.28226 0.00000
0.95327 0.28496 0.00000
0.95327 0.28864 0.00000
0.95322 0.29313 0.00000
0.00000 0.10522 0.00721
0.00000 0.10430 0.00642
0.00000 0.10645 0.00502
0.02185 0.10369 0.00417
0.08882 0.10247 0.00179
0.15722 0.10017 0.00113
0.21740 0.09408 0.00001
0.27901 0.08295 0.00000
0.32346 0.07794 0.00000
0.37397 0.07540 0.00000
0.42531 0.07584 0.00000
0.47972 0.06725 0.00000
0.54180 0.07781 0.00000
0.60138 0.08183 0.00000
0.65645 0.08499 0.00000
0.70747 0.10861 0.00000
0.75053 0.12623 0.00000
0.78559 0.14186 0.00000
0.81778 0.16752 0.00000
0.84625 0.18316 0.00000
0.86994 0.19610 0.00000
0.88811 0.20903 0.00000
0.90317 0.22188 0.00000
0.91766 0.23657 0.00000
0.93105 0.25101 0.00000
0.94225 0.26526 0.00000
0.94924 0.27601 0.00000
0.95331 0.28369 0.00000
0.95457 0.28786 0.00000
0.95465 0.29052 0.00000
0.95457 0.29431 0.00000
0.95445 0.29891 0.00000
0.00000 0.15395 0.00239
0.00000 0.15283 0.00002
0.00000 0.15073 0.00033
0.00000 0.14605 0.00043
0.03948 0.14210 0.00000
0.13247 0.13619 0.00000
0.19913 0.12966 0.00000
0.26508 0.12062 0.00000
0.31300 0.11628 0.00000
0.36657 0.11347 0.00000
0.41885 0.11350 0.00000
0.47713 0.10843 0.00000
0.53715 0.11101 0.00000
0.59860 0.11124 0.00000
0.65512 0.10628 0.00000
0.70710 0.12811 0.00000
0.75027 0.14356 0.00000
0.78531 0.15385 0.00073
0.81783 0.18093 0.00000
0.84712 0.19503 0.00000
0.87226 0.20717 0.00000
0.89131 0.22028 0.00000
0.90701 0.23321 0.00000
0.92162 0.24731 0.00000
0.93477 0.26036 0.00000
0.94546 0.27354 0.00000
0.95190 0.28363 0.00000
0.95558 0.29102 0.00000
0.95659 0.29512 0.00000
0.95651 0.29773 0.00000
0.95633 0.30166 0.00000
0.95610 0.30638 0.00000
0.00000 0.19283 0.00000
0.00000 0.19173 0.00000
0.00000 0.18968 0.00000
0.00000 0.18679 0.00000
0.00000 0.18400 0.00000
0.07370 0.17881 0.00000
0.17217 0.17173 0.00000
0.24728 0.16704 0.00000
0.30657 0.16440 0.00000
0.36050 0.16277 0.00000
0.41213 0.16194 0.00000
0.46811 0.15915 0.00000
0.52961 0.15822 0.00000
0.59223 0.15742 0.00000
0.65164 0.15328 0.00000
0.70513 0.16024 0.00000
0.74926 0.16968 0.00000
0.78454 0.17405 0.00980
0.81764 0.19896 0.00000
0.84786 0.21141 0.00000
0.87490 0.22215 0.00087
0.89507 0.23494 0.00000
0.91157 0.24758 0.00000
0.92640 0.26076 0.00000
0.93945 0.27212 0.01328
0.94954 0.28400 0.01806
0.95529 0.29327 0.01150
0.95851 0.30030 0.00000
0.95920 0.30435 0.00000
0.95895 0.30688 0.00000
0.95862 0.31100 0.00000
0.95827 0.31586 0.00000
0.00000 0.23305 0.00000
0.00000 0.23228 0.00000
0.00000 0.23091 0.00000
0.00000 0.22975 0.00000
0.00000 0.22829 0.00000
0.00000 0.22430 0.00000
0.12162 0.22034 0.00000
0.21841 0.21630 0.00000
0.29478 0.21446 0.00000
0.35616 0.21374 0.00000
0.40852 0.21408 0.00000
0.46110 0.21097 0.00000
0.52130 0.21060 0.00000
0.58315 0.20964 0.00000
0.64391 0.20755 0.00000
0.69998 0.20701 0.00000
0.74595 0.21047 0.00000
0.78186 0.21179 0.00579
0.81675 0.22517 0.00000
0.84822 0.23387 0.00000
0.87739 0.24168 0.01632
0.89880 0.25369 0.01775
0.91642 0.26605 0.01654
0.93170 0.27801 0.02110
0.94494 0.28719 0.04167
0.95438 0.29726 0.04730
0.95929 0.30534 0.04111
0.96198 0.31182 0.02680
0.96234 0.31577 0.00777
0.96192 0.31823 0.00000
0.96146 0.32259 0.00000
0.96097 0.32764 0.00000
0.00000 0.27705 0.00190
0.00000 0.27641 0.00000
0.00000 0.27493 0.00000
0.00000 0.27366 0.00000
0.00000 0.27214 0.00000
0.00000 0.26942 0.00000
0.05236 0.26739 0.00000
0.17921 0.26565 0.00000
0.26800 0.26313 0.00000
0.34321 0.26386 0.00000
0.40882 0.26323 0.00000
0.45999 0.26427 0.00000
0.51696 0.26364 0.00000
0.57527 0.26189 0.00000
0.63423 0.26038 0.00000
0.69215 0.26000 0.00000
0.74074 0.25930 0.00000
0.77854 0.25935 0.00000
0.81435 0.26489 0.00000
0.84747 0.26818 0.00101
0.87912 0.27092 0.02941
0.90198 0.27879 0.03438
0.92076 0.28876 0.03167
0.93652 0.29877 0.03783
0.95048 0.30602 0.06349
0.95965 0.31431 0.07018
0.96374 0.32095 0.06601
0.96590 0.32651 0.05555
0.96585 0.33001 0.03863
0.96526 0.33217 0.02081
0.96466 0.33668 0.00000
0.96406 0.34187 0.00000
0.00000 0.32251 0.03232
0.00000 0.32179 0.02704
0.00000 0.31943 0.02295
0.00000 0.31775 0.01759
0.00000 0.31643 0.00863
0.00000 0.31418 0.00000
0.00000 0.31347 0.00000
0.13907 0.31310 0.00000
0.23599 0.31223 0.00000
0.31767 0.31149 0.00000
0.39195 0.31307 0.00000
0.45669 0.31437 0.00000
0.51741 0.31520 0.00000
0.57208 0.31431 0.00000
0.62529 0.31276 0.00000
0.68428 0.31304 0.00000
0.73392 0.31298 0.00000
0.77430 0.31114 0.00000
0.81093 0.31245 0.00000
0.84474 0.31324 0.00000
0.87715 0.31371 0.01914
0.90243 0.31571 0.03621
0.92394 0.32057 0.04124
0.94067 0.32621 0.04892
0.95521 0.33008 0.07701
0.96445 0.33534 0.08548
0.96794 0.34010 0.08291
0.96982 0.34477 0.07552
0.96948 0.34785 0.06349
0.96879 0.34962 0.05062
0.96806 0.35409 0.03015
0.96734 0.35909 0.00635
0.00000 0.36678 0.06966
0.00000 0.36626 0.06556
0.00000 0.36466 0.06166
0.00000 0.36212 0.05762
0.00000 0.35967 0.05192
0.00000 0.35817 0.03872
0.00000 0.35789 0.01428
0.09051 0.35927 0.00000
0.20195 0.35914 0.00000
0.28528 0.35980 0.00000
0.36337 0.36058 0.00000
0.43918 0.36277 0.00000
0.50946 0.36503 0.00000
0.57115 0.36360 0.00000
0.62456 0.36317 0.00000
0.67985 0.36445 0.00000
0.72833 0.36571 0.00000
0.76842 0.36547 0.00000
0.80650 0.36558 0.00000
0.84025 0.36460 0.00000
0.87152 0.36220 0.00000
0.89878 0.36212 0.01342
0.92364 0.36310 0.03042
0.94287 0.36375 0.04786
0.95805 0.36329 0.07954
0.96822 0.36540 0.09310
0.97153 0.36630 0.09370
0.97326 0.36761 0.08873
0.97266 0.36895 0.07915
0.97194 0.37021 0.06935
0.97120 0.37484 0.05441
0.97050 0.37972 0.03474
0.00000 0.40900 0.09794
0.00000 0.40867 0.09483
0.00000 0.40790 0.09182
0.00000 0.40566 0.08924
0.00000 0.40281 0.08608
0.00000 0.40060 0.07845
0.00000 0.40069 0.06260
0.02784 0.40178 0.02972
0.16484 0.40365 0.00000
0.25250 0.40619 0.00000
0.33222 0.40739 0.00000
0.40991 0.40833 0.00000
0.48691 0.41163 0.00000
0.56095 0.41286 0.00000
0.62331 0.41290 0.00000
0.67853 0.41596 0.00000
0.72610 0.41859 0.00000
0.76539 0.41639 0.00000
0.80251 0.41827 0.00000
0.83526 0.41756 0.00000
0.86473 0.41558 0.00000
0.89283 0.41268 0.00000
0.92000 0.41010 0.00031
0.94150 0.40830 0.02528
0.95758 0.40509 0.06425
0.96904 0.40303 0.08360
0.97321 0.40183 0.08962
0.97565 0.40025 0.09219
0.97527 0.39765 0.08840
0.97446 0.39584 0.08003
0.97360 0.39891 0.06703
0.97299 0.40279 0.05352
0.00000 0.45012 0.12532
0.00000 0.44987 0.12286
0.00000 0.44945 0.12065
0.00000 0.44831 0.11919
0.00000 0.44648 0.11821
0.00000 0.44483 0.11408
0.00000 0.44443 0.10336
0.00000 0.44555 0.08302
0.13130 0.44744 0.04983
0.22582 0.44991 0.00009
0.30273 0.45222 0.00000
0.38139 0.45451 0.00000
0.45839 0.45661 0.00000
0.53841 0.46173 0.00000
0.61432 0.46323 0.00000
0.67464 0.46575 0.00000
0.72442 0.46816 0.00000
0.76348 0.46926 0.00000
0.80017 0.46854 0.00000
0.83266 0.46815 0.00000
0.86023 0.46776 0.00000
0.88731 0.46469 0.00000
0.91424 0.46187 0.00000
0.93725 0.45669 0.00000
0.95423 0.44980 0.03001
0.96661 0.44636 0.05879
0.97264 0.44375 0.07054
0.97598 0.43945 0.07745
0.97588 0.43493 0.07898
0.97560 0.43047 0.07802
0.97505 0.43036 0.07042
0.97479 0.43094 0.06385
0.00000 0.49294 0.15331
0.00000 0.49280 0.15140
0.00000 0.49264 0.14978
0.00000 0.49216 0.14906
0.00000 0.49105 0.14977
0.00000 0.48983 0.14827
0.00000 0.48927 0.14150
0.00000 0.49013 0.12708
0.09189 0.49210 0.10638
0.19666 0.49464 0.07735
0.28227 0.49793 0.02346
0.35822 0.50033 0.00000
0.43578 0.50472 0.00000
0.51391 0.50952 0.00000
0.59266 0.51349 0.00000
0.66268 0.51556 0.00000
0.71663 0.51789 0.00000
0.75820 0.51840 0.00000
0.79500 0.52045 0.00000
0.82941 0.51879 0.00000
0.85879 0.51609 0.00000
0.88417 0.51585 0.00000
0.90994 0.51304 0.00000
0.93257 0.50853 0.00000
0.94835 0.50033 0.00000
0.96182 0.49292 0.01606
0.96952 0.48884 0.03872
0.97397 0.48540 0.04972
0.97427 0.48065 0.05282
0.97453 0.47373 0.05708
0.97444 0.47088 0.05614
0.97465 0.46798 0.05768
0.00000 0.53635 0.18307
0.00000 0.53631 0.18138
0.00000 0.53629 0.18000
0.00000 0.53620 0.17959
0.00000 0.53567 0.18147
0.00000 0.53483 0.18190
0.00000 0.53442 0.17818
0.00000 0.53516 0.16819
0.03568 0.53740 0.15245
0.17732 0.54067 0.13213
0.26013 0.54401 0.10295
0.34100 0.54761 0.05283
0.41606 0.55154 0.00000
0.49345 0.55678 0.00000
0.56924 0.56044 0.00000
0.64046 0.56376 0.00000
0.69940 0.56718 0.00000
0.74684 0.56614 0.00000
0.78594 0.56814 0.00000
0.82048 0.56878 0.00000
0.85270 0.56653 0.00000
0.88106 0.56380 0.00000
0.90663 0.56219 0.00000
0.92900 0.55954 0.00000
0.94515 0.55244 0.00000
0.95630 0.54397 0.00000
0.96513 0.53836 0.00000
0.97095 0.53313 0.00665
0.97120 0.52871 0.01353
0.97144 0.52298 0.01601
0.97173 0.51910 0.01660
0.97206 0.51417 0.02556
0.00000 0.58035 0.21684
0.00000 0.58036 0.21524
0.00000 0.58043 0.21383
0.00000 0.58059 0.21320
0.00000 0.58073 0.21562
0.00000 0.58020 0.21740
0.00000 0.57971 0.21562
0.00000 0.58021 0.20822
0.00000 0.58227 0.19422
0.15726 0.58518 0.17764
0.24829 0.58865 0.15665
0.32357 0.59246 0.12688
0.40075 0.59648 0.08040
0.47471 0.60098 0.00146
0.54881 0.60554 0.00000
0.61692 0.60874 0.00000
0.67723 0.61196 0.00000
0.72864 0.61455 0.00000
0.77061 0.61466 0.00000
0.80766 0.61557 0.00000
0.84170 0.61403 0.00000
0.87119 0.61317 0.00000
0.89997 0.60939 0.00000
0.92470 0.60521 0.00000
0.94219 0.60141 0.00000
0.95338 0.59530 0.00000
0.96188 0.58788 0.00000
0.96767 0.58224 0.00000
0.96849 0.57888 0.00000
0.96848 0.57266 0.00000
0.96865 0.56841 0.00000
0.96902 0.56410 0.00000
0.00000 0.62120 0.25519
0.00000 0.62128 0.25393
0.00000 0.62141 0.25278
0.00000 0.62158 0.25188
0.00000 0.62166 0.25251
0.00000 0.62124 0.25424
0.00000 0.62064 0.25322
0.00000 0.62086 0.24776
0.00000 0.62278 0.23629
0.15270 0.62601 0.21997
0.23917 0.62944 0.20262
0.31155 0.63304 0.17953
0.38688 0.63782 0.14792
0.46112 0.64211 0.10164
0.53094 0.64685 0.02221
0.59732 0.65093 0.00000
0.65581 0.65332 0.00000
0.70804 0.65577 0.00000
0.75316 0.65832 0.00000
0.79245 0.65889 0.00000
0.82663 0.65880 0.00000
0.85903 0.65590 0.00000
0.88812 0.65416 0.00000
0.91536 0.65033 0.00000
0.93713 0.64445 0.00000
0.94926 0.63962 0.00000
0.95829 0.63552 0.00000
0.96502 0.62944 0.00000
0.96609 0.62510 0.00000
0.96626 0.62105 0.00000
0.96622 0.61688 0.00000
0.96641 0.61219 0.00000
0.00000 0.65745 0.29360
0.00000 0.65754 0.29252
0.00000 0.65767 0.29148
0.00000 0.65783 0.29048
0.00000 0.65787 0.29027
0.00000 0.65750 0.29135
0.00000 0.65703 0.29118
0.00000 0.65719 0.28754
0.01025 0.65887 0.27876
0.16230 0.66217 0.26456
0.24309 0.66593 0.24776
0.31308 0.67009 0.22726
0.37728 0.67425 0.20137
0.45128 0.67907 0.16855
0.51951 0.68394 0.12220
0.58214 0.68870 0.05384
0.63936 0.69176 0.00000
0.68929 0.69324 0.00000
0.73492 0.69517 0.00000
0.77576 0.69776 0.00000
0.81159 0.69799 0.00000
0.84320 0.69628 0.00000
0.87525 0.69269 0.00000
0.90336 0.69002 0.00000
0.92663 0.68652 0.00000
0.94157 0.68160 0.00000
0.95280 0.67605 0.00000
0.96056 0.67238 0.00000
0.96207 0.66866 0.00000
0.96274 0.66371 0.00000
0.96294 0.66010 0.00000
0.96281 0.65667 0.00000
0.00000 0.68867 0.32956
0.00000 0.68875 0.32854
0.00000 0.68886 0.32751
0.00000 0.68897 0.32644
0.00000 0.68895 0.32592
0.00000 0.68854 0.32665
0.00000 0.68800 0.32721
0.00000 0.68817 0.32521
0.09071 0.68963 0.31929
0.18456 0.69255 0.30849
0.26075 0.69643 0.29326
0.32181 0.70049 0.27530
0.38479 0.70491 0.25149
0.44554 0.71013 0.22460
0.51285 0.71624 0.19124
0.57275 0.72149 0.14666
0.62633 0.72551 0.08802
0.67502 0.72747 0.00000
0.71830 0.72845 0.00000
0.75940 0.73100 0.00000
0.79688 0.73307 0.00000
0.83011 0.73203 0.00000
0.85942 0.72894 0.00000
0.88964 0.72531 0.00000
0.91421 0.72201 0.00000
0.92945 0.72080 0.00000
0.94260 0.71753 0.00000
0.95292 0.71100 0.00000
0.95555 0.70683 0.00000
0.95608 0.70373 0.00000
0.95686 0.69964 0.00000
0.95749 0.69517 0.00000
0.00000 0.71537 0.36301
0.00000 0.71545 0.36196
0.00000 0.71553 0.36088
0.00000 0.71562 0.35966
0.00000 0.71555 0.35893
0.00000 0.71510 0.35956
0.00000 0.71451 0.36073
0.07499 0.71468 0.35993
0.14898 0.71600 0.35639
0.21649 0.71865 0.34876
0.28069 0.72244 0.33682
0.33948 0.72694 0.32121
0.39485 0.73178 0.30137
0.45033 0.73716 0.27626
0.50859 0.74349 0.24928
0.56704 0.74976 0.21639
0.61744 0.75446 0.17386
0.66413 0.75745 0.12242
0.70692 0.75941 0.03738
0.74556 0.76157 0.00000
0.78345 0.76391 0.00000
0.81793 0.76428 0.00000
0.84733 0.76173 0.00000
0.87404 0.75746 0.00000
0.90061 0.75468 0.00000
0.91908 0.75252 0.00000
0.93084 0.75330 0.00000
0.94105 0.75117 0.00000
0.94618 0.74411 0.00000
0.94766 0.73822 0.00000
0.94803 0.73595 0.00000
0.94910 0.73275 0.00000
0.08885 0.73939 0.39348
0.09084 0.73945 0.39223
0.09313 0.73953 0.39082
0.09652 0.73964 0.38889
0.09974 0.73960 0.38778
0.10341 0.73918 0.38921
0.11903 0.73874 0.39136
0.15156 0.73896 0.39199
0.19613 0.74023 0.39030
0.24813 0.74275 0.38550
0.30221 0.74637 0.37657
0.35888 0.75105 0.36368
0.40905 0.75609 0.34718
0.46208 0.76181 0.32600
0.51128 0.76770 0.30184
0.56533 0.77422 0.27670
0.61492 0.77974 0.24481
0.65838 0.78384 0.20599
0.69919 0.78665 0.16006
0.73726 0.78940 0.09502
0.77266 0.79216 0.00000
0.80649 0.79271 0.00000
0.83727 0.79101 0.00000
0.86390 0.78766 0.00000
0.88776 0.78343 0.00000
0.90832 0.78235 0.00000
0.92172 0.78099 0.00000
0.93020 0.78169 0.00000
0.93440 0.78027 0.00000
0.93738 0.77427 0.00000
0.93876 0.76838 0.00000
0.93933 0.76563 0.00000
0.16851 0.76165 0.42260
0.16956 0.76169 0.42138
0.17077 0.76175 0.42003
0.17250 0.76182 0.41825
0.17467 0.76184 0.41672
0.17746 0.76169 0.41710
0.18550 0.76145 0.41927
0.20566 0.76164 0.42118
0.23718 0.76278 0.42105
0.27858 0.76505 0.41867
0.32586 0.76850 0.41292
0.37605 0.77297 0.40340
0.42694 0.77828 0.39046
0.47394 0.78385 0.37320
0.52401 0.79014 0.35203
0.56843 0.79586 0.32882
0.61615 0.80184 0.30531
0.65801 0.80682 0.27531
0.69535 0.81060 0.23850
0.73183 0.81364 0.19733
0.76599 0.81653 0.14462
0.79724 0.81792 0.07395
0.82784 0.81726 0.02473
0.85601 0.81470 0.00101
0.87991 0.81169 0.00000
0.89820 0.80846 0.00000
0.91155 0.80766 0.00000
0.92077 0.80639 0.00000
0.92504 0.80626 0.00000
0.92669 0.80609 0.00000
0.92830 0.80220 0.00000
0.92998 0.79646 0.00000
0.22522 0.78238 0.45200
0.22602 0.78242 0.45087
0.22694 0.78247 0.44960
0.22827 0.78255 0.44794
0.23007 0.78262 0.44630
0.23260 0.78263 0.44574
0.23802 0.78255 0.44722
0.25176 0.78268 0.44972
0.27549 0.78355 0.45071
0.30875 0.78542 0.44984
0.34927 0.78842 0.44642
0.39362 0.79248 0.43986
0.44266 0.79763 0.43009
0.48850 0.80320 0.41581
0.53493 0.80954 0.39752
0.57935 0.81581 0.37668
0.61977 0.82136 0.35599
0.66102 0.82710 0.33500
0.69708 0.83163 0.30734
0.73020 0.83488 0.27352
0.76215 0.83771 0.23530
0.79232 0.84007 0.18842
0.82048 0.84067 0.13388
0.84856 0.83961 0.11301
0.87334 0.83688 0.10049
0.89162 0.83466 0.07290
0.90151 0.83217 0.00000
0.91108 0.83144 0.00225
0.91725 0.83074 0.03071
0.91940 0.82987 0.03962
0.91937 0.83017 0.05192
0.92057 0.82705 0.02085
0.27280 0.80263 0.48113
0.27353 0.80269 0.48003
0.27438 0.80277 0.47880
0.27566 0.80291 0.47718
0.27743 0.80309 0.47545
0.28000 0.80329 0.47446
0.28459 0.80346 0.47535
0.29478 0.80359 0.47786
0.31356 0.80410 0.47965
0.34065 0.80550 0.47972
0.37546 0.80797 0.47803
0.41524 0.81146 0.47377
0.45764 0.81570 0.46625
0.50345 0.82104 0.45515
0.54619 0.82715 0.44005
0.59162 0.83452 0.42292
0.62933 0.84039 0.40388
0.66700 0.84625 0.38793
0.70279 0.85138 0.36963
0.73345 0.85474 0.34256
0.76188 0.85727 0.30973
0.79013 0.85978 0.27452
0.81749 0.86177 0.23416
0.84309 0.86183 0.19538
0.86741 0.86065 0.17678
0.88635 0.85823 0.15910
0.89794 0.85780 0.14549
0.90366 0.85594 0.10061
0.90962 0.85622 0.10690
0.91336 0.85499 0.12032
0.91426 0.85354 0.13193
0.91379 0.85198 0.13034
0.32631 0.82790 0.51855
0.32720 0.82806 0.51766
0.32824 0.82825 0.51667
0.32976 0.82854 0.51532
0.33185 0.82890 0.51380
0.33462 0.82924 0.51251
0.33863 0.82938 0.51217
0.34605 0.82913 0.51316
0.36054 0.82886 0.51440
0.38262 0.82949 0.51456
0.41188 0.83106 0.51352
0.44548 0.83336 0.51019
0.48102 0.83613 0.50362
0.52100 0.83995 0.49436
0.56302 0.84607 0.48346
0.60454 0.85363 0.47049
0.64692 0.86211 0.45695
0.67930 0.86747 0.44214
0.71208 0.87211 0.42923
0.74080 0.87497 0.40880
0.76625 0.87691 0.38098
0.79141 0.87883 0.35087
0.81707 0.88093 0.32026
0.84171 0.88249 0.28584
0.86335 0.88166 0.24684
0.88293 0.88081 0.22775
0.89648 0.88095 0.22580
0.90320 0.88205 0.22424
0.90498 0.88135 0.19012
0.90755 0.87884 0.17390
0.91096 0.87944 0.20949
0.91098 0.87718 0.21558
0.37397 0.85230 0.55391
0.37492 0.85250 0.55310
0.37601 0.85274 0.55216
0.37759 0.85308 0.55086
0.37971 0.85350 0.54930
0.38246 0.85393 0.54784
0.38622 0.85419 0.54710
0.39270 0.85411 0.54773
0.40549 0.85395 0.54932
0.42551 0.85449 0.55038
0.45158 0.85586 0.55044
0.48150 0.85773 0.54872
0.51330 0.85984 0.54440
0.54696 0.86274 0.53786
0.58640 0.86806 0.53093
0.62503 0.87539 0.52238
0.66530 0.88468 0.51448
0.70003 0.89198 0.50420
0.72499 0.89412 0.48765
0.75091 0.89559 0.47077
0.77464 0.89692 0.44950
0.79720 0.89845 0.42511
0.82019 0.90006 0.39998
0.84309 0.90159 0.37179
0.86423 0.90223 0.33652
0.88216 0.90150 0.30070
0.89703 0.90319 0.30185
0.90414 0.90426 0.30699
0.90615 0.90429 0.29442
0.90650 0.90282 0.26626
0.90850 0.90306 0.27386
0.91049 0.90321 0.29599
0.41361 0.87383 0.58461
0.41473 0.87413 0.58396
0.41601 0.87446 0.58319
0.41783 0.87493 0.58211
0.42026 0.87551 0.58077
0.42336 0.87614 0.57946
0.42730 0.87662 0.57868
0.43330 0.87677 0.57911
0.44465 0.87674 0.58082
0.46317 0.87715 0.58264
0.48668 0.87826 0.58340
0.51394 0.87969 0.58277
0.54285 0.88131 0.58014
0.57302 0.88361 0.57579
0.60740 0.88771 0.57135
0.64402 0.89423 0.56641
0.67877 0.90206 0.56022
0.71418 0.91074 0.55459
0.73926 0.91382 0.53954
0.76104 0.91430 0.52276
0.78423 0.91563 0.50930
0.80599 0.91754 0.49424
0.82687 0.91942 0.47609
0.84771 0.92077 0.45386
0.86765 0.92161 0.42537
0.88548 0.92240 0.39635
0.89855 0.92293 0.37969
0.90605 0.92406 0.38356
0.90862 0.92378 0.37696
0.90966 0.92394 0.36453
0.91039 0.92494 0.35590
0.91120 0.92485 0.36044
0.42612 0.88119 0.59745
0.42721 0.88146 0.59683
0.42844 0.88176 0.59609
0.43021 0.88219 0.59503
0.43258 0.88273 0.59368
0.43561 0.88333 0.59227
0.43951 0.88387 0.59131
0.44533 0.88428 0.59154
0.45603 0.88470 0.59339
0.47420 0.88561 0.59617
0.49763 0.88721 0.59813
0.52514 0.88939 0.59922
0.55498 0.89212 0.59922
0.58639 0.89553 0.59835
0.61887 0.89998 0.59677
0.65517 0.90635 0.59566
0.68865 0.91356 0.59173
0.71992 0.92075 0.58524
0.74921 0.92665 0.57623
0.77034 0.92900 0.56303
0.79195 0.93088 0.55488
0.81392 0.93355 0.54913
0.83447 0.93643 0.54041
0.85354 0.93820 0.52428
0.87179 0.93882 0.50145
0.88815 0.93938 0.47736
0.90071 0.94024 0.46046
0.90725 0.93990 0.44900
0.91121 0.94003 0.44511
0.91310 0.94012 0.43782
0.91433 0.94142 0.43260
0.91542 0.94320 0.43239
0.42526 0.88094 0.59994
0.42627 0.88117 0.59931
0.42743 0.88144 0.59858
0.42910 0.88182 0.59752
