cube lut/nostalgic neg_sRGB.cube
# sRGB
# github.com/abpy/FujifilmCameraProfiles
LUT_3D_SIZE 5
DOMAIN_MIN 0.000000 0.000000 0.000000
DOMAIN_MAX 0.903226 0.903226 0.903226
0.01590 0.01602 0.01456
0.29909 0.02028 0.00000
0.66042 0.05051 0.00000
0.88171 0.18474 0.00000
0.95066 0.27260 0.00000
0.00000 0.23305 0.00000
0.21841 0.21630 0.00000
0.64391 0.20755 0.00000
0.89880 0.25369 0.01775
0.96234 0.31577 0.00777
0.00000 0.53635 0.18307
0.00000 0.53516 0.16819
0.56924 0.56044 0.00000
0.88106 0.56380 0.00000
0.97120 0.52871 0.01353
0.16851 0.76165 0.42260
0.20566 0.76164 0.42118
0.52401 0.79014 0.35203
0.79724 0.81792 0.07395
0.92504 0.80626 0.00000
0.42526 0.88094 0.59994
0.44348 0.88415 0.59377
0.62322 0.90651 0.61183
0.81805 0.94406 0.58414
0.91296 0.95203 0.49649
0.01377 0.01103 0.36871
0.30538 0.02513 0.23354
0.68296 0.06431 0.15723
0.91029 0.19876 0.13536
0.96046 0.27462 0.10988
0.00000 0.24338 0.28594
0.27050 0.26197 0.25321
0.65650 0.27459 0.19440
0.92007 0.30982 0.13225
0.97524 0.34113 0.13419
0.00000 0.54671 0.33213
0.00000 0.55176 0.29727
0.59422 0.57356 0.22238
0.88554 0.58834 0.17078
0.97653 0.56848 0.08144
0.13398 0.75712 0.49800
0.23830 0.76038 0.48698
0.54901 0.79400 0.42918
0.81282 0.82279 0.27886
0.93461 0.81910 0.21302
0.40109 0.87280 0.63628
0.44213 0.87858 0.63502
0.64088 0.90968 0.65073
0.82803 0.94726 0.62789
0.92403 0.96078 0.55745
0.11789 0.12619 0.74692
0.32818 0.13934 0.68651
0.73533 0.22742 0.57516
0.95229 0.31729 0.52242
1.00000 0.38920 0.48501
0.00000 0.34464 0.69411
0.32813 0.35421 0.64860
0.71023 0.39077 0.57766
0.94333 0.42796 0.53594
1.00000 0.48886 0.52566
0.00000 0.59150 0.64107
0.10341 0.60067 0.62481
0.65826 0.63115 0.60340
0.91287 0.63602 0.56203
1.00000 0.65057 0.54267
0.18652 0.76505 0.66467
0.30871 0.77369 0.66028
0.59866 0.80968 0.64727
0.85469 0.83550 0.61141
0.97054 0.84186 0.58846
0.44567 0.87679 0.74296
0.50919 0.88835 0.74879
0.68266 0.91921 0.75989
0.85595 0.95648 0.75788
0.95029 0.96637 0.70985
0.22389 0.31735 0.87492
0.24898 0.32711 0.87603
0.63573 0.40750 0.86333
0.90530 0.51981 0.83268
0.99657 0.53424 0.76417
0.04378 0.47058 0.90598
0.26625 0.48162 0.90071
0.67840 0.53340 0.87389
0.91337 0.59576 0.82718
1.00000 0.61408 0.77669
0.00000 0.65854 0.86470
0.31053 0.66972 0.86258
0.69693 0.69788 0.84596
0.91867 0.72472 0.82201
1.00000 0.73845 0.80518
0.31061 0.79163 0.82145
0.41648 0.80385 0.82515
0.66051 0.84043 0.84094
0.88775 0.86615 0.83529
0.99274 0.87071 0.81689
0.49051 0.88149 0.84118
0.56095 0.89756 0.84792
0.71909 0.92937 0.86616
0.87746 0.96237 0.87742
0.97082 0.97278 0.85222
0.20132 0.36938 0.89110
0.29900 0.37269 0.88519
0.67402 0.44176 0.86503
0.90157 0.53485 0.85090
0.97621 0.62707 0.86279
0.14388 0.49728 0.91314
0.33049 0.50806 0.91454
0.69858 0.55880 0.90228
0.90775 0.63210 0.88530
0.98384 0.70845 0.89569
0.37281 0.72133 0.94165
0.49796 0.73413 0.95076
0.74577 0.76827 0.96119
0.91861 0.80088 0.94852
0.99350 0.81691 0.93524
0.46001 0.82951 0.93262
0.53438 0.84050 0.94444
0.72389 0.86995 0.96644
0.90529 0.89586 0.97117
0.99203 0.90314 0.95841
0.56450 0.89626 0.91939
0.62171 0.90756 0.92857
0.75264 0.93592 0.95183
0.88631 0.96292 0.97059
0.98037 0.96986 0.95848
