cube lut/nostalgic neg_DisplayP3.cube
# DisplayP3
# github.com/abpy/FujifilmCameraProfiles
LUT_3D_SIZE 5
DOMAIN_MIN 0.000000 0.000000 0.000000
DOMAIN_MAX 0.903226 0.903226 0.903226
0.01592 0.01601 0.01469
0.30525 0.05128 0.01178
0.66301 0.15420 0.05375
0.82778 0.25557 0.05936
0.86987 0.30299 0.00000
0.00000 0.24681 0.06759
0.21486 0.21466 0.02507
0.64918 0.22391 0.08406
0.84423 0.30924 0.11230
0.87861 0.34583 0.02813
0.08030 0.54470 0.27205
0.12337 0.53329 0.22982
0.55914 0.55584 0.13014
0.86305 0.54680 0.17329
0.90580 0.47945 0.17772
0.35237 0.75597 0.48960
0.38093 0.76167 0.47148
0.48969 0.77197 0.44287
0.79353 0.80743 0.24828
0.91000 0.77064 0.22963
0.44990 0.84758 0.60854
0.49236 0.85827 0.60959
0.55691 0.87624 0.60459
0.78947 0.92516 0.60503
0.90451 0.92916 0.48171
0.01316 0.01232 0.37140
0.31482 0.05804 0.22992
0.69645 0.15673 0.17779
0.84495 0.26263 0.17751
0.87541 0.30989 0.14130
0.00000 0.24534 0.29207
0.26901 0.26227 0.25419
0.66543 0.28590 0.19812
0.87045 0.33212 0.19379
0.88541 0.34251 0.16330
0.05624 0.54737 0.34794
0.09896 0.54219 0.31720
0.58356 0.56921 0.22536
0.86474 0.57643 0.19872
0.91173 0.51366 0.20169
0.35747 0.75687 0.51782
0.37614 0.75782 0.49388
0.51088 0.77298 0.45379
0.80230 0.81797 0.28327
0.90836 0.79802 0.25046
0.45672 0.84790 0.62715
0.49531 0.85762 0.62564
0.55451 0.87519 0.60880
0.80320 0.93259 0.62128
0.91249 0.94231 0.52364
0.14955 0.14453 0.73227
0.34932 0.16745 0.66981
0.73943 0.27172 0.57135
0.90426 0.35302 0.50894
0.92036 0.38419 0.45026
0.00000 0.34490 0.70999
0.33769 0.36133 0.65084
0.71280 0.40851 0.57492
0.91009 0.45609 0.54229
0.93721 0.47563 0.50595
0.00000 0.58823 0.64872
0.15254 0.59060 0.62980
0.65356 0.63209 0.60646
0.89941 0.63593 0.56256
0.95483 0.64317 0.53950
0.34668 0.75467 0.66530
0.36071 0.75602 0.65989
0.55962 0.78903 0.64653
0.84599 0.83318 0.60220
0.94735 0.83516 0.56695
0.44778 0.83720 0.70218
0.47549 0.84315 0.70677
0.57860 0.87344 0.72760
0.83117 0.94072 0.74050
0.94476 0.96494 0.68486
0.24364 0.32052 0.84479
0.28497 0.32415 0.84115
0.66914 0.42323 0.82780
0.87976 0.54580 0.82932
0.92321 0.53129 0.76775
0.20895 0.47436 0.88107
0.31557 0.48485 0.88024
0.69196 0.54738 0.86226
0.89606 0.61004 0.82173
0.94403 0.60269 0.76776
0.19982 0.65180 0.86060
0.33674 0.66369 0.85732
0.69901 0.70469 0.85162
0.91002 0.73425 0.82554
0.96854 0.74453 0.79545
0.36686 0.76811 0.82052
0.40027 0.77664 0.81654
0.62945 0.82377 0.83424
0.88399 0.86689 0.83848
0.97283 0.87153 0.82253
0.45720 0.82813 0.81932
0.48363 0.83662 0.82043
0.62546 0.88574 0.83878
0.85733 0.95203 0.87404
0.96940 0.97172 0.84945
0.24345 0.37551 0.86225
0.35206 0.37825 0.85327
0.69609 0.46249 0.83404
0.88391 0.55484 0.82539
0.92153 0.61883 0.83969
0.24794 0.49682 0.88502
0.38343 0.50981 0.88800
0.71659 0.56973 0.87427
0.89416 0.63475 0.85732
0.93689 0.69624 0.87198
0.37705 0.70585 0.91174
0.51315 0.72762 0.92727
0.76103 0.77313 0.94573
0.91935 0.80887 0.93567
0.96561 0.82594 0.93070
0.45976 0.80360 0.89581
0.51834 0.81762 0.91017
0.70646 0.85912 0.95105
0.90540 0.89753 0.96673
0.97919 0.90550 0.95491
0.48231 0.83130 0.88609
0.51284 0.84631 0.88962
0.67819 0.89941 0.92128
0.86910 0.95467 0.96456
0.97855 0.97020 0.95962
