cube lut/pro neg std_sRGB.cube
# sRGB
# github.com/abpy/FujifilmCameraProfiles
LUT_3D_SIZE 8
DOMAIN_MIN 0.000000 0.000000 0.000000
DOMAIN_MAX 0.903226 0.903226 0.903226
0.00000 0.00000 0.00000
0.06164 0.00913 0.00308
0.23034 0.02665 0.01044
0.46796 0.03885 0.04702
0.68619 0.05946 0.05863
0.85067 0.09460 0.01675
0.96817 0.12647 0.00000
1.00000 0.16498 0.00000
0.00000 0.06861 0.01259
0.07799 0.08443 0.01839
0.25411 0.10278 0.02803
0.48613 0.11113 0.05249
0.69609 0.12611 0.07467
0.85588 0.15180 0.04359
0.97238 0.17606 0.00000
1.00000 0.20600 0.00000
0.00000 0.25183 0.00000
0.00000 0.26065 0.00000
0.25852 0.27618 0.00339
0.49749 0.29017 0.02635
0.70766 0.28126 0.05122
0.86752 0.26544 0.06005
0.98246 0.27356 0.06412
1.00000 0.29102 0.00000
0.00000 0.46901 0.00000
0.00000 0.47193 0.00000
0.13781 0.47907 0.00000
0.45925 0.49244 0.00000
0.68635 0.49882 0.00000
0.85796 0.49151 0.00757
0.98183 0.46845 0.02767
1.00000 0.44427 0.00000
0.00000 0.66327 0.00000
0.00000 0.66504 0.00000
0.00000 0.67083 0.00000
0.36859 0.67725 0.00000
0.63517 0.68065 0.00000
0.82029 0.68397 0.00000
0.95264 0.67302 0.00000
1.00000 0.65879 0.00375
0.00000 0.81555 0.00000
0.00000 0.81709 0.00000
0.00000 0.82035 0.00000
0.20334 0.82224 0.00000
0.56626 0.82395 0.00000
0.76924 0.82474 0.00000
0.91607 0.82658 0.00000
1.00000 0.81888 0.06013
0.00000 0.92308 0.00000
0.00000 0.92377 0.00000
0.00000 0.92606 0.00000
0.00000 0.93013 0.00000
0.49535 0.92838 0.00000
0.71624 0.92936 0.10118
0.86892 0.92776 0.11806
0.98317 0.92737 0.16021
0.00000 0.99305 0.05634
0.00000 0.99344 0.00823
0.00000 0.99401 0.00355
0.00000 0.99451 0.12478
0.44563 0.99526 0.18837
0.67826 0.99572 0.19242
0.83883 0.99452 0.24670
0.95490 0.99451 0.28122
0.00883 0.00792 0.07640
0.09296 0.02967 0.10015
0.26196 0.04896 0.13930
0.48479 0.06342 0.18647
0.69654 0.06048 0.20463
0.85723 0.07826 0.20362
0.97317 0.10654 0.19968
1.00000 0.14790 0.15069
0.01360 0.09732 0.08951
0.10961 0.10997 0.10988
0.28068 0.12709 0.14129
0.50035 0.14591 0.18227
0.70601 0.14701 0.20870
0.86269 0.14984 0.21520
0.97777 0.16465 0.21118
1.00000 0.19313 0.16867
0.00000 0.26791 0.08570
0.01795 0.27483 0.09966
0.27823 0.28796 0.12524
0.50090 0.30763 0.16147
0.71031 0.30790 0.18231
0.87093 0.29049 0.18978
0.98744 0.27899 0.21132
1.00000 0.29202 0.20666
0.00000 0.47490 0.03283
0.00000 0.47787 0.04926
0.18774 0.48450 0.08342
0.47109 0.49756 0.11281
0.69008 0.50589 0.14294
0.85863 0.50229 0.16096
0.98305 0.48203 0.16759
1.00000 0.45893 0.16941
0.00000 0.66479 0.00000
0.00000 0.66833 0.00000
0.00000 0.67161 0.00000
0.39148 0.67763 0.07269
0.64243 0.68115 0.10337
0.82272 0.68496 0.13781
0.95394 0.67680 0.14516
1.00000 0.66384 0.15382
0.00000 0.81467 0.00000
0.00000 0.81667 0.00000
0.00000 0.81997 0.00000
0.24542 0.82115 0.03088
0.57769 0.82245 0.11592
0.77479 0.82261 0.12715
0.91852 0.82552 0.14166
1.00000 0.81939 0.19574
0.00000 0.92217 0.03640
0.00000 0.92280 0.00000
0.00000 0.92433 0.06335
0.00000 0.92746 0.11074
0.51185 0.92610 0.16012
0.72340 0.92687 0.20735
0.87346 0.92450 0.21712
0.98511 0.92606 0.25172
0.00000 0.99323 0.16432
0.00000 0.99356 0.14649
0.00000 0.99411 0.15651
0.00000 0.99438 0.20910
0.46305 0.99518 0.25595
0.68605 0.99479 0.26047
0.84344 0.99350 0.31041
0.95732 0.99355 0.34358
0.03266 0.02751 0.27252
0.13115 0.04135 0.29714
0.31342 0.07551 0.33706
0.52627 0.10256 0.37444
0.71827 0.12607 0.40533
0.87193 0.15120 0.43523
0.98435 0.14402 0.43935
1.00000 0.14728 0.40703
0.07122 0.14473 0.28222
0.15856 0.15679 0.29678
0.32378 0.17047 0.32854
0.52778 0.19016 0.36513
0.71765 0.21800 0.40524
0.87578 0.22691 0.43262
0.98801 0.22129 0.44608
1.00000 0.21585 0.42123
0.00000 0.29992 0.28017
0.09203 0.30469 0.28870
0.31549 0.31542 0.31562
0.52305 0.32737 0.34231
0.71924 0.34320 0.38140
0.87688 0.35247 0.40875
0.99181 0.34725 0.42433
1.00000 0.33780 0.41936
0.00000 0.49176 0.25842
0.00000 0.49403 0.26713
0.24067 0.49817 0.28775
0.49566 0.50877 0.31398
0.70056 0.51926 0.34845
0.86094 0.52318 0.37411
0.98184 0.52054 0.39240
1.00000 0.50305 0.38375
0.00000 0.67009 0.24551
0.00000 0.67296 0.25324
0.00000 0.67618 0.27238
0.43165 0.68068 0.29776
0.65834 0.68458 0.32302
0.82913 0.68945 0.34625
0.95615 0.68744 0.36437
1.00000 0.67668 0.36157
0.00000 0.81379 0.25002
0.00000 0.81532 0.25675
0.00000 0.81766 0.27013
0.32830 0.81918 0.29263
0.60281 0.81913 0.31958
0.78548 0.81888 0.33734
0.92080 0.82320 0.35729
1.00000 0.82083 0.38672
0.00000 0.91863 0.28112
0.00000 0.91943 0.28423
0.00000 0.92114 0.29306
0.17362 0.92222 0.30818
0.54778 0.92198 0.34359
0.74130 0.92125 0.37371
0.88277 0.91985 0.38085
0.98826 0.92443 0.41798
0.00000 0.99430 0.31894
0.00000 0.99460 0.31777
0.00000 0.99473 0.33338
0.00000 0.99436 0.35853
0.50213 0.99455 0.38538
0.70674 0.99218 0.39656
0.85419 0.99171 0.44075
0.96255 0.99189 0.47043
0.07216 0.05377 0.52233
0.16097 0.06222 0.54172
0.34555 0.08488 0.58409
0.56215 0.13458 0.61459
0.74627 0.17439 0.63010
0.89136 0.20133 0.64635
0.99832 0.22867 0.66130
1.00000 0.26839 0.66495
0.10710 0.17533 0.52575
0.20563 0.18943 0.54354
0.37230 0.21143 0.56682
0.56238 0.24038 0.58294
0.74234 0.26287 0.60914
0.88812 0.28846 0.63538
0.99808 0.30615 0.65697
1.00000 0.33376 0.66470
0.06365 0.33972 0.51112
0.19016 0.34359 0.51734
0.36371 0.35317 0.53433
0.55400 0.36960 0.55834
0.73961 0.37922 0.58444
0.88528 0.39751 0.60995
0.99530 0.41649 0.63419
1.00000 0.43492 0.64659
0.00000 0.51668 0.48317
0.00000 0.51621 0.48855
0.30206 0.51972 0.50485
0.52632 0.52643 0.52616
0.71997 0.53480 0.55086
0.87161 0.54052 0.57330
0.98591 0.54838 0.59638
1.00000 0.55677 0.61046
0.00000 0.68030 0.45727
0.00000 0.68204 0.46340
0.15990 0.68399 0.47944
0.46830 0.68831 0.49761
0.67949 0.69060 0.51985
0.83886 0.69572 0.53957
0.96151 0.69536 0.56303
1.00000 0.69861 0.58571
0.00000 0.81590 0.44963
0.00000 0.81677 0.45439
0.00000 0.81814 0.46691
0.39271 0.81860 0.48789
0.63357 0.81815 0.51121
0.79865 0.81851 0.52986
0.92524 0.82329 0.55070
1.00000 0.82424 0.57208
0.00000 0.91796 0.46299
0.00000 0.91845 0.46723
0.00000 0.91895 0.47656
0.30495 0.91917 0.49299
0.58521 0.91978 0.51824
0.76382 0.91837 0.54396
0.89313 0.92007 0.55730
0.99148 0.92428 0.59021
0.00000 0.99543 0.49358
0.00000 0.99528 0.49743
0.00000 0.99483 0.50646
0.24112 0.99427 0.51989
0.55592 0.99113 0.54253
0.73641 0.99009 0.56005
0.86978 0.99015 0.60084
0.96851 0.98860 0.61517
0.10068 0.08549 0.75213
0.19075 0.08961 0.77695
0.37062 0.11272 0.81193
0.58120 0.14578 0.83917
0.77079 0.21527 0.84931
0.91371 0.25058 0.84926
1.00000 0.27523 0.85586
1.00000 0.30450 0.84134
0.13181 0.19821 0.75888
0.22913 0.20631 0.77537
0.39854 0.22362 0.79243
0.59319 0.25496 0.81200
0.76745 0.31091 0.81439
0.90717 0.33731 0.82252
1.00000 0.35183 0.83682
1.00000 0.37621 0.83504
0.19712 0.39810 0.72166
0.27753 0.40293 0.72733
0.42570 0.41343 0.74011
0.59217 0.42587 0.75370
0.75843 0.43385 0.77393
0.89586 0.45296 0.78638
1.00000 0.46369 0.80445
1.00000 0.48950 0.81569
0.00000 0.54331 0.69160
0.18863 0.54522 0.69715
0.37562 0.55010 0.70923
0.56465 0.55810 0.72417
0.73798 0.56396 0.74090
0.87961 0.57364 0.75629
0.99235 0.57775 0.77141
1.00000 0.59586 0.78268
0.00000 0.69766 0.65750
0.00000 0.69834 0.66129
0.26831 0.69975 0.67204
0.51120 0.70081 0.68841
0.70369 0.70386 0.70337
0.85000 0.70772 0.71835
0.96669 0.70991 0.73488
1.00000 0.71667 0.74995
0.00000 0.82033 0.63418
0.00000 0.82099 0.63828
0.08364 0.82188 0.64800
0.45022 0.82205 0.66238
0.66336 0.82252 0.68002
0.81493 0.82399 0.69399
0.93434 0.82786 0.71120
1.00000 0.83128 0.73136
0.00000 0.91724 0.62714
0.00000 0.91747 0.63081
0.00000 0.91793 0.63917
0.39096 0.91881 0.65290
0.62231 0.92007 0.67198
0.78418 0.92222 0.69008
0.90523 0.92258 0.70799
0.99582 0.92529 0.72990
0.00000 0.99313 0.63588
0.00000 0.99291 0.63959
0.00000 0.99259 0.64724
0.35592 0.99140 0.66007
0.60055 0.98945 0.68090
0.76293 0.98997 0.70118
0.88472 0.98741 0.72622
0.97314 0.98468 0.73863
0.13506 0.12825 0.93305
0.21759 0.13192 0.95859
0.38974 0.15213 0.98419
0.59612 0.17973 1.00000
0.78210 0.22764 1.00000
0.92486 0.28985 0.99594
1.00000 0.33681 0.99365
1.00000 0.37417 0.98008
0.16013 0.23086 0.93856
0.25005 0.23660 0.95133
0.41728 0.25155 0.96738
0.61207 0.27828 0.98318
0.78679 0.31194 0.98544
0.92227 0.37216 0.97769
1.00000 0.41067 0.97635
1.00000 0.43178 0.96938
0.23668 0.42579 0.89494
0.31890 0.43403 0.90097
0.46595 0.44739 0.91362
0.62377 0.46250 0.92437
0.78223 0.47564 0.93741
0.90952 0.50073 0.94006
1.00000 0.52175 0.94322
1.00000 0.53909 0.94200
0.24544 0.58557 0.85321
0.31633 0.58754 0.85763
0.45028 0.59407 0.86602
0.61060 0.60291 0.87537
0.75964 0.60893 0.89157
0.89004 0.61636 0.90528
0.99714 0.62437 0.91363
1.00000 0.64259 0.91459
0.01551 0.71313 0.81778
0.20188 0.71380 0.82146
0.38279 0.71526 0.83018
0.56669 0.71852 0.84345
0.73011 0.72439 0.85617
0.86252 0.72857 0.86674
0.97406 0.73372 0.87850
1.00000 0.74169 0.88926
0.00000 0.82847 0.78721
0.00000 0.82817 0.79101
0.29444 0.82822 0.79938
0.51567 0.82892 0.81088
0.69539 0.83093 0.82437
0.83433 0.83442 0.83460
0.94732 0.83786 0.84913
1.00000 0.84259 0.85995
0.00000 0.92104 0.77028
0.00000 0.92121 0.77366
0.20719 0.92174 0.78125
0.47358 0.92224 0.79223
0.66077 0.92512 0.80527
0.80571 0.92624 0.81853
0.91914 0.92560 0.83077
1.00000 0.92820 0.84276
0.00000 0.99057 0.76547
0.00000 0.99067 0.76787
0.16308 0.99061 0.77377
0.44973 0.99032 0.78341
0.64049 0.99064 0.79641
0.78596 0.98950 0.81311
0.89627 0.98438 0.82662
0.97788 0.98529 0.83459
0.16677 0.18231 1.00000
0.24546 0.18465 1.00000
0.40794 0.19835 1.00000
0.60312 0.22264 1.00000
0.78647 0.25953 1.00000
0.92942 0.31458 1.00000
1.00000 0.37888 1.00000
1.00000 0.44955 1.00000
0.18765 0.27087 1.00000
0.27388 0.27298 1.00000
0.43176 0.28520 1.00000
0.61808 0.30363 1.00000
0.79447 0.33816 1.00000
0.93025 0.38260 1.00000
1.00000 0.44266 1.00000
1.00000 0.50476 1.00000
0.24658 0.44501 1.00000
0.32605 0.45114 1.00000
0.47701 0.46499 1.00000
0.63947 0.47354 1.00000
0.79922 0.50726 1.00000
0.92212 0.51928 1.00000
1.00000 0.56270 1.00000
1.00000 0.59437 1.00000
0.35079 0.62768 0.97637
0.40449 0.63016 0.97932
0.52182 0.64175 0.98447
0.65766 0.64769 0.98944
0.78726 0.65645 0.99108
0.90366 0.66337 0.99216
1.00000 0.66964 0.99408
1.00000 0.69460 1.00000
0.29521 0.74116 0.94359
0.35667 0.74239 0.94643
0.47699 0.74504 0.95312
0.62625 0.75053 0.96220
0.76551 0.75564 0.97121
0.88195 0.75837 0.97314
0.98308 0.76715 0.97646
1.00000 0.77589 0.98337
0.18018 0.84230 0.91566
0.27597 0.84257 0.91869
0.42435 0.84320 0.92526
0.58526 0.84371 0.93376
0.73428 0.84556 0.94215
0.85628 0.85040 0.94968
0.95745 0.85520 0.95964
1.00000 0.85843 0.95546
0.00000 0.93086 0.89037
0.18798 0.93116 0.89310
0.37479 0.93181 0.89943
0.54662 0.93240 0.90873
0.69992 0.93176 0.91845
0.82580 0.93082 0.92574
0.92946 0.92967 0.92944
1.00000 0.93046 0.93516
0.00000 0.99146 0.87470
0.12468 0.99141 0.87669
0.34202 0.99141 0.88130
0.52012 0.99180 0.88798
0.67655 0.99167 0.89542
0.80283 0.98604 0.90585
0.90052 0.98575 0.90961
0.97725 0.98466 0.91356
0.20106 0.24397 1.00000
0.27050 0.24530 1.00000
0.42413 0.25312 1.00000
0.61131 0.26969 1.00000
0.79063 0.30099 1.00000
0.93321 0.33260 1.00000
1.00000 0.40165 1.00000
1.00000 0.47540 1.00000
0.21513 0.31678 1.00000
0.29099 0.31908 1.00000
0.44440 0.32665 1.00000
0.62522 0.34266 1.00000
0.79816 0.37182 1.00000
0.93494 0.40013 1.00000
1.00000 0.45745 1.00000
1.00000 0.52854 1.00000
0.26547 0.46866 1.00000
0.34218 0.47414 1.00000
0.48599 0.48468 1.00000
0.65081 0.49653 1.00000
0.80608 0.52059 1.00000
0.93191 0.54414 1.00000
1.00000 0.57799 1.00000
1.00000 0.63425 1.00000
0.38648 0.65157 1.00000
0.44149 0.65575 1.00000
0.55585 0.66807 1.00000
0.68804 0.67698 1.00000
0.80625 0.68061 1.00000
0.91669 0.70444 1.00000
1.00000 0.70606 1.00000
1.00000 0.73012 1.00000
0.44908 0.77648 1.00000
0.48789 0.77768 1.00000
0.56862 0.77982 1.00000
0.68788 0.78858 1.00000
0.79978 0.79036 1.00000
0.89694 0.79588 1.00000
0.98606 0.80360 1.00000
1.00000 0.80621 1.00000
0.39877 0.85892 0.99992
0.44140 0.85947 1.00000
0.53208 0.86104 1.00000
0.65111 0.86292 1.00000
0.77067 0.86529 1.00000
0.87245 0.86838 1.00000
0.96090 0.87014 1.00000
1.00000 0.87249 1.00000
0.34870 0.93716 0.97978
0.39767 0.93727 0.98100
0.49567 0.93734 0.98370
0.61753 0.93629 0.98717
0.73864 0.93403 0.99030
0.84330 0.93411 0.99312
0.93452 0.93284 0.99331
1.00000 0.93032 0.99512
0.29450 0.99305 0.95125
0.34983 0.99327 0.95273
0.45549 0.99386 0.95622
0.58445 0.99274 0.96115
0.70814 0.98784 0.96645
0.81387 0.98409 0.97415
0.90445 0.98236 0.97588
0.97906 0.97904 0.97911
