cube lut/pro neg std_sRGB.cube
# sRGB
# github.com/abpy/FujifilmCameraProfiles
LUT_3D_SIZE 5
DOMAIN_MIN 0.000000 0.000000 0.000000
DOMAIN_MAX 0.903226 0.903226 0.903226
0.00000 0.00000 0.00000
0.17826 0.02163 0.00767
0.58226 0.04668 0.05993
0.88362 0.10242 0.00233
1.00000 0.16498 0.00000
0.00000 0.19740 0.00397
0.20614 0.22113 0.01519
0.61070 0.23204 0.04737
0.89605 0.23097 0.06588
1.00000 0.26531 0.00000
0.00000 0.57014 0.00000
0.00000 0.57666 0.00000
0.55072 0.58942 0.00000
0.87647 0.58969 0.00000
1.00000 0.55503 0.00714
0.00000 0.84487 0.00000
0.00000 0.84940 0.00000
0.39552 0.85242 0.00000
0.79636 0.85330 0.00000
1.00000 0.84909 0.06550
0.00000 0.99305 0.05634
0.00000 0.99391 0.00000
0.20650 0.99486 0.15295
0.72618 0.99488 0.22176
0.95490 0.99451 0.28122
0.02345 0.02177 0.21294
0.25200 0.06293 0.26820
0.61967 0.09859 0.33738
0.89921 0.12286 0.37595
1.00000 0.13506 0.34094
0.00000 0.24348 0.22866
0.26106 0.26128 0.26123
0.62158 0.28555 0.31878
0.90780 0.29339 0.36472
1.00000 0.28556 0.36713
0.00000 0.57843 0.19630
0.00000 0.58563 0.21969
0.57384 0.59814 0.26903
0.87874 0.60616 0.31120
1.00000 0.58301 0.30817
0.00000 0.84275 0.20349
0.00000 0.84663 0.21159
0.45380 0.84801 0.25932
0.80856 0.84677 0.29613
1.00000 0.84839 0.32185
0.00000 0.99387 0.27500
0.00000 0.99452 0.27686
0.30904 0.99490 0.32831
0.74491 0.99242 0.37874
0.96104 0.99231 0.43431
0.08622 0.06992 0.63925
0.30761 0.08952 0.69267
0.67331 0.17042 0.73939
0.93313 0.23118 0.75393
1.00000 0.28666 0.75445
0.15936 0.33186 0.62619
0.35900 0.34503 0.64377
0.66625 0.36662 0.67918
0.92332 0.39657 0.71477
1.00000 0.43931 0.74132
0.00000 0.61118 0.57615
0.22505 0.61324 0.59019
0.62089 0.62112 0.62109
0.89327 0.63035 0.65220
1.00000 0.64262 0.68681
0.00000 0.84458 0.54335
0.00000 0.84620 0.55477
0.52993 0.84674 0.58546
0.83115 0.84737 0.61826
1.00000 0.85444 0.65687
0.00000 0.99553 0.56730
0.00000 0.99469 0.57668
0.45865 0.99167 0.60160
0.78605 0.98997 0.64381
0.97074 0.98627 0.68075
0.14296 0.14099 0.96594
0.34553 0.15735 1.00000
0.69454 0.20895 1.00000
0.95513 0.31268 1.00000
1.00000 0.39490 0.99663
0.21207 0.37886 0.94301
0.41622 0.39842 0.96206
0.71289 0.43415 0.97949
0.94287 0.48634 0.97721
1.00000 0.52718 0.97008
0.22342 0.65762 0.86926
0.40124 0.66127 0.87908
0.68163 0.67363 0.89969
0.90887 0.68400 0.91805
1.00000 0.70035 0.93123
0.00000 0.85624 0.81500
0.24541 0.85586 0.82444
0.61351 0.85703 0.84332
0.86211 0.86216 0.86237
1.00000 0.86776 0.88063
0.00000 0.99033 0.79455
0.12643 0.99075 0.80067
0.56501 0.99111 0.81638
0.82036 0.98726 0.84151
0.97824 0.98557 0.85542
0.20106 0.24397 1.00000
0.37977 0.25008 1.00000
0.70350 0.28732 1.00000
0.96303 0.34632 1.00000
1.00000 0.47540 1.00000
0.24658 0.42478 1.00000
0.43183 0.43639 1.00000
0.72591 0.46278 1.00000
0.96130 0.50774 1.00000
1.00000 0.60643 1.00000
0.44335 0.72587 1.00000
0.54735 0.73118 1.00000
0.75331 0.74373 1.00000
0.93039 0.75977 1.00000
1.00000 0.76915 1.00000
0.38697 0.87928 0.99726
0.49643 0.88051 0.99901
0.70390 0.88200 1.00000
0.88906 0.88647 1.00000
1.00000 0.88741 1.00000
0.29450 0.99305 0.95125
0.42580 0.99369 0.95516
0.64872 0.99025 0.96359
0.83768 0.98346 0.97587
0.97906 0.97904 0.97911
