cube lut/pro neg hi_DisplayP3.cube
# DisplayP3
# github.com/abpy/FujifilmCameraProfiles
LUT_3D_SIZE 32
0.00000 0.00000 0.00000
0.00087 0.00000 0.00000
0.00570 0.00000 0.00000
0.01742 0.00000 0.00000
0.03464 0.00000 0.00000
0.06420 0.00164 0.00000
0.10735 0.00440 0.00000
0.16510 0.00999 0.00000
0.23480 0.01882 0.00000
0.30650 0.03369 0.00090
0.37520 0.05407 0.00782
0.43941 0.06958 0.01614
0.49921 0.08431 0.02590
0.55521 0.09943 0.03381
0.60926 0.11336 0.03656
0.66111 0.12659 0.04226
0.70948 0.13970 0.04696
0.75378 0.15227 0.03625
0.79434 0.16221 0.02779
0.83201 0.17141 0.02622
0.86726 0.18045 0.03057
0.90011 0.18968 0.04491
0.92991 0.19907 0.05426
0.95540 0.20866 0.06599
0.97579 0.21815 0.07395
0.98939 0.22590 0.05705
0.99644 0.23104 0.00000
1.00000 0.23526 0.00000
1.00000 0.23992 0.00000
1.00000 0.24606 0.00000
1.00000 0.25548 0.00000
1.00000 0.27315 0.00000
0.00000 0.00120 0.00000
0.00079 0.00066 0.00000
0.00534 0.00233 0.00000
0.01735 0.00220 0.00000
0.03398 0.00515 0.00000
0.06207 0.00825 0.00000
0.10579 0.01231 0.00000
0.16442 0.01981 0.00000
0.23493 0.03066 0.00000
0.30732 0.04687 0.00000
0.37671 0.06564 0.00539
0.44144 0.08040 0.01192
0.50124 0.09446 0.02002
0.55703 0.10883 0.02662
0.61107 0.12222 0.02756
0.66283 0.13523 0.03121
0.71105 0.14826 0.03425
0.75523 0.16061 0.02154
0.79568 0.17042 0.01180
0.83332 0.17958 0.00896
0.86855 0.18852 0.01193
0.90140 0.19757 0.02519
0.93121 0.20665 0.03504
0.95672 0.21593 0.04914
0.97712 0.22512 0.05874
0.99068 0.23267 0.03849
0.99759 0.23765 0.00000
1.00000 0.24174 0.00000
1.00000 0.24628 0.00000
1.00000 0.25225 0.00000
1.00000 0.26143 0.00000
1.00000 0.27884 0.00000
0.00000 0.00712 0.00000
0.00034 0.00547 0.00000
0.00448 0.00684 0.00000
0.01737 0.00849 0.00001
0.03447 0.01179 0.00000
0.06156 0.01346 0.00000
0.10561 0.01830 0.00168
0.16374 0.02791 0.00182
0.23420 0.04092 0.00125
0.30730 0.05704 0.00267
0.37766 0.07532 0.00674
0.44316 0.09020 0.01131
0.50310 0.10412 0.01759
0.55875 0.11809 0.02280
0.61287 0.13121 0.02161
0.66457 0.14421 0.02265
0.71268 0.15732 0.02314
0.75675 0.16952 0.00848
0.79710 0.17929 0.00000
0.83473 0.18848 0.00000
0.86997 0.19737 0.00000
0.90282 0.20626 0.00501
0.93265 0.21503 0.01353
0.95820 0.22398 0.02729
0.97863 0.23288 0.03873
0.99215 0.24023 0.01623
0.99892 0.24504 0.00000
1.00000 0.24900 0.00000
1.00000 0.25341 0.00000
1.00000 0.25920 0.00000
1.00000 0.26811 0.00000
1.00000 0.28524 0.00000
0.00000 0.02108 0.00000
0.00000 0.01710 0.00000
0.00496 0.01816 0.00000
0.01618 0.01911 0.00000
0.03623 0.02317 0.00052
0.06273 0.02428 0.00218
0.10904 0.03044 0.00425
0.16637 0.04051 0.00418
0.23538 0.05303 0.00508
0.30795 0.06767 0.00908
0.37868 0.08563 0.01321
0.44492 0.10091 0.01619
0.50513 0.11491 0.02058
0.56062 0.12875 0.02422
0.61499 0.14199 0.02006
0.66666 0.15540 0.01734
0.71467 0.16887 0.01412
0.75866 0.18112 0.00000
0.79893 0.19101 0.00000
0.83658 0.20038 0.00000
0.87187 0.20932 0.00000
0.90474 0.21811 0.00000
0.93464 0.22653 0.00000
0.96028 0.23510 0.00000
0.98076 0.24364 0.00948
0.99426 0.25074 0.00000
1.00000 0.25535 0.00000
1.00000 0.25914 0.00000
1.00000 0.26338 0.00000
1.00000 0.26893 0.00000
1.00000 0.27749 0.00000
1.00000 0.29422 0.00000
0.00000 0.04406 0.00000
0.00022 0.03531 0.00000
0.00412 0.03590 0.00009
0.01667 0.03867 0.00048
0.03606 0.04076 0.00128
0.06698 0.04770 0.00281
0.11235 0.05203 0.00566
0.17141 0.06272 0.00783
0.23950 0.07269 0.00908
0.31146 0.08265 0.01312
0.38186 0.09843 0.01796
0.44794 0.11330 0.02340
0.50793 0.12674 0.03002
0.56273 0.14012 0.03488
0.61729 0.15372 0.02787
0.66882 0.16779 0.02085
0.71676 0.18179 0.01322
0.76073 0.19444 0.00000
0.80096 0.20477 0.00000
0.83872 0.21464 0.00000
0.87413 0.22385 0.00000
0.90708 0.23270 0.00000
0.93712 0.24086 0.00000
0.96292 0.24908 0.00000
0.98353 0.25726 0.00000
0.99704 0.26413 0.00000
1.00000 0.26853 0.00000
1.00000 0.27214 0.00000
1.00000 0.27622 0.00000
1.00000 0.28150 0.00000
1.00000 0.28962 0.00000
1.00000 0.30585 0.00000
0.00000 0.07564 0.00000
0.00000 0.06277 0.00000
0.00245 0.05747 0.00088
0.01045 0.06167 0.00164
0.03588 0.06806 0.00299
0.06837 0.07478 0.00465
0.11469 0.08221 0.00738
0.17459 0.09168 0.01148
0.24396 0.10100 0.01483
0.31670 0.10981 0.01965
0.38723 0.12053 0.02318
0.45317 0.13146 0.02664
0.51285 0.14208 0.03579
0.56648 0.15364 0.04676
0.62051 0.16728 0.04175
0.67133 0.18171 0.03453
0.71899 0.19578 0.02541
0.76285 0.20886 0.00016
0.80301 0.21974 0.00000
0.84094 0.23028 0.00000
0.87656 0.24001 0.00000
0.90965 0.24916 0.00000
0.93992 0.25726 0.00000
0.96600 0.26530 0.00000
0.98684 0.27324 0.00000
1.00000 0.27998 0.00000
1.00000 0.28425 0.00000
1.00000 0.28773 0.00000
1.00000 0.29167 0.00000
1.00000 0.29669 0.00000
1.00000 0.30434 0.00000
1.00000 0.31996 0.00000
0.00000 0.12018 0.00000
0.00000 0.10758 0.00000
0.00000 0.09803 0.00279
0.00279 0.09646 0.00526
0.02619 0.10254 0.00655
0.06613 0.11047 0.00820
0.11181 0.11833 0.01119
0.17484 0.12914 0.01450
0.24501 0.13973 0.02047
0.32249 0.14447 0.02467
0.39251 0.15615 0.03020
0.45967 0.16293 0.03612
0.51995 0.16789 0.04462
0.57265 0.17393 0.05354
0.62538 0.18605 0.04812
0.67506 0.19938 0.04524
0.72206 0.21207 0.04231
0.76540 0.22510 0.01930
0.80525 0.23633 0.00000
0.84324 0.24734 0.00000
0.87908 0.25747 0.00000
0.91232 0.26691 0.00000
0.94288 0.27504 0.00000
0.96937 0.28302 0.00000
0.99056 0.29087 0.00000
1.00000 0.29762 0.00000
1.00000 0.30191 0.00000
1.00000 0.30537 0.00000
1.00000 0.30928 0.00000
1.00000 0.31413 0.00000
1.00000 0.32133 0.00000
1.00000 0.33625 0.00000
0.00000 0.17622 0.00000
0.00000 0.16652 0.00000
0.00000 0.15730 0.00354
0.00000 0.15122 0.00772
0.00185 0.15387 0.00999
0.05170 0.16115 0.01128
0.10498 0.16772 0.01353
0.16807 0.17673 0.01653
0.24451 0.18829 0.02306
0.32163 0.19617 0.03458
0.39550 0.20305 0.03832
0.46498 0.20833 0.04846
0.52596 0.20961 0.05661
0.58106 0.21121 0.06423
0.63128 0.21760 0.05658
0.67995 0.22537 0.05031
0.72632 0.23407 0.04981
0.76910 0.24549 0.03307
0.80837 0.25604 0.01519
0.84611 0.26671 0.00000
0.88198 0.27687 0.00000
0.91522 0.28639 0.00000
0.94603 0.29439 0.00000
0.97298 0.30217 0.00000
0.99461 0.30984 0.00000
1.00000 0.31660 0.00000
1.00000 0.32097 0.00000
1.00000 0.32449 0.00000
1.00000 0.32849 0.00000
1.00000 0.33327 0.00000
1.00000 0.34011 0.00000
1.00000 0.35427 0.00000
0.00000 0.23742 0.00000
0.00000 0.23057 0.00000
0.00000 0.22351 0.00248
0.00000 0.21677 0.00890
0.00000 0.21557 0.01208
0.00846 0.22136 0.01380
0.08328 0.22728 0.01597
0.15423 0.23495 0.01983
0.23252 0.24365 0.02559
0.31759 0.25520 0.04042
0.39246 0.26015 0.04890
0.46551 0.26472 0.06116
0.52783 0.26651 0.06897
0.58426 0.26474 0.07248
0.63529 0.26588 0.06958
0.68480 0.26760 0.06633
0.73130 0.26886 0.06408
0.77387 0.27425 0.04363
0.81265 0.28179 0.02409
0.85009 0.29078 0.01275
0.88583 0.29980 0.00000
0.91877 0.30846 0.00000
0.94961 0.31592 0.00000
0.97699 0.32333 0.00000
0.99908 0.33064 0.00000
1.00000 0.33719 0.00000
1.00000 0.34149 0.00000
1.00000 0.34494 0.00000
1.00000 0.34900 0.00000
1.00000 0.35374 0.00000
1.00000 0.36026 0.00000
1.00000 0.37356 0.00000
0.00000 0.30000 0.00000
0.00000 0.29532 0.00000
0.00000 0.29023 0.00466
0.00000 0.28426 0.01341
0.00000 0.28058 0.01810
0.00000 0.28695 0.02012
0.02651 0.29221 0.02254
0.12780 0.29896 0.02674
0.21364 0.30734 0.03393
0.30125 0.31479 0.04695
0.38451 0.32141 0.05692
0.45831 0.32668 0.06981
0.52442 0.32947 0.07988
0.58142 0.32690 0.08244
0.63549 0.32569 0.08416
0.68746 0.32397 0.08585
0.73523 0.32021 0.08778
0.77891 0.31955 0.06899
0.81800 0.32013 0.04614
0.85518 0.32327 0.02560
0.89078 0.32862 0.00899
0.92337 0.33526 0.00000
0.95406 0.34125 0.00000
0.98166 0.34739 0.00000
1.00000 0.35377 0.00000
1.00000 0.35984 0.00000
1.00000 0.36394 0.00000
1.00000 0.36717 0.00000
1.00000 0.37114 0.00000
1.00000 0.37569 0.00000
1.00000 0.38180 0.00000
1.00000 0.39400 0.00000
0.00000 0.36162 0.00000
0.00000 0.35879 0.00112
0.00000 0.35564 0.00993
0.00000 0.35161 0.02101
0.00000 0.34828 0.03018
0.00000 0.35089 0.03495
0.00000 0.35766 0.03668
0.06957 0.36219 0.03997
0.18376 0.36925 0.04605
0.27870 0.37629 0.05480
0.36688 0.37921 0.06456
0.44803 0.38681 0.07766
0.51607 0.38744 0.08744
0.57578 0.39007 0.09433
0.63197 0.38737 0.09811
0.68694 0.38775 0.10475
0.73775 0.38255 0.10908
0.78217 0.37766 0.09326
0.82283 0.37381 0.08046
0.86078 0.37098 0.06462
0.89680 0.36918 0.03916
0.92903 0.37005 0.00788
0.95945 0.37216 0.00000
0.98718 0.37612 0.00000
1.00000 0.38085 0.00000
1.00000 0.38547 0.00000
1.00000 0.38868 0.00000
1.00000 0.39138 0.00000
1.00000 0.39521 0.00000
1.00000 0.39954 0.00000
1.00000 0.40518 0.00000
1.00000 0.41595 0.00000
0.00000 0.41955 0.00132
0.00000 0.41805 0.00828
0.00000 0.41642 0.01630
0.00000 0.41437 0.02692
0.00000 0.41249 0.03733
0.00000 0.41192 0.04358
0.00000 0.41538 0.04723
0.00000 0.41915 0.04992
0.13171 0.42235 0.05419
0.24507 0.42770 0.06212
0.34347 0.43231 0.07209
0.42773 0.43659 0.08365
0.50340 0.44229 0.09464
0.56882 0.44486 0.10335
0.62540 0.44561 0.10964
0.67995 0.44527 0.11837
0.73643 0.44332 0.12385
0.78285 0.43832 0.11432
0.82539 0.43452 0.11151
0.86444 0.42951 0.10252
0.90200 0.42329 0.08742
0.93519 0.41822 0.05695
0.96585 0.41394 0.01050
0.99358 0.41244 0.00000
1.00000 0.41318 0.00000
1.00000 0.41536 0.00000
1.00000 0.41708 0.00000
1.00000 0.41850 0.00000
1.00000 0.42153 0.00000
1.00000 0.42530 0.00000
1.00000 0.43051 0.00000
1.00000 0.43975 0.00000
0.00000 0.47242 0.01327
0.00000 0.47151 0.01970
0.00000 0.47049 0.02726
0.00000 0.46913 0.03783
0.00000 0.46761 0.04903
0.00000 0.46634 0.05655
0.00000 0.46656 0.06118
0.00000 0.46890 0.06396
0.03445 0.47126 0.06730
0.19574 0.47431 0.07261
0.30812 0.47871 0.08064
0.40182 0.48210 0.08979
0.48293 0.48874 0.09951
0.55433 0.49335 0.10835
0.61759 0.49580 0.11943
0.67380 0.49775 0.12536
0.72850 0.49779 0.13272
0.78021 0.49348 0.12973
0.82531 0.49174 0.13488
0.86508 0.48799 0.13454
0.90359 0.48191 0.12546
0.93898 0.47369 0.10396
0.97168 0.46681 0.07064
1.00000 0.46070 0.02381
1.00000 0.45552 0.00000
1.00000 0.45224 0.00000
1.00000 0.45003 0.00000
1.00000 0.44917 0.00000
1.00000 0.45106 0.00000
1.00000 0.45379 0.00000
1.00000 0.45811 0.00000
1.00000 0.46549 0.00000
0.00000 0.52150 0.02724
0.00000 0.52087 0.03299
0.00000 0.52014 0.03981
0.00000 0.51907 0.04892
0.00000 0.51768 0.05868
0.00000 0.51614 0.06681
0.00000 0.51507 0.07184
0.00000 0.51592 0.07508
0.00000 0.51795 0.07713
0.12944 0.52078 0.08105
0.26406 0.52507 0.08813
0.37279 0.52894 0.09719
0.45833 0.53258 0.10608
0.53342 0.53682 0.11459
0.60248 0.54247 0.12288
0.66402 0.54393 0.13246
0.72196 0.54783 0.14030
0.77356 0.54625 0.14239
0.82109 0.54355 0.15023
0.86253 0.53984 0.15539
0.90173 0.53573 0.15167
0.93904 0.52953 0.13915
0.97441 0.52160 0.11607
1.00000 0.51480 0.09015
1.00000 0.50768 0.04375
1.00000 0.49978 0.00000
1.00000 0.49189 0.00000
1.00000 0.48597 0.00000
1.00000 0.48436 0.00000
1.00000 0.48507 0.00000
1.00000 0.48838 0.00000
1.00000 0.49381 0.00000
0.00000 0.56799 0.04301
0.00000 0.56760 0.04763
0.00000 0.56711 0.05276
0.00000 0.56634 0.05963
0.00000 0.56523 0.06748
0.00000 0.56378 0.07474
0.00000 0.56236 0.07977
0.00000 0.56204 0.08306
0.00000 0.56322 0.08515
0.00000 0.56603 0.08847
0.21024 0.57024 0.09376
0.33378 0.57470 0.10225
0.43220 0.57752 0.11150
0.51103 0.58076 0.11929
0.58236 0.58450 0.12707
0.64859 0.58991 0.13619
0.71175 0.59302 0.14526
0.76661 0.59303 0.15174
0.81386 0.59389 0.15852
0.85810 0.59142 0.16433
0.89768 0.58558 0.16474
0.93599 0.58108 0.16111
0.97302 0.57474 0.14953
1.00000 0.56816 0.13695
1.00000 0.56058 0.10842
1.00000 0.55248 0.06428
1.00000 0.54264 0.00000
1.00000 0.53204 0.00000
1.00000 0.52527 0.00000
1.00000 0.52149 0.00000
1.00000 0.52162 0.00000
1.00000 0.52437 0.00000
0.00000 0.61227 0.05826
0.00000 0.61212 0.06169
0.00000 0.61189 0.06560
0.00000 0.61149 0.07105
0.00000 0.61081 0.07769
0.00000 0.60976 0.08458
0.00000 0.60843 0.09040
0.00000 0.60742 0.09445
0.00000 0.60785 0.09649
0.00000 0.60969 0.09898
0.12084 0.61337 0.10406
0.28456 0.61852 0.10752
0.39821 0.62210 0.11583
0.48675 0.62479 0.12474
0.56103 0.62826 0.13235
0.62918 0.63147 0.14120
0.69450 0.63599 0.14900
0.75605 0.63752 0.15754
0.80767 0.63844 0.16360
0.85030 0.63862 0.16992
0.89042 0.63461 0.17409
0.93082 0.62920 0.17448
0.96883 0.62473 0.17146
1.00000 0.61865 0.16849
1.00000 0.61202 0.15358
1.00000 0.60394 0.12695
1.00000 0.59427 0.08318
1.00000 0.58344 0.01315
1.00000 0.57385 0.00000
1.00000 0.56555 0.00000
1.00000 0.56112 0.00000
1.00000 0.55933 0.00000
0.00000 0.65416 0.07196
0.00000 0.65422 0.07457
0.00000 0.65424 0.07758
0.00000 0.65419 0.08184
0.00000 0.65398 0.08718
0.00000 0.65350 0.09298
0.00000 0.65268 0.09817
0.00000 0.65174 0.10191
0.00000 0.65141 0.10442
0.00000 0.65273 0.10623
0.00000 0.65668 0.10982
0.21721 0.66151 0.11543
0.35427 0.66495 0.12049
0.45598 0.66727 0.12886
0.53707 0.67106 0.13810
0.60902 0.67380 0.14501
0.67408 0.67556 0.15352
0.73858 0.67908 0.16162
0.79703 0.68044 0.16804
0.84315 0.68143 0.17543
0.88273 0.67970 0.18123
0.92234 0.67625 0.18476
0.96304 0.67159 0.18609
0.99866 0.66764 0.18829
1.00000 0.66103 0.18227
1.00000 0.65369 0.16785
1.00000 0.64510 0.14283
1.00000 0.63390 0.10963
1.00000 0.62379 0.05824
1.00000 0.61434 0.00000
1.00000 0.60695 0.00000
1.00000 0.60082 0.00000
0.00000 0.69337 0.08476
0.00000 0.69359 0.08680
0.00000 0.69380 0.08917
0.00000 0.69403 0.09255
0.00000 0.69420 0.09689
0.00000 0.69417 0.10176
0.00000 0.69380 0.10637
0.00000 0.69309 0.10987
0.00000 0.69254 0.11231
0.00000 0.69317 0.11452
0.00000 0.69599 0.11714
0.09979 0.70083 0.12175
0.29846 0.70494 0.12606
0.41654 0.70727 0.13344
0.50894 0.70952 0.14138
0.58561 0.71332 0.15025
0.65425 0.71492 0.15677
0.71769 0.71719 0.16654
0.77952 0.71973 0.17208
0.83203 0.72011 0.17966
0.87490 0.71947 0.18628
0.91506 0.71722 0.19133
0.95448 0.71630 0.19465
0.99353 0.71266 0.20233
1.00000 0.70760 0.19879
1.00000 0.70047 0.19362
1.00000 0.69266 0.17878
1.00000 0.68335 0.16079
1.00000 0.67315 0.13438
1.00000 0.66259 0.09519
1.00000 0.65430 0.03483
1.00000 0.64698 0.00000
0.00000 0.72976 0.09683
0.00000 0.73009 0.09846
0.00000 0.73045 0.10035
0.00000 0.73089 0.10306
0.00000 0.73137 0.10658
0.00000 0.73175 0.11061
0.00000 0.73187 0.11457
0.00000 0.73159 0.11770
0.00000 0.73120 0.11982
0.00000 0.73153 0.12187
0.00000 0.73360 0.12399
0.00000 0.73772 0.12725
0.21915 0.74203 0.13226
0.36990 0.74505 0.13623
0.47314 0.74669 0.14472
0.55801 0.74832 0.15277
0.63105 0.75139 0.16137
0.69694 0.75196 0.16817
0.75885 0.75569 0.17652
0.81580 0.75441 0.18277
0.86358 0.75542 0.18989
0.90686 0.75264 0.19611
0.94738 0.75200 0.19963
0.98506 0.75180 0.20522
1.00000 0.74906 0.21107
1.00000 0.74214 0.20691
1.00000 0.73593 0.20105
1.00000 0.72777 0.19087
1.00000 0.72009 0.17657
1.00000 0.71110 0.15481
1.00000 0.70110 0.12554
1.00000 0.69307 0.08286
0.00000 0.76338 0.10830
0.00000 0.76377 0.10961
0.00000 0.76420 0.11114
0.00000 0.76476 0.11335
0.00000 0.76542 0.11620
0.00000 0.76608 0.11951
0.00000 0.76660 0.12279
0.00000 0.76682 0.12536
0.00000 0.76678 0.12688
0.00000 0.76704 0.12817
0.00000 0.76868 0.13005
0.00000 0.77188 0.13259
0.05963 0.77556 0.13695
0.30741 0.77853 0.14187
0.43223 0.77993 0.14681
0.52458 0.78052 0.15573
0.60373 0.78196 0.16377
0.67328 0.78393 0.17233
0.73731 0.78471 0.17924
0.79536 0.78536 0.18669
0.84949 0.78590 0.19242
0.89545 0.78524 0.19956
0.93870 0.78389 0.20388
0.97765 0.78241 0.20961
1.00000 0.78292 0.21219
1.00000 0.77933 0.21666
1.00000 0.77298 0.21449
1.00000 0.76648 0.20798
1.00000 0.75956 0.19992
1.00000 0.75414 0.18897
1.00000 0.74667 0.17167
1.00000 0.73820 0.14898
0.00000 0.79463 0.11925
0.00000 0.79504 0.12034
0.00000 0.79549 0.12161
0.00000 0.79608 0.12343
0.00000 0.79680 0.12579
0.00000 0.79755 0.12853
0.00000 0.79823 0.13130
0.00000 0.79874 0.13351
0.00000 0.79903 0.13474
0.00000 0.79940 0.13557
0.00000 0.80052 0.13692
0.00000 0.80303 0.13857
0.00000 0.80580 0.14249
0.21477 0.80840 0.14837
0.38066 0.80930 0.15188
0.48777 0.80953 0.15750
0.57270 0.81008 0.16593
0.64715 0.81211 0.17375
0.71437 0.81348 0.18238
0.77530 0.81319 0.18973
0.83070 0.81442 0.19508
0.88208 0.81462 0.20144
0.92680 0.81362 0.20716
0.96824 0.81199 0.21227
1.00000 0.80963 0.21705
1.00000 0.80875 0.21759
1.00000 0.80617 0.22033
1.00000 0.79839 0.22101
1.00000 0.79234 0.21233
1.00000 0.78748 0.20938
1.00000 0.78347 0.19818
1.00000 0.77809 0.18591
0.00000 0.82411 0.12976
0.00000 0.82454 0.13070
0.00000 0.82500 0.13178
0.00000 0.82563 0.13332
0.00000 0.82638 0.13532
0.00000 0.82719 0.13765
0.00000 0.82793 0.13999
0.00000 0.82848 0.14184
0.00000 0.82878 0.14266
0.00000 0.82893 0.14257
0.00000 0.82934 0.14294
0.00000 0.83117 0.14361
0.00000 0.83394 0.14645
0.00000 0.83614 0.15150
0.31078 0.83867 0.15829
0.44334 0.83737 0.16013
0.53848 0.83745 0.16684
0.61879 0.83840 0.17497
0.68961 0.84100 0.18194
0.75422 0.84112 0.19148
0.81179 0.84063 0.19814
0.86354 0.84188 0.20310
0.91223 0.84055 0.20979
0.95620 0.84001 0.21547
0.99499 0.83850 0.21955
1.00000 0.83527 0.22379
1.00000 0.83268 0.22235
1.00000 0.82999 0.22378
1.00000 0.82132 0.22394
1.00000 0.81612 0.21839
1.00000 0.81137 0.21392
1.00000 0.80942 0.20713
0.00000 0.85208 0.13974
0.00000 0.85256 0.14058
0.00000 0.85310 0.14154
0.00000 0.85383 0.14291
0.00000 0.85472 0.14468
0.00000 0.85571 0.14675
0.00000 0.85669 0.14887
0.00000 0.85752 0.15062
0.00000 0.85808 0.15146
0.00000 0.85834 0.15117
0.00000 0.85853 0.15060
0.00000 0.85933 0.15077
0.00000 0.86172 0.15174
0.00000 0.86406 0.15570
0.20565 0.86641 0.16181
0.38682 0.86749 0.16706
0.49935 0.86532 0.16885
0.58687 0.86492 0.17643
0.66335 0.86615 0.18379
0.73093 0.86862 0.19019
0.79213 0.86738 0.20039
0.84517 0.86670 0.20684
0.89356 0.86733 0.21094
0.94153 0.86582 0.21833
0.98327 0.86534 0.22401
1.00000 0.86392 0.22679
1.00000 0.85985 0.22908
1.00000 0.85643 0.22823
1.00000 0.85257 0.22619
1.00000 0.84575 0.22890
1.00000 0.83837 0.22420
1.00000 0.83491 0.22110
0.00000 0.87818 0.14905
0.00000 0.87875 0.14981
0.00000 0.87939 0.15069
0.00000 0.88028 0.15193
0.00000 0.88140 0.15352
0.00000 0.88271 0.15539
0.00000 0.88411 0.15733
0.00000 0.88547 0.15897
0.00000 0.88665 0.15981
0.00000 0.88751 0.15948
0.00000 0.88806 0.15831
0.00000 0.88859 0.15764
0.00000 0.88987 0.15731
0.00000 0.89149 0.15932
0.00000 0.89370 0.16458
0.30763 0.89614 0.17157
0.45112 0.89445 0.17459
0.55140 0.89218 0.17784
0.63355 0.89098 0.18561
0.70645 0.89286 0.19239
0.77074 0.89467 0.19928
0.82710 0.89222 0.20985
0.87630 0.89186 0.21519
0.92379 0.89289 0.21903
0.96955 0.89127 0.22737
1.00000 0.88978 0.23196
1.00000 0.88921 0.23149
1.00000 0.88483 0.23339
1.00000 0.87962 0.23262
1.00000 0.87621 0.23043
1.00000 0.86983 0.23222
1.00000 0.86245 0.22984
0.00000 0.90163 0.15767
0.00000 0.90229 0.15839
0.00000 0.90304 0.15921
0.00000 0.90409 0.16037
0.00000 0.90546 0.16186
0.00000 0.90711 0.16359
0.00000 0.90897 0.16540
0.00000 0.91094 0.16694
0.00000 0.91286 0.16774
0.00000 0.91454 0.16731
0.00000 0.91582 0.16556
0.00000 0.91671 0.16339
0.00000 0.91742 0.16192
0.00000 0.91795 0.16189
0.00000 0.91911 0.16582
0.19155 0.92096 0.17271
0.38823 0.92281 0.18042
0.50919 0.91895 0.18284
0.60132 0.91653 0.18761
0.67886 0.91533 0.19478
0.74729 0.91826 0.20129
0.80701 0.91912 0.20870
0.85899 0.91610 0.21855
0.90682 0.91726 0.22302
0.95314 0.91967 0.22530
0.99221 0.91606 0.23399
1.00000 0.91474 0.23722
1.00000 0.91708 0.23285
1.00000 0.90986 0.23633
1.00000 0.90246 0.23763
1.00000 0.89948 0.23210
1.00000 0.89474 0.23271
0.00000 0.92160 0.16550
0.00000 0.92232 0.16620
0.00000 0.92314 0.16700
0.00000 0.92431 0.16813
0.00000 0.92587 0.16958
0.00000 0.92779 0.17129
0.00000 0.93005 0.17310
0.00000 0.93258 0.17473
0.00000 0.93526 0.17575
0.00000 0.93788 0.17563
0.00000 0.94017 0.17402
0.00000 0.94182 0.17132
0.00000 0.94268 0.16878
0.00000 0.94259 0.16687
0.00000 0.94223 0.16816
0.00000 0.94389 0.17411
0.30415 0.94550 0.18272
0.45691 0.94512 0.18936
0.56302 0.94069 0.19083
0.64898 0.93818 0.19636
0.72121 0.93818 0.20302
0.78408 0.94175 0.20820
0.83871 0.94083 0.21567
0.88901 0.93866 0.22580
0.93656 0.94184 0.22858
0.97857 0.94363 0.23033
1.00000 0.94001 0.23955
1.00000 0.94014 0.24173
1.00000 0.94229 0.23416
1.00000 0.93297 0.23867
1.00000 0.92507 0.24112
1.00000 0.92276 0.23398
0.00000 0.93750 0.17228
0.00000 0.93821 0.17297
0.00000 0.93903 0.17375
0.00000 0.94021 0.17485
0.00000 0.94178 0.17628
0.00000 0.94376 0.17798
0.00000 0.94614 0.17982
0.00000 0.94891 0.18157
0.00000 0.95202 0.18287
0.00000 0.95538 0.18320
0.00000 0.95887 0.18210
0.00000 0.96229 0.17949
0.00000 0.96534 0.17619
0.00000 0.96712 0.17326
0.00000 0.96524 0.17101
0.00000 0.96424 0.17455
0.18106 0.96534 0.18228
0.38881 0.96575 0.19175
0.51805 0.96236 0.19670
0.61429 0.95839 0.19911
0.69378 0.95628 0.20494
0.76049 0.95732 0.21052
0.81710 0.96069 0.21377
0.87001 0.95866 0.22295
0.91988 0.95821 0.23306
0.96339 0.96228 0.23516
0.99313 0.96343 0.23599
1.00000 0.96045 0.24574
1.00000 0.95989 0.24817
1.00000 0.95881 0.24019
1.00000 0.95348 0.24219
1.00000 0.94636 0.24504
0.00000 0.94951 0.17808
0.00000 0.95015 0.17873
0.00000 0.95088 0.17947
0.00000 0.95192 0.18051
0.00000 0.95332 0.18186
0.00000 0.95508 0.18347
0.00000 0.95721 0.18523
0.00000 0.95968 0.18694
0.00000 0.96245 0.18828
0.00000 0.96542 0.18881
0.00000 0.96844 0.18801
0.00000 0.97127 0.18558
0.00000 0.97361 0.18193
0.00000 0.97519 0.17843
0.00000 0.97508 0.17486
0.00000 0.97360 0.17446
0.00000 0.97383 0.18051
0.31116 0.97485 0.19041
0.46461 0.97587 0.20065
0.57602 0.97254 0.20516
0.66388 0.97011 0.20824
0.73654 0.96901 0.21252
0.79733 0.97180 0.21757
0.85094 0.97430 0.22176
0.90234 0.97271 0.23224
0.94868 0.97385 0.24148
0.98360 0.97794 0.24195
1.00000 0.97905 0.23951
1.00000 0.97457 0.25235
1.00000 0.97246 0.25564
1.00000 0.97410 0.24521
1.00000 0.96921 0.24602
0.00000 0.95857 0.18354
0.00000 0.95908 0.18414
0.00000 0.95966 0.18481
0.00000 0.96050 0.18577
