cube lut/pro neg hi_DisplayP3.cube
# DisplayP3
# github.com/abpy/FujifilmCameraProfiles
LUT_3D_SIZE 5
DOMAIN_MIN 0.000000 0.000000 0.000000
DOMAIN_MAX 0.903226 0.903226 0.903226
0.00000 0.00000 0.00000
0.16510 0.00999 0.00000
0.60926 0.11336 0.03656
0.90011 0.18968 0.04491
1.00000 0.23992 0.00000
0.00000 0.17622 0.00000
0.16807 0.17673 0.01653
0.63128 0.21760 0.05658
0.91522 0.28639 0.00000
1.00000 0.32849 0.00000
0.00000 0.56799 0.04301
0.00000 0.56204 0.08306
0.58236 0.58450 0.12707
0.93599 0.58108 0.16111
1.00000 0.52527 0.00000
0.00000 0.82411 0.12976
0.00000 0.82848 0.14184
0.31078 0.83867 0.15829
0.86354 0.84188 0.20310
1.00000 0.82132 0.22394
0.00000 0.95857 0.18354
0.00000 0.96667 0.19160
0.00000 0.97848 0.17822
0.70995 0.97870 0.21450
1.00000 0.98717 0.24310
0.00849 0.00696 0.19311
0.23538 0.03828 0.25431
0.62135 0.12609 0.33198
0.89605 0.17645 0.37240
1.00000 0.22949 0.30448
0.00000 0.20434 0.19027
0.22862 0.22883 0.22893
0.63240 0.27656 0.31005
0.91108 0.29551 0.36649
1.00000 0.31265 0.29136
0.00000 0.57013 0.19142
0.00000 0.57350 0.17873
0.58630 0.59269 0.23807
0.91704 0.60113 0.28304
1.00000 0.55486 0.27430
0.00000 0.82626 0.23052
0.00000 0.82840 0.20791
0.36993 0.84019 0.20778
0.84910 0.84851 0.26154
1.00000 0.84256 0.28354
0.00000 0.96185 0.26789
0.00000 0.96905 0.25821
0.00000 0.97811 0.20005
0.71035 0.98800 0.25908
1.00000 1.00000 0.31242
0.05177 0.01814 0.66346
0.29126 0.05375 0.72252
0.65451 0.16281 0.77450
0.90108 0.23311 0.78457
0.99362 0.29843 0.74724
0.09769 0.29656 0.65582
0.35542 0.33062 0.66882
0.65918 0.36601 0.69649
0.91042 0.40648 0.73840
1.00000 0.43309 0.73341
0.00000 0.59702 0.57709
0.16047 0.60224 0.58893
0.61644 0.61676 0.61628
0.90290 0.62903 0.65437
1.00000 0.64614 0.68120
0.00000 0.83007 0.52259
0.00000 0.83385 0.52322
0.46741 0.84363 0.54744
0.84415 0.84952 0.58694
1.00000 0.85797 0.62925
0.00000 0.96687 0.49332
0.00000 0.97280 0.49716
0.00000 0.98192 0.51886
0.74830 0.99128 0.56002
0.99482 0.99465 0.61257
0.17262 0.05248 0.91276
0.36254 0.07799 0.97006
0.65938 0.15894 0.98355
0.91097 0.28019 0.99418
0.99162 0.37189 0.97734
0.24638 0.32460 0.96900
0.43368 0.35041 0.97440
0.69893 0.39218 0.97731
0.92511 0.45953 0.97603
1.00000 0.50684 0.96793
0.24078 0.64146 0.90152
0.40992 0.64844 0.90830
0.68147 0.66525 0.92106
0.91556 0.68203 0.93120
1.00000 0.71124 0.92377
0.00000 0.84947 0.82777
0.00000 0.85232 0.83393
0.57407 0.85816 0.85185
0.86701 0.86710 0.86714
1.00000 0.87781 0.88615
0.00000 0.97691 0.78748
0.00000 0.97981 0.79068
0.35487 0.98299 0.80538
0.78888 0.98930 0.82854
0.99418 0.99654 0.85094
0.31601 0.12973 0.97025
0.44333 0.14466 0.98051
0.68416 0.20525 0.98229
0.90962 0.29776 0.98548
0.99096 0.42167 0.98877
0.37302 0.34291 0.98110
0.49755 0.35767 0.98100
0.72423 0.39317 0.98380
0.93330 0.45068 0.98734
1.00000 0.55844 0.99016
0.46685 0.69284 0.98529
0.57735 0.70622 0.98692
0.76649 0.72970 0.98963
0.94161 0.74839 0.99519
1.00000 0.77140 0.99762
0.35544 0.87511 0.99016
0.47423 0.87661 0.99061
0.69571 0.88131 0.99212
0.90258 0.89163 0.99594
1.00000 0.89511 0.99852
0.00000 0.98034 0.97034
0.00000 0.98124 0.97404
0.55056 0.98574 0.97830
0.82469 0.99064 0.98095
0.99114 0.99113 0.99106
