cube lut/pro neg hi_sRGB.cube
# sRGB
# github.com/abpy/FujifilmCameraProfiles
LUT_3D_SIZE 32
0.00000 0.00000 0.00000
0.00111 0.00000 0.00000
0.00460 0.00000 0.00000
0.01565 0.00000 0.00000
0.03204 0.00000 0.00000
0.05374 0.00249 0.00000
0.08963 0.00254 0.00000
0.13933 0.00393 0.00000
0.19817 0.00706 0.00000
0.27179 0.00689 0.00000
0.34493 0.00889 0.00000
0.41403 0.01540 0.00000
0.48009 0.01672 0.00000
0.54064 0.01963 0.00000
0.59666 0.02633 0.00000
0.65245 0.02958 0.00000
0.70553 0.03618 0.00000
0.75521 0.04759 0.00000
0.80199 0.06054 0.00000
0.84451 0.06910 0.00000
0.88378 0.07765 0.00000
0.92123 0.08737 0.00000
0.95663 0.09742 0.00000
0.98990 0.10910 0.00000
1.00000 0.11977 0.00000
1.00000 0.13235 0.00000
1.00000 0.14674 0.00485
1.00000 0.16180 0.00791
1.00000 0.17526 0.00000
1.00000 0.18698 0.00000
1.00000 0.19938 0.00000
1.00000 0.21235 0.00000
0.00000 0.00065 0.00000
0.00087 0.00071 0.00000
0.00474 0.00234 0.00000
0.01625 0.00247 0.00000
0.03266 0.00427 0.00000
0.05341 0.00721 0.00026
0.08974 0.00891 0.00000
0.14033 0.01121 0.00081
0.19938 0.01480 0.00327
0.27379 0.01621 0.00000
0.34720 0.01931 0.00000
0.41653 0.02627 0.00000
0.48285 0.02889 0.00000
0.54332 0.03238 0.00000
0.59887 0.03938 0.00000
0.65458 0.04398 0.00000
0.70748 0.05089 0.00000
0.75696 0.06078 0.00000
0.80347 0.07395 0.00000
0.84582 0.08187 0.00000
0.88493 0.08991 0.00000
0.92236 0.09940 0.00000
0.95772 0.10913 0.00000
0.99095 0.12027 0.00000
1.00000 0.13016 0.00000
1.00000 0.14195 0.00000
1.00000 0.15555 0.00101
1.00000 0.16993 0.00411
1.00000 0.18291 0.00000
1.00000 0.19424 0.00000
1.00000 0.20632 0.00000
1.00000 0.21897 0.00000
0.00000 0.00514 0.00000
0.00000 0.00608 0.00000
0.00462 0.00728 0.00000
0.01684 0.00854 0.00000
0.03379 0.01238 0.00000
0.05546 0.01273 0.00187
0.09292 0.01576 0.00176
0.14465 0.01849 0.00288
0.20349 0.02217 0.00790
0.27735 0.02585 0.00270
0.35035 0.03029 0.00149
0.41964 0.03768 0.00307
0.48601 0.04210 0.00006
0.54635 0.04594 0.00124
0.60132 0.05224 0.00325
0.65691 0.05769 0.00000
0.70962 0.06449 0.00000
0.75888 0.07320 0.00000
0.80506 0.08700 0.00000
0.84724 0.09446 0.00000
0.88617 0.10217 0.00000
0.92358 0.11160 0.00000
0.95892 0.12115 0.00000
0.99211 0.13189 0.00000
1.00000 0.14109 0.00000
1.00000 0.15218 0.00000
1.00000 0.16503 0.00000
1.00000 0.17877 0.00159
1.00000 0.19128 0.00000
1.00000 0.20223 0.00000
1.00000 0.21399 0.00000
1.00000 0.22632 0.00000
0.00000 0.01716 0.00000
0.00000 0.01819 0.00000
0.00537 0.01900 0.00000
0.01692 0.02083 0.00000
0.03648 0.02401 0.00007
0.06123 0.02517 0.00114
0.09925 0.02931 0.00403
0.15269 0.03355 0.00499
0.21318 0.03790 0.00929
0.28453 0.04098 0.00464
0.35667 0.04642 0.00391
0.42564 0.05257 0.00927
0.49140 0.05837 0.00624
0.55123 0.06197 0.00914
0.60515 0.06726 0.01410
0.66036 0.07417 0.00361
0.71267 0.08105 0.00000
0.76162 0.08835 0.00000
0.80723 0.10347 0.00000
0.84918 0.11039 0.00000
0.88785 0.11775 0.00000
0.92526 0.12727 0.00000
0.96057 0.13673 0.00000
0.99371 0.14709 0.00000
1.00000 0.15551 0.00000
1.00000 0.16581 0.00000
1.00000 0.17779 0.00000
1.00000 0.19077 0.00138
1.00000 0.20274 0.00000
1.00000 0.21322 0.00000
1.00000 0.22460 0.00000
1.00000 0.23653 0.00000
0.00000 0.03500 0.00000
0.00000 0.03649 0.00000
0.00384 0.03900 0.00000
0.01680 0.04091 0.00000
0.03869 0.04296 0.00000
0.06836 0.04908 0.00132
0.10750 0.05324 0.00477
0.16204 0.05836 0.00566
0.22596 0.06621 0.00850
0.29466 0.06746 0.00718
0.36594 0.07171 0.00562
0.43484 0.07253 0.01250
0.49946 0.07840 0.00691
0.55845 0.08163 0.01193
0.61118 0.08525 0.02419
0.66559 0.09377 0.01303
0.71710 0.10058 0.01170
0.76556 0.10584 0.01322
0.81016 0.12301 0.00000
0.85176 0.12935 0.00000
0.89006 0.13639 0.00000
0.92747 0.14621 0.00000
0.96271 0.15568 0.00000
0.99576 0.16570 0.00000
1.00000 0.17329 0.00000
1.00000 0.18275 0.00000
1.00000 0.19378 0.00557
1.00000 0.20592 0.00699
1.00000 0.21728 0.00000
1.00000 0.22723 0.00000
1.00000 0.23820 0.00000
1.00000 0.24967 0.00000
0.00000 0.05728 0.00000
0.00000 0.05829 0.00000
0.00000 0.06219 0.00000
0.01415 0.06619 0.00000
0.03779 0.07333 0.00056
0.07267 0.07706 0.00185
0.11556 0.08457 0.00360
0.17078 0.09164 0.00523
0.23544 0.09807 0.00613
0.30585 0.10245 0.00716
0.37707 0.10669 0.00587
0.44572 0.10686 0.01219
0.50978 0.11007 0.00762
0.56762 0.11004 0.01023
0.61941 0.10823 0.02790
0.67265 0.11816 0.01305
0.72305 0.12523 0.01514
0.77116 0.12733 0.02717
0.81421 0.14627 0.00663
0.85531 0.15149 0.00000
0.89307 0.15781 0.00000
0.93038 0.16809 0.00000
0.96546 0.17773 0.00000
0.99833 0.18750 0.00000
1.00000 0.19424 0.00000
1.00000 0.20291 0.00520
1.00000 0.21296 0.02184
1.00000 0.22419 0.02189
1.00000 0.23492 0.00000
1.00000 0.24430 0.00000
1.00000 0.25481 0.00000
1.00000 0.26579 0.00000
0.00000 0.09564 0.00000
0.00000 0.09591 0.00000
0.00000 0.09921 0.00000
0.00000 0.10449 0.00000
0.02680 0.11067 0.00000
0.06853 0.11650 0.00113
0.11655 0.12416 0.00158
0.17787 0.13390 0.00033
0.24163 0.14182 0.00018
0.31422 0.14692 0.00323
0.38640 0.15064 0.00161
0.45596 0.15327 0.00459
0.51958 0.15492 0.00373
0.57698 0.15399 0.00606
0.63048 0.14826 0.02097
0.68080 0.15455 0.00919
0.72984 0.15827 0.00883
0.77755 0.15625 0.02649
0.81939 0.17418 0.00443
0.85998 0.17874 0.00263
0.89725 0.18368 0.00339
0.93436 0.19389 0.00047
0.96906 0.20316 0.00034
1.00000 0.21232 0.01150
1.00000 0.21805 0.01866
1.00000 0.22600 0.03010
1.00000 0.23515 0.04542
1.00000 0.24550 0.04532
1.00000 0.25565 0.00000
1.00000 0.26445 0.00000
1.00000 0.27453 0.00000
1.00000 0.28497 0.00000
0.00000 0.15163 0.00000
0.00000 0.15164 0.00000
0.00000 0.15406 0.00000
0.00000 0.15906 0.00000
0.00000 0.16537 0.00000
0.04584 0.17027 0.00000
0.10828 0.17585 0.00000
0.17315 0.18341 0.00000
0.24582 0.19391 0.00000
0.31875 0.20039 0.00000
0.38920 0.20631 0.00000
0.46341 0.20677 0.00000
0.52575 0.21060 0.00000
0.58310 0.21061 0.00000
0.63894 0.20644 0.00168
0.68694 0.20693 0.00042
0.73577 0.20771 0.00221
0.78317 0.20188 0.01956
0.82529 0.21150 0.00000
0.86546 0.21277 0.00000
0.90259 0.21418 0.00220
0.93945 0.22428 0.00121
0.97366 0.23352 0.00593
1.00000 0.24178 0.02316
1.00000 0.24578 0.03478
1.00000 0.25243 0.04818
1.00000 0.26034 0.06218
1.00000 0.26961 0.06413
1.00000 0.27918 0.02362
1.00000 0.28745 0.00000
1.00000 0.29720 0.00000
1.00000 0.30719 0.00000
0.00000 0.21625 0.00000
0.00000 0.21634 0.00000
0.00000 0.21835 0.00000
0.00000 0.22236 0.00000
0.00000 0.22776 0.00000
0.00000 0.23220 0.00000
0.07915 0.23702 0.00000
0.15934 0.24421 0.00000
0.23711 0.25151 0.00000
0.31803 0.26046 0.00000
0.39014 0.26517 0.00000
0.46058 0.27001 0.00000
0.52584 0.27246 0.00000
0.58444 0.27280 0.00000
0.63718 0.27001 0.00000
0.68873 0.26982 0.00000
0.73897 0.26773 0.00000
0.78641 0.26376 0.00286
0.83037 0.26499 0.00000
0.87089 0.26179 0.00000
0.90912 0.25610 0.00413
0.94550 0.26239 0.00000
0.97900 0.26889 0.00000
1.00000 0.27531 0.01017
1.00000 0.27781 0.02688
1.00000 0.28331 0.04494
1.00000 0.28985 0.06336
1.00000 0.29754 0.06996
1.00000 0.30597 0.04156
1.00000 0.31332 0.00000
1.00000 0.32259 0.00000
1.00000 0.33208 0.00000
0.00000 0.28230 0.00000
0.00000 0.28241 0.00000
0.00000 0.28407 0.00000
0.00000 0.28831 0.00000
0.00000 0.29456 0.00000
0.00000 0.29933 0.00000
0.00000 0.30252 0.00000
0.12789 0.30966 0.00000
0.22008 0.31675 0.00000
0.30569 0.32185 0.00000
0.38590 0.32763 0.00000
0.45751 0.33255 0.00000
0.52129 0.33448 0.00000
0.57846 0.33774 0.00000
0.63346 0.33384 0.00000
0.68698 0.33518 0.00000
0.73894 0.33419 0.00000
0.78765 0.33116 0.00000
0.83307 0.32674 0.00000
0.87425 0.32364 0.00000
0.91381 0.31803 0.00000
0.95137 0.31636 0.00000
0.98457 0.31622 0.00000
1.00000 0.31742 0.00000
1.00000 0.31613 0.00364
1.00000 0.31828 0.01585
1.00000 0.32284 0.03797
1.00000 0.32922 0.05341
1.00000 0.33670 0.03405
1.00000 0.34306 0.00000
1.00000 0.35154 0.00000
1.00000 0.36007 0.00000
0.00000 0.34893 0.00000
0.00000 0.34935 0.00000
0.00000 0.35116 0.00000
0.00000 0.35495 0.00000
0.00000 0.36075 0.00000
0.00000 0.36560 0.00000
0.00000 0.36899 0.00000
0.04232 0.37220 0.00000
0.19088 0.37895 0.00000
0.28722 0.38319 0.00000
0.37218 0.38552 0.00000
0.44771 0.38983 0.00000
0.51386 0.39250 0.00000
0.57183 0.39442 0.00000
0.62604 0.39697 0.00000
0.68258 0.39641 0.00000
0.73594 0.39578 0.00000
0.78675 0.39446 0.00000
0.83269 0.39116 0.00000
0.87479 0.38859 0.00000
0.91427 0.38553 0.00000
0.95377 0.37939 0.00000
0.98822 0.37573 0.00000
1.00000 0.37147 0.00000
1.00000 0.36708 0.00000
1.00000 0.36427 0.00000
1.00000 0.36336 0.00490
1.00000 0.36540 0.01139
1.00000 0.37028 0.00000
1.00000 0.37548 0.00000
1.00000 0.38357 0.00000
1.00000 0.39142 0.00000
0.00000 0.41413 0.00000
0.00000 0.41465 0.00000
0.00000 0.41581 0.00000
0.00000 0.41843 0.00000
0.00000 0.42145 0.00000
0.00000 0.42435 0.00000
0.00000 0.42652 0.00000
0.00000 0.42906 0.00000
0.14075 0.43242 0.00000
0.26069 0.43632 0.00000
0.35254 0.43863 0.00000
0.43104 0.44047 0.00000
0.50065 0.44441 0.00000
0.56334 0.44793 0.00000
0.62056 0.45079 0.00000
0.67645 0.45257 0.00000
0.73029 0.45264 0.00000
0.78269 0.45012 0.00000
0.82994 0.44911 0.00000
0.87311 0.44735 0.00000
0.91198 0.44588 0.00000
0.95174 0.44088 0.00000
0.98831 0.43470 0.00000
1.00000 0.42991 0.00000
1.00000 0.42634 0.00000
1.00000 0.42216 0.00000
1.00000 0.41631 0.00000
1.00000 0.41260 0.00000
1.00000 0.41187 0.00000
1.00000 0.41270 0.00000
1.00000 0.41822 0.00000
1.00000 0.42447 0.00000
0.00000 0.47000 0.00000
0.00000 0.47034 0.00000
0.00000 0.47099 0.00000
0.00000 0.47240 0.00000
0.00000 0.47411 0.00000
0.00000 0.47569 0.00000
0.00000 0.47725 0.00000
0.00000 0.47894 0.00000
0.02376 0.48118 0.00000
0.22141 0.48417 0.00000
0.32642 0.48665 0.00000
0.41162 0.48904 0.00000
0.48411 0.49113 0.00000
0.55048 0.49598 0.00000
0.61179 0.50052 0.00000
0.66881 0.50265 0.00000
0.72391 0.50395 0.00000
0.77473 0.50397 0.00000
0.82501 0.50130 0.00000
0.86880 0.50011 0.00000
0.90832 0.49807 0.00000
0.94759 0.49554 0.00000
0.98470 0.49197 0.00000
1.00000 0.48628 0.00000
1.00000 0.48171 0.00000
1.00000 0.47795 0.00000
1.00000 0.47442 0.00000
1.00000 0.46944 0.00000
1.00000 0.46346 0.00000
1.00000 0.45902 0.00000
1.00000 0.45997 0.00000
1.00000 0.46236 0.00000
0.00000 0.51923 0.00000
0.00000 0.51945 0.00000
0.00000 0.51986 0.00000
0.00000 0.52072 0.00000
0.00000 0.52189 0.00000
0.00000 0.52295 0.00000
0.00000 0.52424 0.00000
0.00000 0.52632 0.00000
0.00000 0.52884 0.00000
0.15810 0.53158 0.00000
0.29684 0.53415 0.00000
0.39002 0.53609 0.00000
0.46671 0.53818 0.00000
0.53445 0.54083 0.00000
0.59842 0.54515 0.00000
0.65817 0.54955 0.00000
0.71544 0.55196 0.00000
0.76846 0.55184 0.00000
0.81605 0.55293 0.00000
0.86067 0.55121 0.00000
0.90297 0.54721 0.00000
0.94186 0.54578 0.00000
0.97963 0.54288 0.00000
1.00000 0.53934 0.00000
1.00000 0.53538 0.00000
1.00000 0.53089 0.00000
1.00000 0.52554 0.00000
1.00000 0.52185 0.00000
1.00000 0.51857 0.00000
1.00000 0.51225 0.00000
1.00000 0.50887 0.00000
1.00000 0.50714 0.00000
0.00000 0.56610 0.00000
0.00000 0.56624 0.00000
0.00000 0.56650 0.00000
0.00000 0.56712 0.00000
0.00000 0.56810 0.00000
0.00000 0.56898 0.00000
0.00000 0.57027 0.00000
0.00000 0.57246 0.00000
0.00000 0.57525 0.00000
0.06163 0.57813 0.00000
0.25035 0.58031 0.00000
0.36420 0.58213 0.00000
0.44661 0.58371 0.00000
0.51788 0.58597 0.00000
0.58244 0.58814 0.00000
0.64406 0.59213 0.00000
0.70376 0.59651 0.00000
0.75951 0.59771 0.00000
0.80947 0.59792 0.00000
0.85266 0.59898 0.00000
0.89221 0.59733 0.00000
0.93457 0.59298 0.00000
0.97321 0.59063 0.00000
1.00000 0.58851 0.00000
1.00000 0.58409 0.00000
1.00000 0.58117 0.00000
1.00000 0.57737 0.00000
1.00000 0.57195 0.00319
1.00000 0.56714 0.00000
1.00000 0.56226 0.00000
1.00000 0.55996 0.00000
1.00000 0.55685 0.00000
0.00000 0.61221 0.00000
0.00000 0.61236 0.00000
0.00000 0.61260 0.00000
0.00000 0.61316 0.00000
0.00000 0.61419 0.00000
0.00000 0.61503 0.00000
0.00000 0.61599 0.00000
0.00000 0.61800 0.00000
0.00000 0.62097 0.00000
0.00000 0.62348 0.00000
0.19586 0.62551 0.00000
0.32727 0.62705 0.00000
0.42322 0.62836 0.00000
0.49739 0.63024 0.00000
0.56501 0.63228 0.00000
0.62811 0.63416 0.00000
0.68857 0.63745 0.00000
0.74688 0.64095 0.00000
0.80048 0.64123 0.00000
0.84439 0.64295 0.00000
0.88467 0.64216 0.00000
0.92286 0.64127 0.00000
0.96383 0.63764 0.00000
1.00000 0.63406 0.00000
1.00000 0.63073 0.00000
1.00000 0.62789 0.00000
1.00000 0.62468 0.00000
1.00000 0.62147 0.00000
1.00000 0.61711 0.00755
1.00000 0.61033 0.00468
1.00000 0.60710 0.00000
1.00000 0.60397 0.00000
0.00000 0.65687 0.00000
0.00000 0.65709 0.00000
0.00000 0.65740 0.00000
0.00000 0.65795 0.00000
0.00000 0.65883 0.00000
0.00000 0.65990 0.00000
0.00000 0.66106 0.00000
0.00000 0.66283 0.00000
0.00000 0.66535 0.00000
0.00000 0.66784 0.00000
0.09979 0.66939 0.00000
0.28278 0.67038 0.00000
0.39174 0.67153 0.00000
0.47453 0.67301 0.00000
0.54484 0.67481 0.00000
0.61068 0.67646 0.00000
0.67199 0.67801 0.00000
0.73064 0.68063 0.00000
0.78594 0.68363 0.00000
0.83420 0.68440 0.00000
0.87500 0.68464 0.00000
0.91503 0.68303 0.00000
0.95295 0.68300 0.00000
0.99237 0.68052 0.00000
1.00000 0.67536 0.00000
1.00000 0.67152 0.00000
1.00000 0.66939 0.00000
1.00000 0.66661 0.00000
1.00000 0.66335 0.00000
1.00000 0.65807 0.00000
1.00000 0.65449 0.00000
1.00000 0.64980 0.00000
0.00000 0.69823 0.00000
0.00000 0.69846 0.00000
0.00000 0.69875 0.00000
0.00000 0.69927 0.00000
0.00000 0.70014 0.00000
0.00000 0.70139 0.00000
0.00000 0.70279 0.00000
0.00000 0.70447 0.00000
0.00000 0.70660 0.00000
0.00000 0.70887 0.00000
0.00000 0.71047 0.00000
0.23141 0.71149 0.00000
0.35166 0.71249 0.00000
0.44745 0.71378 0.00000
0.52311 0.71493 0.00000
0.59048 0.71665 0.00000
0.65395 0.71801 0.00000
0.71335 0.71913 0.00000
0.76900 0.72161 0.00000
0.81971 0.72312 0.00000
0.86430 0.72337 0.00000
0.90466 0.72233 0.00000
0.94475 0.72200 0.00000
0.98263 0.72134 0.00000
1.00000 0.71913 0.00000
1.00000 0.71518 0.00000
1.00000 0.71043 0.00000
1.00000 0.70820 0.00000
1.00000 0.70634 0.00112
1.00000 0.70203 0.01058
1.00000 0.69924 0.00000
1.00000 0.69652 0.00000
0.00000 0.73676 0.00000
0.00000 0.73699 0.00000
0.00000 0.73728 0.00000
0.00000 0.73779 0.00000
0.00000 0.73866 0.00000
0.00000 0.73998 0.00000
0.00000 0.74163 0.00000
0.00000 0.74340 0.00000
0.00000 0.74536 0.00000
0.00000 0.74734 0.00000
0.00000 0.74910 0.00000
0.13620 0.75049 0.00000
0.31170 0.75177 0.00000
0.41183 0.75252 0.00000
0.49808 0.75302 0.00000
0.56865 0.75393 0.00000
0.63365 0.75517 0.00000
0.69505 0.75604 0.00000
0.75178 0.75671 0.00000
0.80314 0.75722 0.00000
0.85077 0.75822 0.00000
0.89400 0.75826 0.00000
0.93404 0.75783 0.00000
0.97319 0.75753 0.00000
1.00000 0.75588 0.00000
1.00000 0.75522 0.00000
1.00000 0.75221 0.00000
1.00000 0.74735 0.00000
1.00000 0.74460 0.00000
1.00000 0.74265 0.00000
1.00000 0.73987 0.00939
1.00000 0.73708 0.00000
0.00000 0.77276 0.00000
0.00000 0.77297 0.00000
0.00000 0.77325 0.00000
0.00000 0.77374 0.00000
0.00000 0.77461 0.00000
0.00000 0.77600 0.00000
0.00000 0.77775 0.00000
0.00000 0.77950 0.00000
0.00000 0.78127 0.00000
0.00000 0.78299 0.00000
0.00000 0.78452 0.00000
0.00000 0.78573 0.00000
0.25501 0.78672 0.00000
0.37571 0.78736 0.00000
0.46704 0.78770 0.00000
0.54553 0.78818 0.00000
0.61204 0.78901 0.00000
0.67503 0.78967 0.00000
0.73372 0.78953 0.00000
0.78685 0.78903 0.00000
0.83555 0.78932 0.00000
0.88119 0.79064 0.00000
0.92262 0.79101 0.00000
0.96240 0.79041 0.00000
0.99981 0.78979 0.00000
1.00000 0.78834 0.00000
1.00000 0.78855 0.00000
1.00000 0.78660 0.00000
1.00000 0.78163 0.00000
1.00000 0.77749 0.00000
1.00000 0.77619 0.00000
1.00000 0.77396 0.00018
0.00000 0.80641 0.00000
0.00000 0.80662 0.00000
0.00000 0.80688 0.00000
0.00000 0.80732 0.00000
0.00000 0.80811 0.00000
0.00000 0.80945 0.00000
0.00000 0.81100 0.00000
0.00000 0.81244 0.00000
0.00000 0.81384 0.00000
0.00000 0.81517 0.00000
0.00000 0.81633 0.00000
0.00000 0.81717 0.00000
0.17926 0.81792 0.00000
0.33741 0.81864 0.00000
0.43313 0.81903 0.00000
0.51867 0.81954 0.00000
0.59111 0.82035 0.00000
0.65450 0.82128 0.00000
0.71490 0.82101 0.00000
0.77037 0.81999 0.00000
0.82067 0.81953 0.00000
0.86606 0.81982 0.00000
0.90955 0.82115 0.00000
0.95005 0.82145 0.00000
0.98937 0.82010 0.00000
1.00000 0.82020 0.00000
1.00000 0.81927 0.00000
1.00000 0.81942 0.00000
1.00000 0.81849 0.00000
1.00000 0.81321 0.00072
1.00000 0.80875 0.00000
1.00000 0.80649 0.00000
0.00000 0.83754 0.00000
0.00000 0.83775 0.00000
0.00000 0.83801 0.00000
0.00000 0.83843 0.00000
0.00000 0.83909 0.00000
0.00000 0.84006 0.00000
0.00000 0.84125 0.00000
0.00000 0.84244 0.00000
0.00000 0.84362 0.00000
0.00000 0.84481 0.00000
0.00000 0.84580 0.00000
0.00000 0.84643 0.00000
0.04105 0.84709 0.00000
0.28380 0.84797 0.00000
0.40276 0.84883 0.00000
0.48748 0.84939 0.00000
0.56774 0.85016 0.00000
0.63531 0.85116 0.00000
0.69565 0.85177 0.00000
0.75284 0.85081 0.00000
0.80449 0.84941 0.00000
0.85068 0.84887 0.00000
0.89364 0.84906 0.00000
0.93695 0.85015 0.00000
0.97646 0.85028 0.00000
1.00000 0.84869 0.00000
1.00000 0.84992 0.00000
1.00000 0.84908 0.00000
1.00000 0.84911 0.00000
1.00000 0.84805 0.00118
1.00000 0.84457 0.03933
1.00000 0.83944 0.01153
0.00000 0.86736 0.00000
0.00000 0.86755 0.00000
0.00000 0.86778 0.00000
0.00000 0.86816 0.00000
0.00000 0.86872 0.00000
0.00000 0.86954 0.00000
0.00000 0.87059 0.00000
0.00000 0.87174 0.00000
0.00000 0.87293 0.00000
0.00000 0.87419 0.00000
0.00000 0.87529 0.00000
0.00000 0.87599 0.00000
0.00000 0.87637 0.00000
0.22000 0.87721 0.00000
0.36068 0.87825 0.00000
0.45888 0.87893 0.00000
0.53959 0.87921 0.00000
0.61450 0.88002 0.00000
0.67761 0.88116 0.00000
0.73459 0.88123 0.00000
0.78743 0.87967 0.00000
0.83463 0.87809 0.00000
0.87847 0.87745 0.00000
0.92136 0.87779 0.00000
0.96373 0.87861 0.00000
0.99830 0.87881 0.00000
1.00000 0.87798 0.00000
1.00000 0.87855 0.00000
1.00000 0.87956 0.01485
1.00000 0.87821 0.01197
1.00000 0.87786 0.05501
1.00000 0.87569 0.06861
0.00000 0.89733 0.00000
0.00000 0.89751 0.00000
0.00000 0.89773 0.00000
0.00000 0.89807 0.00000
0.00000 0.89858 0.00000
0.00000 0.89929 0.00000
0.00000 0.90020 0.00000
0.00000 0.90124 0.00000
0.00000 0.90239 0.00000
0.00000 0.90368 0.00000
0.00000 0.90486 0.00000
0.00000 0.90561 0.00000
0.00000 0.90590 0.00000
0.11421 0.90610 0.00000
0.31123 0.90675 0.00000
0.42675 0.90762 0.00000
0.51175 0.90765 0.00000
0.58965 0.90793 0.00000
0.65862 0.90905 0.00000
0.71706 0.91018 0.00000
0.76978 0.90977 0.00000
0.81845 0.90783 0.00000
0.86352 0.90622 0.00000
0.90729 0.90597 0.00000
0.94899 0.90608 0.00000
0.98661 0.90675 0.00328
1.00000 0.90730 0.03062
1.00000 0.90612 0.00000
1.00000 0.91039 0.03763
1.00000 0.90930 0.07929
1.00000 0.90660 0.07167
1.00000 0.90652 0.07366
0.00000 0.92644 0.00000
0.00000 0.92660 0.00000
0.00000 0.92680 0.00000
0.00000 0.92710 0.00000
0.00000 0.92754 0.00000
0.00000 0.92814 0.00000
0.00000 0.92890 0.00000
0.00000 0.92980 0.00000
0.00000 0.93083 0.00000
0.00000 0.93203 0.00000
0.00000 0.93322 0.00000
0.00000 0.93399 0.00000
0.00000 0.93414 0.00000
0.00000 0.93373 0.00000
0.25797 0.93373 0.00000
0.38730 0.93425 0.00000
0.48579 0.93503 0.00000
0.56241 0.93479 0.00000
0.63602 0.93542 0.00000
0.69850 0.93690 0.00000
0.75180 0.93793 0.00000
0.80111 0.93666 0.00000
0.84828 0.93438 0.00000
0.89328 0.93305 0.00000
0.93577 0.93299 0.00000
0.97324 0.93345 0.02331
1.00000 0.93460 0.07026
1.00000 0.93645 0.09414
1.00000 0.93828 0.08862
1.00000 0.93696 0.09703
1.00000 0.93504 0.12607
1.00000 0.93430 0.10548
0.00000 0.95270 0.00000
0.00000 0.95284 0.00000
0.00000 0.95299 0.00000
0.00000 0.95323 0.00000
0.00000 0.95358 0.00000
0.00000 0.95408 0.00000
0.00000 0.95479 0.00000
0.00000 0.95576 0.00000
0.00000 0.95694 0.00000
0.00000 0.95820 0.00000
0.00000 0.95943 0.00000
0.00000 0.96023 0.00000
0.00000 0.96019 0.00000
0.00000 0.95943 0.00000
0.18228 0.95855 0.00000
0.34808 0.95861 0.00000
0.45428 0.95934 0.00000
0.53913 0.95979 0.00000
0.61069 0.95926 0.00000
0.67828 0.95985 0.00000
0.73419 0.96139 0.00000
0.78347 0.96191 0.00000
0.83223 0.95990 0.00000
0.87951 0.95785 0.00000
0.92310 0.95731 0.01967
0.96133 0.95828 0.02111
0.99165 0.95955 0.09621
1.00000 0.96096 0.12892
1.00000 0.96171 0.15029
1.00000 0.95974 0.15099
1.00000 0.95893 0.14336
1.00000 0.96044 0.15765
0.00000 0.97767 0.00000
0.00000 0.97782 0.00000
0.00000 0.97800 0.00000
0.00000 0.97826 0.00000
0.00000 0.97862 0.00000
0.00000 0.97910 0.00000
0.00000 0.97971 0.00000
0.00000 0.98042 0.00000
0.00000 0.98118 0.00000
0.00000 0.98190 0.00000
0.00000 0.98245 0.00000
0.00000 0.98249 0.00000
0.00000 0.98179 0.00000
0.00000 0.98059 0.00000
0.01695 0.97925 0.00000
0.31091 0.97839 0.00000
0.42556 0.97832 0.00000
0.51723 0.97893 0.00000
0.59135 0.97806 0.00000
0.65825 0.97760 0.00000
0.71832 0.97902 0.00000
0.76955 0.98058 0.00000
0.81788 0.98043 0.00000
0.86593 0.97871 0.03003
0.91096 0.97781 0.07717
0.95027 0.97859 0.09892
0.98155 0.98038 0.10531
1.00000 0.98106 0.15398
1.00000 0.98005 0.18074
1.00000 0.97846 0.19658
1.00000 0.97844 0.19707
1.00000 0.98040 0.17440
0.00000 0.99065 0.00000
0.00000 0.99074 0.00000
0.00000 0.99084 0.00000
0.00000 0.99098 0.00000
0.00000 0.99117 0.00000
0.00000 0.99142 0.00000
0.00000 0.99178 0.00000
0.00000 0.99226 0.00000
0.00000 0.99278 0.00000
0.00000 0.99320 0.00000
0.00000 0.99343 0.00000
0.00000 0.99345 0.00000
0.00000 0.99321 0.00000
0.00000 0.99268 0.00000
0.00000 0.99191 0.00000
0.27467 0.99095 0.00000
0.40630 0.99053 0.00000
0.49912 0.99033 0.00000
0.57917 0.99027 0.00000
0.64278 0.99020 0.00000
0.70399 0.99121 0.00000
0.75870 0.99296 0.02396
0.80698 0.99428 0.05577
0.85325 0.99409 0.07217
0.89887 0.99305 0.11013
0.93976 0.99308 0.13882
0.97241 0.99447 0.15783
0.99428 0.99531 0.16590
1.00000 0.99376 0.20342
1.00000 0.99200 0.22336
1.00000 0.99215 0.23166
1.00000 0.99366 0.23234
0.00000 0.99656 0.00000
0.00000 0.99659 0.00000
0.00000 0.99663 0.00000
0.00000 0.99668 0.00000
