cube lut/pro neg hi_sRGB.cube
# sRGB
# github.com/abpy/FujifilmCameraProfiles
LUT_3D_SIZE 8
DOMAIN_MIN 0.000000 0.000000 0.000000
DOMAIN_MAX 0.903226 0.903226 0.903226
0.00000 0.00000 0.00000
0.03204 0.00000 0.00000
0.19817 0.00706 0.00000
0.48009 0.01672 0.00000
0.70553 0.03618 0.00000
0.88378 0.07765 0.00000
1.00000 0.11977 0.00000
1.00000 0.17526 0.00000
0.00000 0.03500 0.00000
0.03869 0.04296 0.00000
0.22596 0.06621 0.00850
0.49946 0.07840 0.00691
0.71710 0.10058 0.01170
0.89006 0.13639 0.00000
1.00000 0.17329 0.00000
1.00000 0.21728 0.00000
0.00000 0.21625 0.00000
0.00000 0.22776 0.00000
0.23711 0.25151 0.00000
0.52584 0.27246 0.00000
0.73897 0.26773 0.00000
0.90912 0.25610 0.00413
1.00000 0.27781 0.02688
1.00000 0.30597 0.04156
0.00000 0.47000 0.00000
0.00000 0.47411 0.00000
0.02376 0.48118 0.00000
0.48411 0.49113 0.00000
0.72391 0.50395 0.00000
0.90832 0.49807 0.00000
1.00000 0.48171 0.00000
1.00000 0.46346 0.00000
0.00000 0.65687 0.00000
0.00000 0.65883 0.00000
0.00000 0.66535 0.00000
0.39174 0.67153 0.00000
0.67199 0.67801 0.00000
0.87500 0.68464 0.00000
1.00000 0.67536 0.00000
1.00000 0.66335 0.00000
0.00000 0.80641 0.00000
0.00000 0.80811 0.00000
0.00000 0.81384 0.00000
0.17926 0.81792 0.00000
0.59111 0.82035 0.00000
0.82067 0.81953 0.00000
0.98937 0.82010 0.00000
1.00000 0.81849 0.00000
0.00000 0.92644 0.00000
0.00000 0.92754 0.00000
0.00000 0.93083 0.00000
0.00000 0.93414 0.00000
0.48579 0.93503 0.00000
0.75180 0.93793 0.00000
0.93577 0.93299 0.00000
1.00000 0.93828 0.08862
0.00000 0.99656 0.00000
0.00000 0.99674 0.00000
0.00000 0.99747 0.00000
0.00000 0.99866 0.00000
0.38817 0.99862 0.00000
0.69189 0.99868 0.00000
0.88776 1.00000 0.13620
0.99807 1.00000 0.21500
0.00000 0.00000 0.04055
0.04625 0.00957 0.05536
0.22655 0.01485 0.09215
0.49109 0.02911 0.13992
0.70741 0.02530 0.16765
0.88216 0.04974 0.18179
1.00000 0.09840 0.20711
1.00000 0.16234 0.20756
0.00000 0.05040 0.04564
0.06366 0.06383 0.06375
0.25223 0.08499 0.09312
0.51191 0.10674 0.13573
0.71987 0.11586 0.17018
0.88863 0.12784 0.19347
1.00000 0.16153 0.21601
1.00000 0.20756 0.21309
0.00000 0.23601 0.02374
0.00000 0.24798 0.03370
0.25666 0.26913 0.05310
0.52412 0.29332 0.09451
0.73355 0.29820 0.12553
0.90694 0.28443 0.15405
1.00000 0.28432 0.20860
1.00000 0.30821 0.22964
0.00000 0.47592 0.00000
0.00000 0.47939 0.00000
0.12184 0.48695 0.00000
0.48873 0.49632 0.00051
0.71900 0.51157 0.06369
0.90077 0.50848 0.10742
1.00000 0.49464 0.14605
1.00000 0.47674 0.17786
0.00000 0.65791 0.00000
0.00000 0.66090 0.00000
0.00000 0.66846 0.00000
0.40498 0.67245 0.00000
0.67071 0.67858 0.00000
0.86793 0.68632 0.07967
1.00000 0.67914 0.12150
1.00000 0.66887 0.15604
0.00000 0.80702 0.00000
0.00000 0.80902 0.00000
0.00000 0.81359 0.00000
0.21836 0.81778 0.00000
0.59561 0.82015 0.00000
0.81749 0.81755 0.03214
0.98366 0.82071 0.07173
1.00000 0.82179 0.17233
0.00000 0.92607 0.00000
0.00000 0.92727 0.00000
0.00000 0.93004 0.00000
0.00000 0.93285 0.00000
0.49621 0.93558 0.00000
0.75202 0.93753 0.08601
0.93281 0.93175 0.13396
1.00000 0.93893 0.20492
0.00000 0.99691 0.00000
0.00000 0.99710 0.00000
0.00000 0.99760 0.00000
0.00000 0.99838 0.04633
0.40476 0.99864 0.13203
0.69362 0.99950 0.13198
0.88748 1.00000 0.22308
0.99734 1.00000 0.28593
0.01095 0.00732 0.25168
0.07210 0.00958 0.27033
0.28628 0.02921 0.32095
0.52005 0.05749 0.36339
0.71589 0.08495 0.40095
0.87660 0.13073 0.44257
1.00000 0.14041 0.46220
1.00000 0.16696 0.44885
0.01993 0.09073 0.26095
0.10819 0.10353 0.27721
0.30089 0.12273 0.31370
0.52765 0.14810 0.35878
0.71912 0.18719 0.40586
0.88171 0.21683 0.44061
1.00000 0.22143 0.46769
1.00000 0.23160 0.45946
0.00000 0.27650 0.26135
0.00000 0.28203 0.26977
0.29684 0.29659 0.29743
0.53422 0.31416 0.32823
0.72862 0.33798 0.37304
0.89254 0.35486 0.41097
1.00000 0.35246 0.43821
1.00000 0.35238 0.45403
0.00000 0.48872 0.23196
0.00000 0.49175 0.24217
0.19615 0.49837 0.25975
0.50122 0.50860 0.29290
0.71435 0.52252 0.32571
0.88642 0.52926 0.36220
1.00000 0.52952 0.39187
1.00000 0.51691 0.40292
0.00000 0.66493 0.21963
0.00000 0.66682 0.22745
0.00000 0.67158 0.24530
0.43267 0.67611 0.26902
0.67266 0.68059 0.28894
0.85772 0.68926 0.32486
1.00000 0.68897 0.35689
1.00000 0.68319 0.36451
0.00000 0.81048 0.21526
0.00000 0.81152 0.21757
0.00000 0.81386 0.22442
0.29685 0.81733 0.24827
0.61099 0.81674 0.27669
0.81285 0.81709 0.29732
0.97215 0.82292 0.32845
1.00000 0.82591 0.37099
0.00000 0.92667 0.21242
0.00000 0.92762 0.21214
0.00000 0.92970 0.21799
0.00000 0.93103 0.22729
0.52547 0.93379 0.27260
0.75830 0.93366 0.30460
0.92885 0.93054 0.32601
1.00000 0.93913 0.38425
0.00000 0.99748 0.23288
0.00000 0.99769 0.22877
0.00000 0.99757 0.24877
0.00000 0.99789 0.27564
0.44562 0.99836 0.30440
0.70450 0.99983 0.31562
0.88958 1.00000 0.37663
0.99610 0.99748 0.42313
0.03020 0.01050 0.53300
0.10519 0.01366 0.55242
0.31460 0.03433 0.59883
0.54400 0.08331 0.63328
0.73215 0.13227 0.64858
0.88581 0.17600 0.66550
1.00000 0.22036 0.68310
1.00000 0.27543 0.69336
0.05891 0.11357 0.54726
0.16410 0.13171 0.56418
0.35642 0.16108 0.58746
0.55047 0.20342 0.60096
0.73237 0.23650 0.62476
0.88711 0.27434 0.64886
1.00000 0.30486 0.67435
1.00000 0.34177 0.68767
0.00000 0.31626 0.53190
0.13107 0.32364 0.53712
0.35574 0.33977 0.54901
0.55081 0.35901 0.56589
0.73598 0.37157 0.58869
0.89044 0.39522 0.61301
1.00000 0.42280 0.64268
1.00000 0.44501 0.66137
0.00000 0.50872 0.49162
0.00000 0.51224 0.49591
0.28423 0.51746 0.50826
0.52407 0.52458 0.52435
0.72355 0.53342 0.54149
0.88335 0.54230 0.56737
1.00000 0.55469 0.59614
1.00000 0.56606 0.61674
0.00000 0.67554 0.45836
0.00000 0.67725 0.46205
0.01464 0.68192 0.47150
0.45952 0.68596 0.48560
0.68359 0.68721 0.50307
0.85561 0.69503 0.52509
0.99618 0.69748 0.55635
1.00000 0.70454 0.58392
0.00000 0.81478 0.43641
0.00000 0.81583 0.43891
0.00000 0.81774 0.44625
0.35600 0.81816 0.46328
0.63050 0.81702 0.48296
0.81337 0.81930 0.50215
0.96410 0.82535 0.52984
1.00000 0.82982 0.55718
0.00000 0.92846 0.42929
0.00000 0.92926 0.43097
0.00000 0.93095 0.43396
0.16219 0.93089 0.44626
0.56062 0.93049 0.47387
0.76888 0.93154 0.49864
0.92749 0.93240 0.52031
1.00000 0.93874 0.56546
0.00000 0.99815 0.45316
0.00000 0.99828 0.45530
0.00000 0.99871 0.46020
0.00000 0.99908 0.46971
0.50421 0.99764 0.49177
0.72854 0.99896 0.50726
0.89764 0.99673 0.55842
0.99471 0.99427 0.57942
0.07550 0.01527 0.76815
0.15743 0.01855 0.79101
0.35179 0.03620 0.83440
0.55700 0.07396 0.86937
0.74595 0.16652 0.86923
0.89611 0.21699 0.86800
1.00000 0.26210 0.87133
1.00000 0.30434 0.85568
0.11322 0.12069 0.78749
0.21132 0.13079 0.80764
0.39221 0.15323 0.83019
0.57762 0.20025 0.84092
0.75071 0.28043 0.83260
0.89489 0.31620 0.83697
1.00000 0.34445 0.84954
1.00000 0.37750 0.84616
0.17165 0.37533 0.75137
0.26838 0.38154 0.75349
0.42611 0.39525 0.76165
0.58679 0.41069 0.76854
0.75128 0.42045 0.78368
0.89215 0.44420 0.79057
1.00000 0.46187 0.81066
1.00000 0.49170 0.82291
0.00000 0.53319 0.71357
0.15300 0.53517 0.71701
0.37046 0.54080 0.72448
0.56068 0.55154 0.73197
0.73618 0.55806 0.74434
0.88254 0.56876 0.75454
1.00000 0.57854 0.77351
1.00000 0.59805 0.78635
0.00000 0.69074 0.67102
0.00000 0.69264 0.67316
0.24858 0.69530 0.67980
0.50227 0.69719 0.68979
0.70048 0.70086 0.70018
0.85837 0.70493 0.71308
0.99251 0.71056 0.73139
1.00000 0.71865 0.74939
0.00000 0.81972 0.63994
0.00000 0.82055 0.64181
0.00000 0.82247 0.64593
0.41842 0.82335 0.65313
0.65244 0.82244 0.66770
0.82084 0.82516 0.67973
0.96270 0.83100 0.70040
1.00000 0.83757 0.72266
0.00000 0.93150 0.61728
0.00000 0.93167 0.61889
0.00000 0.93196 0.62202
0.29925 0.93183 0.63004
0.59409 0.93300 0.64861
0.78290 0.93483 0.66463
0.93010 0.93585 0.68612
1.00000 0.94162 0.71378
0.00000 0.99965 0.62231
0.00000 0.99950 0.62432
0.00000 0.99933 0.62913
0.19922 0.99844 0.63951
0.55450 0.99786 0.65535
0.75399 0.99687 0.67367
0.90690 0.99331 0.70172
0.99516 0.99404 0.71694
0.15042 0.02907 0.91866
0.22623 0.02279 0.95239
0.39123 0.03599 1.00000
0.57485 0.08120 1.00000
0.75002 0.15262 1.00000
0.89945 0.23860 1.00000
1.00000 0.30331 0.99893
1.00000 0.36313 0.99033
0.19046 0.13068 0.98111
0.27294 0.13603 1.00000
0.42750 0.15882 1.00000
0.59852 0.20726 1.00000
0.76186 0.25646 0.99864
0.90297 0.33626 0.98864
1.00000 0.38478 0.98303
1.00000 0.42170 0.98034
0.26925 0.39042 0.94390
0.34759 0.40073 0.94596
0.47993 0.41714 0.94923
0.62303 0.43498 0.95151
0.77176 0.44967 0.95467
0.90158 0.48187 0.95116
1.00000 0.50675 0.95347
1.00000 0.53037 0.95187
0.27044 0.56937 0.88904
0.33643 0.57200 0.89187
0.46088 0.57931 0.89712
0.61191 0.58692 0.90081
0.75688 0.59388 0.90797
0.89142 0.60460 0.91489
1.00000 0.61598 0.92458
1.00000 0.63629 0.92370
0.00000 0.70445 0.84793
0.19366 0.70560 0.84979
0.37883 0.70797 0.85478
0.55725 0.71197 0.86246
0.72559 0.71736 0.87033
0.86679 0.72326 0.87643
0.99550 0.73104 0.88534
1.00000 0.73989 0.89549
0.00000 0.82746 0.80979
0.00000 0.82789 0.81150
0.25277 0.82928 0.81601
0.49268 0.83115 0.82232
0.68364 0.83275 0.83177
0.83556 0.83568 0.83593
0.96869 0.84274 0.85351
1.00000 0.84959 0.86335
0.00000 0.93818 0.78108
0.00000 0.93796 0.78265
0.00000 0.93732 0.78631
0.41625 0.93650 0.79291
0.63445 0.93866 0.80504
0.80053 0.93878 0.81401
0.93743 0.94150 0.82640
1.00000 0.94649 0.84027
0.00000 0.99932 0.77415
0.00000 0.99906 0.77570
0.00000 0.99847 0.77980
0.35880 0.99837 0.78592
0.59999 0.99810 0.79446
0.77501 0.99446 0.80880
0.91156 0.99334 0.82173
0.99377 0.99660 0.83132
0.23337 0.05911 0.97254
0.29785 0.05553 0.99092
0.43347 0.07096 1.00000
0.59389 0.10758 1.00000
0.75826 0.15289 1.00000
0.90027 0.23461 1.00000
1.00000 0.32662 1.00000
1.00000 0.42125 1.00000
0.27337 0.15219 1.00000
0.34026 0.15201 1.00000
0.46498 0.17319 1.00000
0.61706 0.20571 1.00000
0.77475 0.25086 1.00000
0.90823 0.31660 1.00000
1.00000 0.39826 1.00000
1.00000 0.47945 1.00000
0.33695 0.38831 1.00000
0.39777 0.39567 1.00000
0.51568 0.41097 1.00000
0.64903 0.42405 1.00000
0.79407 0.46474 1.00000
0.91532 0.48047 1.00000
1.00000 0.53431 1.00000
1.00000 0.57512 1.00000
0.39980 0.60206 1.00000
0.44303 0.60424 1.00000
0.53980 0.61497 1.00000
0.66270 0.62146 1.00000
0.78602 0.63321 1.00000
0.90784 0.64457 1.00000
1.00000 0.65184 1.00000
1.00000 0.68330 1.00000
0.33013 0.72534 0.99088
0.38205 0.72637 0.99179
0.48830 0.72859 0.99333
0.62711 0.73525 0.99091
0.76272 0.74354 0.99377
0.88765 0.74789 0.99259
1.00000 0.75604 0.99262
1.00000 0.77066 0.99264
0.17951 0.83933 0.96221
0.27353 0.83947 0.96287
0.41877 0.84003 0.96409
0.57758 0.84120 0.96494
0.72704 0.84521 0.96799
0.85874 0.85178 0.96789
0.97522 0.85522 0.97598
1.00000 0.86342 0.96900
0.00000 0.94675 0.92838
0.00000 0.94675 0.92890
0.30741 0.94667 0.93057
0.51045 0.94611 0.93495
0.67837 0.94498 0.94347
0.82314 0.94427 0.94421
0.94583 0.94624 0.94577
1.00000 0.94624 0.94813
0.00000 0.99905 0.91342
0.00000 0.99887 0.91362
0.21604 0.99855 0.91410
0.46454 0.99787 0.91514
0.64893 0.99554 0.91791
0.79609 0.99277 0.92145
0.91237 0.99667 0.92150
0.98911 0.99506 0.92854
0.32033 0.09880 1.00000
0.37027 0.10100 1.00000
0.48029 0.10986 1.00000
0.61963 0.13679 1.00000
0.77080 0.17074 1.00000
0.90264 0.22265 1.00000
1.00000 0.32848 1.00000
1.00000 0.42322 1.00000
0.35314 0.18205 1.00000
0.40185 0.18568 1.00000
0.50717 0.19791 1.00000
0.64156 0.22801 1.00000
0.78792 0.26411 1.00000
0.91630 0.30985 1.00000
1.00000 0.39268 1.00000
1.00000 0.48315 1.00000
0.40406 0.39049 1.00000
0.45121 0.39576 1.00000
0.55156 0.40837 1.00000
0.67862 0.42295 1.00000
0.81088 0.45407 1.00000
0.93350 0.48657 1.00000
1.00000 0.53217 1.00000
1.00000 0.60276 1.00000
0.46555 0.61158 1.00000
0.50579 0.61643 1.00000
0.59640 0.63070 1.00000
0.70851 0.64240 1.00000
0.81543 0.64777 1.00000
0.92793 0.67430 1.00000
1.00000 0.67904 1.00000
1.00000 0.71123 1.00000
0.49222 0.75716 1.00000
0.52478 0.75840 1.00000
0.59478 0.76104 1.00000
0.70165 0.77316 1.00000
0.80642 0.77641 1.00000
0.91034 0.78017 1.00000
1.00000 0.79043 1.00000
1.00000 0.79733 1.00000
0.42749 0.85409 1.00000
0.46494 0.85463 1.00000
0.54689 0.85618 1.00000
0.65741 0.85912 1.00000
0.77288 0.86449 1.00000
0.88467 0.86706 1.00000
0.97940 0.86907 1.00000
1.00000 0.87452 1.00000
0.32290 0.94821 0.99857
0.37534 0.94815 0.99857
0.47808 0.94782 0.99863
0.60440 0.94648 0.99918
0.73200 0.94491 1.00000
0.85006 0.94601 1.00000
0.95154 0.94563 0.99983
1.00000 0.94251 1.00000
0.21616 0.99723 0.98507
0.29159 0.99717 0.98496
0.41960 0.99684 0.98460
0.56300 0.99523 0.98374
0.69494 0.99409 0.98278
0.81295 0.99463 0.98427
0.91819 0.99297 0.98475
0.99111 0.99114 0.99113
