cube lut/pro neg std_DisplayP3.cube
# DisplayP3
# github.com/abpy/FujifilmCameraProfiles
LUT_3D_SIZE 5
DOMAIN_MIN 0.000000 0.000000 0.000000
DOMAIN_MAX 0.903226 0.903226 0.903226
0.00000 0.00000 0.00000
0.19394 0.02661 0.00734
0.59237 0.11221 0.07959
0.85606 0.18352 0.03546
0.95918 0.23481 0.00000
0.00000 0.20777 0.00000
0.20127 0.21607 0.03456
0.60682 0.23323 0.06903
0.86489 0.27960 0.00000
0.96551 0.31966 0.00000
0.00000 0.57567 0.00463
0.00000 0.56711 0.08558
0.54806 0.58590 0.12708
0.86615 0.57116 0.14650
0.98556 0.51001 0.00000
0.00000 0.83295 0.08650
0.00000 0.84038 0.14249
0.33767 0.84964 0.16594
0.79683 0.85326 0.20022
0.99140 0.83942 0.22399
0.00000 0.95601 0.12304
0.00000 0.96422 0.17205
0.00000 0.97841 0.19118
0.68386 0.98835 0.23541
0.95169 0.99565 0.24983
0.02702 0.02469 0.22287
0.26636 0.07286 0.28338
0.62433 0.14167 0.34991
0.87003 0.17663 0.35961
0.96743 0.21684 0.24063
0.00000 0.23969 0.22111
0.26110 0.26128 0.26124
0.62527 0.29360 0.32858
0.88065 0.29484 0.35974
0.97504 0.29568 0.24814
0.00000 0.57274 0.20397
0.00000 0.57711 0.21807
0.57243 0.59436 0.26969
0.87203 0.59473 0.29265
0.99914 0.53707 0.26057
0.00000 0.83138 0.22114
0.00000 0.83415 0.22947
0.39567 0.84563 0.24440
0.80800 0.85064 0.28161
0.99522 0.84333 0.29120
0.00000 0.95853 0.24260
0.00000 0.96594 0.25988
0.00000 0.97790 0.24666
0.70349 0.98879 0.31113
0.95786 0.99536 0.33587
0.08800 0.07406 0.64957
0.31767 0.10529 0.70558
0.67830 0.20098 0.75975
0.90471 0.24517 0.76816
0.99474 0.29766 0.72162
0.14945 0.32857 0.62739
0.36420 0.35279 0.64884
0.66923 0.38161 0.68785
0.90430 0.40897 0.72855
1.00000 0.42554 0.72176
0.00000 0.60577 0.56240
0.22505 0.61033 0.58159
0.62094 0.62112 0.62109
0.88676 0.62761 0.65730
1.00000 0.63862 0.67810
0.00000 0.82848 0.51470
0.00000 0.83373 0.52852
0.49713 0.84169 0.56879
0.83102 0.84564 0.60895
1.00000 0.85000 0.64244
0.00000 0.96319 0.48647
0.00000 0.97032 0.50734
0.25510 0.98138 0.55482
0.75982 0.98399 0.60234
0.97164 0.98859 0.64172
0.14970 0.15249 0.95349
0.35543 0.17194 0.97178
0.69297 0.23106 0.98387
0.92991 0.32538 0.99425
1.00000 0.38475 0.97389
0.20876 0.37966 0.92870
0.41555 0.40336 0.95211
0.71240 0.43567 0.97239
0.92881 0.48795 0.97184
1.00000 0.51534 0.96236
0.23198 0.65724 0.85504
0.40103 0.66238 0.86954
0.68590 0.67929 0.89871
0.90568 0.69005 0.92048
1.00000 0.71451 0.91582
0.00000 0.84674 0.79072
0.12535 0.85023 0.80426
0.59008 0.85342 0.83615
0.86214 0.86217 0.86232
1.00000 0.86838 0.88217
0.00000 0.97154 0.74872
0.00000 0.97527 0.76163
0.43905 0.97885 0.79475
0.80188 0.98564 0.82940
0.97930 0.98510 0.85189
0.22226 0.26083 0.97627
0.39252 0.26587 0.98057
0.70373 0.31150 0.98351
0.93799 0.37707 0.98700
1.00000 0.47358 0.99007
0.26446 0.43335 0.98072
0.43820 0.44539 0.98130
0.72545 0.47393 0.98465
0.94408 0.51120 0.98862
1.00000 0.59541 0.99125
0.41514 0.72108 0.98651
0.55021 0.73351 0.98766
0.75905 0.75138 0.99054
0.92906 0.76789 0.99502
1.00000 0.78409 0.99862
0.33116 0.87299 0.97973
0.46059 0.87501 0.98459
0.69407 0.88058 0.99211
0.89042 0.88838 0.99301
1.00000 0.89037 0.99528
0.00000 0.97792 0.91885
0.17894 0.97845 0.92924
0.57318 0.98412 0.95037
0.82626 0.98185 0.96990
0.97908 0.97903 0.97904
