cube lut/pro neg std_DisplayP3.cube
# DisplayP3
# github.com/abpy/FujifilmCameraProfiles
LUT_3D_SIZE 8
DOMAIN_MIN 0.000000 0.000000 0.000000
DOMAIN_MAX 0.903226 0.903226 0.903226
0.00000 0.00000 0.00000
0.06233 0.00817 0.00046
0.25070 0.03550 0.01411
0.48483 0.08529 0.06910
0.68510 0.13537 0.08631
0.82809 0.17551 0.04819
0.92676 0.20516 0.00000
0.95918 0.23481 0.00000
0.00000 0.07569 0.00000
0.07555 0.08180 0.01411
0.25973 0.10712 0.01971
0.49300 0.14158 0.06206
0.69022 0.18521 0.05801
0.83211 0.22007 0.00000
0.93093 0.24489 0.00000
0.96136 0.26999 0.00000
0.00000 0.26167 0.00000
0.00000 0.25026 0.02707
0.25389 0.27177 0.04362
0.49887 0.28301 0.07282
0.69869 0.27691 0.07125
0.83882 0.29453 0.02944
0.93968 0.31659 0.00000
0.96754 0.33886 0.00000
0.00000 0.47707 0.00000
0.00000 0.46836 0.05035
0.13870 0.47162 0.07296
0.45645 0.48713 0.09830
0.68597 0.48964 0.12749
0.84275 0.46568 0.10861
0.95079 0.43618 0.00000
0.97922 0.43533 0.00000
0.00000 0.66373 0.02873
0.00000 0.66334 0.07772
0.00000 0.66006 0.10677
0.35115 0.67123 0.12393
0.63327 0.67892 0.15063
0.81769 0.67913 0.17505
0.94221 0.65365 0.16784
0.99358 0.61444 0.05775
0.00000 0.80486 0.07707
0.00000 0.80810 0.10756
0.00000 0.81134 0.14130
0.07739 0.81634 0.15016
0.54447 0.82362 0.17122
0.76904 0.82402 0.19154
0.91288 0.82558 0.21082
0.99327 0.80300 0.20995
0.00000 0.90303 0.10905
0.00000 0.90741 0.13229
0.00000 0.91614 0.16690
0.00000 0.92218 0.17107
0.41071 0.93107 0.19055
0.70318 0.93061 0.21136
0.86982 0.92882 0.22234
0.98147 0.91976 0.23855
0.00000 0.95601 0.12304
0.00000 0.95906 0.14447
0.00000 0.96649 0.18141
0.00000 0.97571 0.19957
0.17726 0.98070 0.19874
0.62325 0.98701 0.23113
0.82241 0.99331 0.24552
0.95169 0.99565 0.24983
0.00953 0.00904 0.07870
0.09976 0.03113 0.10589
0.27688 0.05785 0.14965
0.49773 0.09187 0.19337
0.69347 0.13402 0.21487
0.83393 0.16977 0.20594
0.93195 0.19832 0.18303
0.96200 0.22794 0.00000
0.00865 0.09396 0.08300
0.10968 0.10996 0.10988
0.28813 0.13485 0.14895
0.50889 0.15747 0.18916
0.69894 0.18197 0.20604
0.83786 0.21049 0.18969
0.93616 0.23564 0.16352
0.96426 0.26183 0.00000
0.00000 0.26534 0.08506
0.04629 0.26943 0.09843
0.27605 0.28485 0.12814
0.50832 0.30283 0.15942
0.70622 0.29684 0.18388
0.84549 0.29357 0.19486
0.94553 0.30807 0.17498
0.97096 0.32938 0.00000
0.00000 0.47606 0.08823
0.00000 0.47134 0.09662
0.18120 0.47694 0.11014
0.46858 0.49329 0.13966
0.68908 0.50180 0.17264
0.84715 0.48158 0.18061
0.95670 0.44358 0.16727
0.98412 0.43465 0.08130
0.00000 0.66212 0.11153
0.00000 0.66163 0.12218
0.00000 0.66147 0.11908
0.37217 0.67193 0.14294
0.64109 0.67911 0.17295
0.82081 0.68094 0.19408
0.94440 0.65930 0.20527
0.99825 0.62396 0.17021
0.00000 0.80454 0.13925
0.00000 0.80715 0.15139
0.00000 0.80887 0.16150
0.14160 0.81503 0.16419
0.55587 0.82186 0.18822
0.77386 0.82458 0.20740
0.91559 0.82536 0.22412
0.99525 0.80546 0.22833
0.00000 0.90406 0.16262
0.00000 0.90809 0.17510
0.00000 0.91515 0.19300
0.00000 0.91881 0.18237
0.42843 0.92909 0.21071
0.70938 0.92997 0.23183
0.87242 0.93049 0.23990
0.98269 0.92472 0.25372
0.00000 0.95709 0.17495
0.00000 0.96006 0.18818
0.00000 0.96716 0.21195
0.00000 0.97555 0.21936
0.21165 0.98031 0.21673
0.63186 0.98693 0.25468
0.82672 0.99334 0.26697
0.95378 0.99661 0.27069
0.03367 0.02854 0.28258
0.13651 0.04703 0.30784
0.32938 0.08967 0.35353
0.53697 0.12503 0.38542
0.71527 0.16811 0.41891
0.84717 0.18166 0.41953
0.94378 0.19453 0.40762
0.97040 0.21244 0.31109
0.07012 0.14384 0.28682
0.16254 0.16049 0.30284
0.33201 0.17844 0.33784
0.53652 0.20805 0.37814
0.71750 0.23711 0.41702
0.85187 0.23790 0.42777
0.94801 0.22931 0.40254
0.97287 0.24289 0.30890
0.00000 0.29700 0.27308
0.10551 0.30341 0.28552
0.31548 0.31543 0.31561
0.52684 0.33065 0.34844
0.71707 0.34900 0.38945
0.85756 0.34913 0.41006
0.95887 0.33324 0.41179
0.98296 0.32186 0.33352
0.00000 0.48457 0.25628
0.00000 0.48782 0.25809
0.24101 0.49347 0.28374
0.49482 0.50632 0.31413
0.69998 0.51846 0.34982
0.85225 0.51375 0.36281
0.96313 0.48851 0.36228
0.99806 0.45475 0.32866
0.00000 0.65989 0.24639
0.00000 0.66054 0.24907
0.00000 0.66850 0.26369
0.42059 0.67503 0.29251
0.65751 0.68192 0.31846
0.82732 0.68616 0.33352
0.94870 0.67279 0.33460
1.00000 0.64590 0.30744
0.00000 0.80163 0.25030
0.00000 0.80313 0.25282
0.00000 0.80484 0.26245
0.25976 0.81346 0.27205
0.58427 0.81777 0.29986
0.78540 0.82018 0.31595
0.92159 0.82333 0.32811
0.99890 0.80891 0.31653
0.00000 0.90393 0.26155
0.00000 0.90683 0.26571
0.00000 0.91060 0.27350
0.00000 0.91366 0.26183
0.47581 0.92109 0.30124
0.72620 0.92407 0.33122
0.88063 0.92503 0.33464
0.98634 0.92518 0.34086
0.00000 0.95905 0.26984
0.00000 0.96180 0.27584
0.00000 0.96817 0.28769
0.00000 0.97593 0.29432
0.28773 0.98048 0.29991
0.65356 0.98683 0.33708
0.83825 0.99124 0.35884
0.95972 0.99444 0.37033
0.07159 0.05859 0.53059
0.16607 0.06995 0.55225
0.35618 0.10127 0.59810
0.57250 0.16060 0.63490
0.74516 0.19474 0.65027
0.86712 0.22547 0.65449
0.96027 0.25030 0.66600
0.98585 0.25257 0.59200
0.10447 0.17501 0.53069
0.20552 0.19168 0.55229
0.37802 0.21441 0.57981
0.57153 0.25619 0.59941
0.74167 0.27298 0.62770
0.87023 0.28298 0.64770
0.96535 0.29735 0.66199
0.99155 0.29756 0.60304
0.09026 0.34132 0.50892
0.19410 0.34593 0.51738
0.36626 0.35753 0.53753
0.55939 0.37678 0.56540
0.73606 0.39429 0.59429
0.86900 0.40993 0.62177
0.97006 0.41945 0.64463
1.00000 0.42138 0.62164
0.00000 0.51339 0.47522
0.00000 0.51758 0.48327
0.30066 0.51775 0.49951
0.52635 0.52644 0.52619
0.71868 0.53718 0.55451
0.86119 0.54217 0.57909
0.96760 0.54390 0.60131
1.00000 0.54098 0.58927
0.00000 0.66922 0.44244
0.00000 0.67220 0.44718
0.14825 0.67797 0.46387
0.46063 0.68401 0.49113
0.67900 0.68921 0.51728
0.83690 0.69473 0.53908
0.95311 0.69093 0.56009
1.00000 0.68745 0.56311
0.00000 0.79993 0.42594
0.00000 0.80210 0.43138
0.00000 0.80721 0.44339
0.34922 0.81247 0.46752
0.62128 0.81538 0.49581
0.79874 0.81724 0.51760
0.92517 0.82263 0.53511
1.00000 0.81628 0.54579
0.00000 0.90059 0.41267
0.00000 0.90244 0.41869
0.00000 0.90520 0.43618
0.11568 0.91058 0.45728
0.53605 0.91445 0.48257
0.75236 0.91683 0.51289
0.89311 0.91838 0.52357
0.98937 0.92196 0.53658
0.00000 0.96141 0.40494
0.00000 0.96401 0.41067
0.00000 0.97030 0.42812
0.00000 0.97899 0.45915
0.40596 0.98204 0.47577
0.69181 0.98481 0.50251
0.85702 0.98812 0.53582
0.96821 0.99081 0.55278
0.10566 0.09571 0.75452
0.19653 0.10117 0.78202
0.37977 0.13056 0.82022
0.58782 0.18145 0.85275
0.76742 0.23939 0.86675
0.89356 0.25915 0.87117
0.97919 0.27754 0.86283
1.00000 0.32085 0.81549
0.13369 0.20334 0.75666
0.22891 0.21215 0.77754
0.40220 0.23209 0.80072
0.59667 0.26596 0.82498
0.76695 0.31713 0.83512
0.89299 0.32814 0.84761
0.98442 0.33106 0.85334
1.00000 0.36274 0.81120
0.18589 0.39378 0.72017
0.28140 0.40640 0.72747
0.43080 0.42067 0.74301
0.59810 0.43610 0.76077
0.75731 0.44936 0.78164
0.88404 0.46049 0.80115
0.98356 0.46997 0.82100
1.00000 0.48280 0.79937
0.09019 0.54351 0.68104
0.20553 0.54500 0.68921
0.37549 0.55070 0.70552
0.56692 0.56168 0.72509
0.73816 0.57010 0.74445
0.87256 0.57593 0.76224
0.97431 0.58521 0.77996
1.00000 0.60760 0.77976
0.00000 0.68984 0.64038
0.00000 0.69256 0.64901
0.25763 0.69557 0.66209
0.50424 0.69905 0.68362
0.70373 0.70386 0.70341
0.84829 0.70820 0.72011
0.96000 0.70805 0.74091
1.00000 0.71897 0.74919
0.00000 0.80613 0.60646
0.00000 0.80852 0.61175
0.00000 0.81211 0.62827
0.41356 0.81661 0.64923
0.65254 0.81955 0.67294
0.81472 0.82273 0.69079
0.93372 0.82719 0.70855
1.00000 0.82812 0.72632
0.00000 0.90038 0.58713
0.00000 0.90218 0.59269
0.00000 0.90612 0.60617
0.26713 0.90982 0.62679
0.58105 0.91424 0.65233
0.77719 0.91866 0.67877
0.90523 0.92121 0.69661
0.99120 0.92432 0.71786
0.00000 0.96547 0.56917
0.00000 0.96804 0.57607
0.00000 0.97410 0.59343
0.00000 0.97971 0.61781
0.48906 0.98239 0.64173
0.73144 0.98302 0.67369
0.87635 0.98661 0.70341
0.97359 0.98569 0.71672
0.14107 0.13894 0.92422
0.22449 0.14372 0.94601
0.39823 0.16768 0.97015
0.59899 0.20774 0.97936
0.77435 0.25538 0.98309
0.90310 0.30554 0.98726
0.99392 0.33478 0.98094
1.00000 0.36724 0.95543
0.16444 0.23842 0.92673
0.25216 0.24381 0.94096
0.41997 0.25981 0.95654
0.61276 0.28935 0.97086
0.78060 0.32579 0.97463
0.90427 0.36926 0.97739
0.99692 0.39191 0.97246
1.00000 0.41831 0.94906
0.23113 0.42559 0.88445
0.31577 0.43581 0.89362
0.46688 0.45209 0.91144
0.62870 0.47101 0.92527
0.78057 0.47830 0.93989
0.89712 0.51653 0.93966
0.99365 0.51814 0.94695
1.00000 0.54072 0.93560
0.24429 0.58393 0.84234
0.32407 0.59022 0.84755
0.45228 0.59624 0.86074
0.61644 0.61000 0.87471
0.76237 0.62008 0.89189
0.88436 0.62287 0.90905
0.98402 0.63502 0.91902
1.00000 0.65246 0.90671
0.04658 0.70943 0.80081
0.19753 0.71066 0.80697
0.37414 0.71323 0.81996
0.56248 0.71798 0.83858
0.73176 0.72682 0.85637
0.86202 0.73192 0.87008
0.96868 0.73692 0.88608
1.00000 0.74939 0.87672
0.00000 0.81979 0.76498
0.00000 0.82192 0.77061
0.22328 0.82331 0.78256
0.48601 0.82450 0.80153
0.68725 0.82845 0.82017
0.83436 0.83442 0.83456
0.94631 0.83808 0.85046
1.00000 0.84261 0.86014
0.00000 0.90850 0.73329
0.00000 0.90997 0.73820
0.00000 0.91164 0.75302
0.38224 0.91405 0.77421
0.62878 0.91828 0.79429
0.79963 0.92422 0.81325
0.91902 0.92490 0.82833
0.99565 0.92711 0.84195
0.00000 0.97058 0.71614
0.00000 0.97252 0.72090
0.00000 0.97568 0.73357
0.21607 0.97669 0.75506
0.55500 0.98019 0.77491
0.75810 0.98461 0.79703
0.89044 0.98371 0.81903
0.97843 0.98458 0.82920
0.17941 0.19624 0.97498
0.25510 0.19795 0.98049
0.41714 0.21742 0.98069
0.60750 0.24509 0.98284
0.77771 0.28068 0.98384
0.90729 0.33383 0.98715
1.00000 0.38812 0.99241
1.00000 0.42478 0.99559
0.19865 0.28047 0.98165
0.27657 0.28045 0.98215
0.43634 0.29630 0.98167
0.62037 0.31690 0.98285
0.78531 0.34896 0.98455
0.91148 0.38959 0.98772
1.00000 0.43913 0.99274
1.00000 0.47631 0.99523
0.24287 0.44292 0.97973
0.32259 0.45082 0.98125
0.47812 0.47063 0.98224
0.63936 0.47777 0.98420
0.79424 0.50541 0.98711
0.91080 0.52804 0.99088
1.00000 0.56198 0.99352
1.00000 0.59386 0.98996
0.32528 0.62145 0.96055
0.40413 0.63128 0.96391
0.52052 0.64281 0.97119
0.66346 0.65523 0.97682
0.79108 0.66734 0.97834
0.90002 0.66648 0.98257
0.99225 0.68283 0.98735
1.00000 0.70600 0.98046
0.28723 0.73845 0.92944
0.35348 0.74127 0.93403
0.47148 0.74531 0.94278
0.62535 0.75282 0.95412
0.76911 0.76098 0.96552
0.88219 0.76667 0.96795
0.97790 0.77361 0.97404
1.00000 0.78541 0.97228
0.05740 0.83447 0.89349
0.20456 0.83577 0.89908
0.38007 0.83838 0.91138
0.56378 0.84181 0.92631
0.72899 0.84537 0.93834
0.85701 0.85221 0.94867
0.95673 0.85747 0.95956
1.00000 0.86203 0.95484
0.00000 0.91954 0.86281
0.00000 0.92053 0.86736
0.22942 0.92193 0.87751
0.48326 0.92557 0.89402
0.67617 0.92911 0.91113
0.82198 0.92939 0.92398
0.92951 0.92967 0.92942
0.99663 0.93001 0.93429
0.00000 0.97462 0.83707
0.00000 0.97570 0.84156
0.00000 0.97752 0.85287
0.36810 0.97886 0.86812
0.60916 0.98247 0.88309
0.78186 0.98514 0.89649
0.89686 0.98331 0.90793
0.97883 0.98471 0.91264
0.22226 0.26083 0.97627
0.28787 0.26160 0.98014
0.43551 0.26990 0.98054
0.61721 0.29660 0.98217
0.78228 0.32390 0.98412
0.91120 0.35425 0.98635
1.00000 0.39538 0.98854
1.00000 0.47358 0.99007
0.23727 0.33159 0.98018
0.30598 0.33324 0.98198
0.45372 0.34219 0.98146
0.62932 0.36301 0.98249
0.79024 0.38608 0.98466
0.91518 0.40944 0.98689
1.00000 0.45209 0.98912
1.00000 0.51928 0.99040
0.27787 0.47339 0.98093
0.34691 0.47861 0.98127
0.49066 0.49241 0.98215
0.65285 0.50594 0.98401
0.80222 0.52905 0.98636
0.91867 0.54203 0.98858
1.00000 0.57970 0.99089
1.00000 0.62768 0.99174
0.37426 0.64872 0.98444
0.43639 0.65556 0.98477
0.55317 0.66905 0.98578
0.69232 0.68355 0.98780
0.80779 0.68923 0.99010
0.91296 0.70793 0.99200
1.00000 0.71298 0.99299
1.00000 0.74942 0.99689
0.41476 0.76990 0.98721
0.47642 0.77530 0.98744
0.57436 0.78285 0.98872
0.69088 0.79212 0.99011
0.80408 0.79774 0.99335
0.89748 0.80517 0.99550
0.98312 0.80756 0.99675
1.00000 0.81403 0.99934
0.35714 0.85378 0.98366
0.40792 0.85473 0.98513
0.51058 0.85701 0.98761
0.63970 0.86124 0.99140
0.76934 0.86553 0.99249
0.87428 0.87076 0.99357
0.95967 0.87317 0.99877
1.00000 0.87638 0.99653
0.18740 0.92707 0.95270
0.27344 0.92773 0.95666
0.41603 0.92946 0.96509
0.57588 0.93190 0.97492
0.72325 0.93189 0.98267
0.84140 0.93233 0.98859
0.93445 0.93290 0.99042
0.99303 0.93069 0.99093
0.00000 0.97792 0.91885
0.00000 0.97799 0.92277
0.25294 0.97877 0.93207
0.47745 0.98148 0.94409
0.66057 0.98592 0.95662
0.79805 0.98248 0.96685
0.90053 0.98112 0.97566
0.97908 0.97903 0.97904
