cube lut/pro neg hi_sRGB.cube
# sRGB
# github.com/abpy/FujifilmCameraProfiles
LUT_3D_SIZE 5
DOMAIN_MIN 0.000000 0.000000 0.000000
DOMAIN_MAX 0.903226 0.903226 0.903226
0.00000 0.00000 0.00000
0.13933 0.00393 0.00000
0.59666 0.02633 0.00000
0.92123 0.08737 0.00000
1.00000 0.17526 0.00000
0.00000 0.15163 0.00000
0.17315 0.18341 0.00000
0.63894 0.20644 0.00168
0.93945 0.22428 0.00121
1.00000 0.27918 0.02362
0.00000 0.56610 0.00000
0.00000 0.57246 0.00000
0.58244 0.58814 0.00000
0.93457 0.59298 0.00000
1.00000 0.56714 0.00000
0.00000 0.83754 0.00000
0.00000 0.84244 0.00000
0.40276 0.84883 0.00000
0.85068 0.84887 0.00000
1.00000 0.84911 0.00000
0.00000 0.99656 0.00000
0.00000 0.99720 0.00000
0.00000 0.99900 0.00000
0.74898 0.99980 0.06623
0.99807 1.00000 0.21500
0.00686 0.00575 0.17896
0.20896 0.02022 0.23410
0.61328 0.06352 0.31478
0.91543 0.09561 0.37973
1.00000 0.15507 0.38306
0.00000 0.20714 0.19614
0.22858 0.22883 0.22892
0.63157 0.26712 0.29933
0.93119 0.29058 0.36522
1.00000 0.30090 0.40056
0.00000 0.57614 0.15097
0.00000 0.58333 0.18085
0.58665 0.59498 0.23517
0.91459 0.60835 0.29452
1.00000 0.59290 0.32089
0.00000 0.83908 0.14706
0.00000 0.84201 0.14784
0.44182 0.84840 0.20321
0.84224 0.84694 0.24718
1.00000 0.85391 0.29695
0.00000 0.99735 0.16592
0.00000 0.99763 0.16690
0.08863 0.99813 0.23424
0.75501 1.00000 0.29595
0.99643 0.99861 0.38445
0.05251 0.01480 0.65550
0.27517 0.02438 0.70807
0.65126 0.11713 0.75837
0.92816 0.20324 0.77434
1.00000 0.28968 0.77554
0.10380 0.30119 0.65396
0.35112 0.32287 0.66480
0.65762 0.35223 0.68899
0.92451 0.39015 0.72080
1.00000 0.44551 0.75160
0.00000 0.60241 0.58632
0.17547 0.60791 0.59665
0.61636 0.61676 0.61623
0.90668 0.62909 0.64533
1.00000 0.64769 0.68751
0.00000 0.84546 0.53516
0.00000 0.84807 0.54089
0.50646 0.84809 0.56273
0.84427 0.85090 0.59467
1.00000 0.86236 0.64283
0.00000 0.99926 0.54120
0.00000 0.99946 0.54612
0.37218 0.99816 0.56562
0.78660 0.99754 0.60479
0.99477 0.99361 0.65167
0.17200 0.03368 0.94064
0.35873 0.03418 1.00000
0.66735 0.10912 1.00000
0.93400 0.25859 1.00000
1.00000 0.38061 1.00000
0.26177 0.32208 0.99410
0.44261 0.34746 0.99786
0.70580 0.39765 0.99530
0.93702 0.46095 0.98401
1.00000 0.51518 0.97925
0.24811 0.64326 0.90947
0.41310 0.64796 0.91451
0.67894 0.66027 0.92328
0.91642 0.67569 0.92959
1.00000 0.69497 0.94018
0.00000 0.85881 0.84073
0.18103 0.85965 0.84566
0.59520 0.86175 0.85770
0.86697 0.86710 0.86716
1.00000 0.87748 0.88821
0.00000 0.99813 0.81209
0.00000 0.99781 0.81547
0.50938 0.99849 0.82326
0.81648 0.99319 0.84236
0.99245 0.99670 0.85735
0.32033 0.09880 1.00000
0.44846 0.10570 1.00000
0.69610 0.16180 1.00000
0.93500 0.24382 1.00000
1.00000 0.42322 1.00000
0.39162 0.33161 1.00000
0.51101 0.34436 1.00000
0.73892 0.37937 1.00000
0.95865 0.44497 1.00000
1.00000 0.57125 1.00000
0.49728 0.69792 1.00000
0.58205 0.70429 1.00000
0.76461 0.72189 1.00000
0.94586 0.73823 1.00000
1.00000 0.75525 1.00000
0.40675 0.87878 1.00000
0.50678 0.87985 1.00000
0.70394 0.88336 1.00000
0.90288 0.88921 1.00000
1.00000 0.89215 1.00000
0.21616 0.99723 0.98507
0.38483 0.99699 0.98473
0.63115 0.99431 0.98309
0.84040 0.99458 0.98470
0.99111 0.99114 0.99113
