cube lut/pro neg std_DisplayP3.cube
# DisplayP3
# github.com/abpy/FujifilmCameraProfiles
LUT_3D_SIZE 32
0.00000 0.00000 0.00000
0.01364 0.00119 0.00000
0.02631 0.00228 0.00062
0.04116 0.00581 0.00156
0.06233 0.00817 0.00046
0.09653 0.01280 0.00108
0.14237 0.01938 0.00369
0.19394 0.02661 0.00734
0.25070 0.03550 0.01411
0.30943 0.04734 0.02605
0.36774 0.06025 0.04211
0.42704 0.07256 0.05700
0.48483 0.08529 0.06910
0.54004 0.09874 0.07654
0.59237 0.11221 0.07959
0.64062 0.12356 0.08359
0.68510 0.13537 0.08631
0.72605 0.14742 0.07946
0.76369 0.15800 0.07041
0.79744 0.16716 0.06039
0.82809 0.17551 0.04819
0.85606 0.18352 0.03546
0.88172 0.19124 0.01297
0.90562 0.19837 0.00000
0.92676 0.20516 0.00000
0.94206 0.21191 0.00000
0.95098 0.21887 0.00000
0.95617 0.22639 0.00000
0.95918 0.23481 0.00000
0.96174 0.24469 0.00000
0.96580 0.25775 0.00000
0.97534 0.27924 0.00000
0.00000 0.01646 0.00000
0.01463 0.01794 0.00156
0.03052 0.01627 0.00256
0.04581 0.01972 0.00418
0.06609 0.02190 0.00358
0.09891 0.02826 0.00378
0.14466 0.03685 0.00496
0.19592 0.04558 0.00700
0.25255 0.05467 0.01184
0.31140 0.06508 0.02160
0.36986 0.07624 0.03645
0.42920 0.08739 0.05072
0.48676 0.09895 0.06250
0.54174 0.11110 0.06970
0.59391 0.12358 0.07213
0.64194 0.13435 0.07556
0.68621 0.14571 0.07773
0.72702 0.15712 0.06980
0.76458 0.16719 0.05929
0.79826 0.17593 0.04737
0.82886 0.18393 0.03250
0.85680 0.19163 0.01895
0.88245 0.19902 0.00000
0.90634 0.20584 0.00000
0.92748 0.21234 0.00000
0.94274 0.21885 0.00000
0.95154 0.22557 0.00000
0.95662 0.23284 0.00000
0.95953 0.24102 0.00000
0.96198 0.25060 0.00000
0.96594 0.26331 0.00000
0.97538 0.28451 0.00000
0.00000 0.03055 0.00000
0.01155 0.03150 0.00267
0.03226 0.03378 0.00379
0.05036 0.03640 0.00531
0.07050 0.03777 0.00559
0.10277 0.04267 0.00541
0.14726 0.05039 0.00786
0.19746 0.05913 0.01137
0.25365 0.06853 0.01512
0.31274 0.07874 0.02222
0.37158 0.08961 0.03532
0.43108 0.10065 0.04748
0.48852 0.11178 0.05807
0.54336 0.12312 0.06458
0.59544 0.13496 0.06599
0.64327 0.14544 0.06830
0.68735 0.15651 0.06944
0.72802 0.16740 0.06000
0.76552 0.17702 0.04732
0.79915 0.18540 0.03260
0.82969 0.19307 0.01657
0.85762 0.20051 0.00248
0.88326 0.20756 0.00000
0.90715 0.21407 0.00000
0.92829 0.22028 0.00000
0.94352 0.22655 0.00000
0.95220 0.23302 0.00000
0.95715 0.24004 0.00000
0.95993 0.24795 0.00000
0.96227 0.25721 0.00000
0.96610 0.26954 0.00000
0.97542 0.29044 0.00000
0.00000 0.04836 0.00000
0.00751 0.04511 0.00556
0.02665 0.04908 0.00760
0.04979 0.05466 0.00784
0.07467 0.05883 0.00888
0.10805 0.06506 0.00969
0.15047 0.06856 0.01107
0.20061 0.07599 0.01253
0.25596 0.08374 0.01774
0.31483 0.09313 0.02652
0.37366 0.10396 0.04015
0.43311 0.11512 0.04950
0.49045 0.12605 0.05766
0.54516 0.13688 0.06259
0.59722 0.14851 0.06214
0.64484 0.15910 0.06219
0.68874 0.17013 0.06120
0.72926 0.18064 0.04928
0.76671 0.18990 0.03292
0.80030 0.19797 0.01620
0.83080 0.20533 0.00000
0.85872 0.21250 0.00000
0.88438 0.21919 0.00000
0.90827 0.22533 0.00000
0.92944 0.23119 0.00000
0.94464 0.23717 0.00000
0.95315 0.24334 0.00000
0.95792 0.25004 0.00000
0.96053 0.25762 0.00000
0.96270 0.26646 0.00000
0.96636 0.27827 0.00000
0.97548 0.29875 0.00000
0.00000 0.07569 0.00000
0.00298 0.06804 0.00871
0.02049 0.06965 0.01193
0.04625 0.07505 0.01357
0.07555 0.08180 0.01411
0.10999 0.08713 0.01472
0.15425 0.09542 0.01669
0.20488 0.10222 0.01820
0.25973 0.10712 0.01971
0.31850 0.11206 0.02473
0.37723 0.12090 0.04051
0.43612 0.13138 0.05263
0.49300 0.14158 0.06206
0.54725 0.15162 0.06717
0.59914 0.16316 0.06519
0.64651 0.17406 0.06219
0.69022 0.18521 0.05801
0.73061 0.19568 0.04303
0.76803 0.20487 0.02325
0.80162 0.21286 0.00386
0.83211 0.22007 0.00000
0.86006 0.22712 0.00000
0.88578 0.23355 0.00000
0.90970 0.23937 0.00000
0.93093 0.24489 0.00000
0.94612 0.25058 0.00000
0.95443 0.25642 0.00000
0.95897 0.26278 0.00000
0.96136 0.26999 0.00000
0.96331 0.27834 0.00000
0.96672 0.28951 0.00000
0.97558 0.30947 0.00000
0.00000 0.11323 0.00000
0.00000 0.10584 0.00809
0.01006 0.10418 0.01533
0.03944 0.10923 0.01798
0.07411 0.11335 0.01898
0.11171 0.11933 0.02080
0.15699 0.12751 0.02226
0.20936 0.13581 0.02540
0.26368 0.14006 0.02664
0.32236 0.14251 0.03007
0.38193 0.14772 0.03840
0.44022 0.15341 0.04807
0.49663 0.16057 0.06007
0.55023 0.16864 0.07047
0.60157 0.17958 0.07177
0.64843 0.19051 0.06935
0.69187 0.20141 0.06422
0.73204 0.21185 0.04836
0.76941 0.22100 0.02550
0.80302 0.22905 0.00220
0.83352 0.23629 0.00000
0.86154 0.24343 0.00000
0.88738 0.24982 0.00000
0.91138 0.25550 0.00000
0.93273 0.26079 0.00000
0.94798 0.26628 0.00000
0.95606 0.27188 0.00000
0.96033 0.27793 0.00000
0.96245 0.28479 0.00000
0.96412 0.29263 0.00000
0.96722 0.30310 0.00000
0.97571 0.32244 0.00000
0.00000 0.15773 0.00000
0.00000 0.15078 0.00453
0.00000 0.14662 0.01667
0.02310 0.14866 0.02135
0.06484 0.15360 0.02312
0.10748 0.15826 0.02556
0.15338 0.16387 0.02662
0.21170 0.17530 0.03149
0.26638 0.17959 0.03446
0.32602 0.18397 0.03774
0.38540 0.18613 0.04208
0.44405 0.18816 0.04875
0.50023 0.18999 0.05708
0.55330 0.19248 0.06645
0.60437 0.20054 0.07034
0.65085 0.21008 0.07230
0.69403 0.21965 0.07171
0.73380 0.22973 0.06054
0.77098 0.23864 0.04147
0.80455 0.24652 0.01624
0.83504 0.25362 0.00000
0.86313 0.26080 0.00000
0.88912 0.26726 0.00000
0.91324 0.27293 0.00000
0.93477 0.27814 0.00000
0.95016 0.28356 0.00000
0.95803 0.28906 0.00000
0.96201 0.29493 0.00000
0.96383 0.30154 0.00000
0.96518 0.30894 0.00000
0.96790 0.31869 0.00000
0.97591 0.33733 0.00000
0.00000 0.20777 0.00000
0.00000 0.20170 0.00000
0.00000 0.19667 0.01399
0.00000 0.19448 0.02245
0.03988 0.19929 0.02623
0.09425 0.20425 0.02809
0.14524 0.20959 0.03109
0.20127 0.21607 0.03456
0.26529 0.22630 0.03944
0.32463 0.22725 0.04649
0.38557 0.23076 0.04858
0.44580 0.23307 0.05616
0.50056 0.23208 0.06266
0.55502 0.23122 0.06793
0.60682 0.23323 0.06903
0.65326 0.23677 0.06825
0.69646 0.24268 0.06970
0.73605 0.25112 0.06446
0.77293 0.25887 0.05415
0.80636 0.26595 0.03678
0.83678 0.27259 0.01168
0.86489 0.27960 0.00000
0.89107 0.28603 0.00000
0.91532 0.29157 0.00000
0.93706 0.29659 0.00000
0.95270 0.30192 0.00000
0.96034 0.30740 0.00000
0.96401 0.31318 0.00000
0.96551 0.31966 0.00000
0.96650 0.32674 0.00000
0.96879 0.33584 0.00000
0.97619 0.35369 0.00000
0.00000 0.26167 0.00000
0.00000 0.25702 0.00000
0.00000 0.25258 0.00847
0.00000 0.24907 0.02119
0.00000 0.25026 0.02707
0.06325 0.25583 0.02980
0.12923 0.25969 0.03376
0.18969 0.26539 0.03897
0.25389 0.27177 0.04362
0.32009 0.27819 0.05357
0.38011 0.27914 0.05959
0.44331 0.28444 0.06548
0.49887 0.28301 0.07282
0.55704 0.28253 0.07489
0.60745 0.27943 0.07435
0.65473 0.27740 0.07336
0.69869 0.27691 0.07125
0.73844 0.27960 0.06163
0.77503 0.28404 0.05277
0.80842 0.28928 0.04430
0.83882 0.29453 0.02944
0.86691 0.30056 0.00781
0.89329 0.30668 0.00000
0.91768 0.31194 0.00000
0.93968 0.31659 0.00000
0.95567 0.32161 0.00000
0.96308 0.32692 0.00000
0.96641 0.33251 0.00000
0.96754 0.33886 0.00000
0.96814 0.34566 0.00000
0.96994 0.35413 0.00000
0.97660 0.37107 0.00000
0.00000 0.31629 0.00000
0.00000 0.31267 0.00000
0.00000 0.30894 0.00669
0.00000 0.30504 0.02191
0.00000 0.30345 0.02920
0.00000 0.30754 0.03333
0.09820 0.31137 0.03823
0.17111 0.31569 0.04409
0.23845 0.32058 0.05061
0.30618 0.32644 0.05793
0.37234 0.33020 0.06655
0.43650 0.33451 0.07413
0.49517 0.33650 0.08142
0.55245 0.33559 0.08253
0.60514 0.33247 0.08486
0.65390 0.32810 0.08583
0.69907 0.32408 0.08413
0.74028 0.32179 0.07191
0.77714 0.31994 0.05736
0.81048 0.31978 0.04402
0.84089 0.32153 0.03067
0.86905 0.32563 0.01643
0.89572 0.33076 0.00000
0.92028 0.33494 0.00000
0.94255 0.33869 0.00000
0.95904 0.34309 0.00000
0.96627 0.34815 0.00000
0.96928 0.35339 0.00000
0.97003 0.35945 0.00000
0.97018 0.36584 0.00000
0.97142 0.37358 0.00000
0.97719 0.38930 0.00000
0.00000 0.37094 0.00000
0.00000 0.36809 0.00000
0.00000 0.36493 0.00854
0.00000 0.36089 0.02578
0.00000 0.35734 0.03818
0.00000 0.35733 0.04262
0.02931 0.36090 0.04601
0.13825 0.36336 0.05106
0.21466 0.36869 0.05697
0.28678 0.37392 0.06267
0.35562 0.37817 0.07050
0.42515 0.38302 0.08082
0.48530 0.38650 0.08918
0.54315 0.38859 0.09556
0.59894 0.38535 0.09586
0.65089 0.38255 0.10105
0.69772 0.37849 0.10302
0.73994 0.37358 0.08832
0.77816 0.36839 0.07675
0.81221 0.36338 0.06360
0.84295 0.35906 0.04376
0.87117 0.35788 0.01967
0.89800 0.35993 0.00000
0.92284 0.36228 0.00000
0.94551 0.36450 0.00000
0.96262 0.36742 0.00000
0.96971 0.37163 0.00000
0.97249 0.37621 0.00000
0.97295 0.38186 0.00000
0.97267 0.38776 0.00000
0.97333 0.39466 0.00000
0.97805 0.40873 0.00000
0.00000 0.42497 0.00000
0.00000 0.42298 0.00000
0.00000 0.42075 0.01064
0.00000 0.41780 0.02815
0.00000 0.41485 0.04355
0.00000 0.41328 0.05044
0.00000 0.41546 0.05463
0.08453 0.41786 0.05860
0.18434 0.41999 0.06361
0.26294 0.42367 0.07028
0.33555 0.42765 0.07621
0.40396 0.43060 0.08470
0.47510 0.43761 0.09470
0.53250 0.43858 0.10436
0.58924 0.43922 0.10814
0.64564 0.43847 0.11530
0.69300 0.43234 0.11536
0.73721 0.42925 0.10730
0.77714 0.42383 0.10170
0.81231 0.41646 0.09091
0.84383 0.40912 0.07615
0.87288 0.40278 0.05109
0.90005 0.39925 0.01425
0.92517 0.39678 0.00000
0.94823 0.39539 0.00000
0.96608 0.39597 0.00000
0.97315 0.39888 0.00000
0.97582 0.40215 0.00000
0.97609 0.40674 0.00000
0.97548 0.41177 0.00000
0.97567 0.41776 0.00000
0.97927 0.42984 0.00000
0.00000 0.47707 0.00000
0.00000 0.47560 0.00131
0.00000 0.47387 0.01525
0.00000 0.47139 0.03313
0.00000 0.46836 0.05035
0.00000 0.46580 0.05997
0.00000 0.46551 0.06502
0.00000 0.46831 0.06875
0.13870 0.47162 0.07296
0.23287 0.47544 0.07728
0.31419 0.48092 0.08402
0.38809 0.48589 0.09020
0.45645 0.48713 0.09830
0.52197 0.48928 0.10917
0.57832 0.49012 0.11599
0.63587 0.49033 0.12153
0.68597 0.48964 0.12749
0.73172 0.48414 0.12229
0.77297 0.47973 0.12409
0.81058 0.47464 0.12086
0.84275 0.46568 0.10861
0.87235 0.45676 0.08860
0.90079 0.45020 0.05992
0.92685 0.44314 0.01958
0.95079 0.43618 0.00000
0.96953 0.43156 0.00000
0.97642 0.43098 0.00000
0.97899 0.43211 0.00000
0.97922 0.43533 0.00000
0.97843 0.43902 0.00000
0.97828 0.44361 0.00000
0.98086 0.45316 0.00000
0.00000 0.52747 0.00000
0.00000 0.52650 0.00792
0.00000 0.52530 0.02142
0.00000 0.52347 0.03924
0.00000 0.52093 0.05659
0.00000 0.51804 0.06828
0.00000 0.51609 0.07393
0.00000 0.51711 0.07818
0.05104 0.52016 0.08133
0.19244 0.52401 0.08590
0.28273 0.52798 0.09054
0.36369 0.53242 0.09783
0.43510 0.53571 0.10506
0.50279 0.53690 0.11292
0.56650 0.53857 0.12229
0.62430 0.54177 0.12694
0.67692 0.54196 0.13706
0.72393 0.54022 0.13795
0.76677 0.53475 0.14143
0.80346 0.53117 0.14359
0.83981 0.52376 0.13614
0.87022 0.51490 0.12224
0.89939 0.50609 0.09983
0.92670 0.49766 0.07529
0.95220 0.48827 0.03716
0.97287 0.47856 0.00000
0.98002 0.47236 0.00000
0.98227 0.46871 0.00000
0.98221 0.46846 0.00000
0.98122 0.46994 0.00000
0.98092 0.47305 0.00000
0.98270 0.47983 0.00000
0.00000 0.57567 0.00463
0.00000 0.57515 0.01634
0.00000 0.57448 0.02928
0.00000 0.57340 0.04628
0.00000 0.57179 0.06247
0.00000 0.56966 0.07492
0.00000 0.56763 0.08183
0.00000 0.56711 0.08558
0.00000 0.56879 0.08870
0.12877 0.57180 0.09332
0.24623 0.57456 0.09836
0.33253 0.57805 0.10437
0.41098 0.58194 0.11173
0.48178 0.58459 0.11941
0.54806 0.58590 0.12708
0.60988 0.58853 0.13446
0.66790 0.59190 0.14156
0.71568 0.59158 0.14818
0.75816 0.58824 0.15188
0.79805 0.58376 0.15593
0.83319 0.57814 0.15204
0.86615 0.57116 0.14650
0.89596 0.56305 0.13353
0.92437 0.55475 0.11918
0.95126 0.54477 0.09472
0.97444 0.53394 0.06021
0.98367 0.52411 0.00000
0.98608 0.51540 0.00000
0.98556 0.51001 0.00000
0.98405 0.50697 0.00000
0.98342 0.50670 0.00000
0.98453 0.51002 0.00000
0.00000 0.62111 0.01586
0.00000 0.62092 0.02717
0.00000 0.62063 0.03973
0.00000 0.62010 0.05496
0.00000 0.61919 0.06988
0.00000 0.61777 0.08255
0.00000 0.61595 0.09092
0.00000 0.61465 0.09489
0.00000 0.61524 0.09744
0.00000 0.61761 0.10070
0.19450 0.62181 0.10694
0.29938 0.62413 0.11132
0.38345 0.62766 0.11801
0.45913 0.63088 0.12396
0.52831 0.63274 0.13287
0.59189 0.63372 0.13912
0.65200 0.63683 0.14774
0.70636 0.63981 0.15408
0.75066 0.63825 0.15925
0.78949 0.63549 0.16404
0.82676 0.63049 0.16589
0.86021 0.62344 0.16284
0.89077 0.61667 0.15791
0.91979 0.60938 0.15187
0.94775 0.60172 0.13813
0.97317 0.59128 0.11640
0.98604 0.57989 0.07958
0.99019 0.56933 0.01946
0.98949 0.56060 0.00000
0.98724 0.55292 0.00000
0.98610 0.54799 0.00000
0.98643 0.54607 0.00000
0.00000 0.66373 0.02873
0.00000 0.66379 0.03970
0.00000 0.66379 0.05095
0.00000 0.66369 0.06408
0.00000 0.66334 0.07772
0.00000 0.66258 0.09016
0.00000 0.66136 0.09945
0.00000 0.66014 0.10430
0.00000 0.66006 0.10677
0.00000 0.66222 0.10933
0.11257 0.66505 0.11425
0.25686 0.66845 0.12021
0.35115 0.67123 0.12393
0.43357 0.67447 0.13086
0.50658 0.67599 0.13610
0.57293 0.67845 0.14544
0.63327 0.67892 0.15063
0.69042 0.68192 0.16009
0.74102 0.68408 0.16445
0.78235 0.68311 0.17010
0.81769 0.67913 0.17505
0.85318 0.67513 0.17666
0.88511 0.66747 0.17541
0.91397 0.66000 0.17411
0.94221 0.65365 0.16784
0.96883 0.64618 0.15578
0.98593 0.63616 0.13438
0.99342 0.62453 0.10533
0.99358 0.61444 0.05775
0.99063 0.60519 0.00000
0.98895 0.59734 0.00000
0.98860 0.59049 0.00000
0.00000 0.70354 0.04253
0.00000 0.70381 0.05206
0.00000 0.70406 0.06150
0.00000 0.70432 0.07300
0.00000 0.70447 0.08547
0.00000 0.70434 0.09747
0.00000 0.70377 0.10727
0.00000 0.70288 0.11321
0.00000 0.70244 0.11556
0.00000 0.70359 0.11769
0.00000 0.70623 0.12154
0.19495 0.70886 0.12744
0.31392 0.71121 0.13206
0.40233 0.71456 0.13688
0.48199 0.71739 0.14355
0.55166 0.71837 0.14915
0.61430 0.72051 0.15784
0.67272 0.72026 0.16151
0.72481 0.72349 0.17115
0.77343 0.72572 0.17383
0.80935 0.72281 0.18089
0.84518 0.72109 0.18463
0.87709 0.71720 0.18667
0.90821 0.70951 0.19109
0.93597 0.70159 0.18618
0.96213 0.69538 0.18203
0.98249 0.68780 0.16929
0.99283 0.67821 0.15359
0.99639 0.66803 0.12886
0.99366 0.65778 0.09038
0.99149 0.64954 0.02741
0.99082 0.64150 0.00000
0.00000 0.74038 0.05526
0.00000 0.74081 0.06322
0.00000 0.74126 0.07134
0.00000 0.74183 0.08155
0.00000 0.74243 0.09298
0.00000 0.74290 0.10446
0.00000 0.74306 0.11451
0.00000 0.74278 0.12148
0.00000 0.74237 0.12453
0.00000 0.74277 0.12574
0.00000 0.74462 0.12821
0.09145 0.74723 0.13321
0.26417 0.74890 0.13884
0.36853 0.75113 0.14301
0.45223 0.75422 0.14884
0.52779 0.75697 0.15537
0.59345 0.75805 0.16165
0.65301 0.75915 0.16906
0.70828 0.75825 0.17176
0.75638 0.76070 0.18152
0.79900 0.76021 0.18424
0.83686 0.76118 0.19026
0.87070 0.76095 0.19279
0.89863 0.75543 0.19569
0.92913 0.74948 0.20071
0.95578 0.74117 0.19707
0.97722 0.73449 0.19228
0.98968 0.72632 0.18334
0.99567 0.71784 0.17002
0.99543 0.70867 0.14803
0.99346 0.70067 0.11788
0.99258 0.69329 0.07155
0.00000 0.77411 0.06667
0.00000 0.77464 0.07352
0.00000 0.77523 0.08066
0.00000 0.77600 0.08982
0.00000 0.77690 0.10035
0.00000 0.77779 0.11126
0.00000 0.77850 0.12132
0.00000 0.77882 0.12906
0.00000 0.77876 0.13322
0.00000 0.77891 0.13428
0.00000 0.77995 0.13534
0.00000 0.78218 0.13905
0.19389 0.78427 0.14466
0.32641 0.78536 0.14980
0.42083 0.78772 0.15401
0.49940 0.79069 0.16043
0.57117 0.79208 0.16644
0.63257 0.79317 0.17316
0.68871 0.79312 0.17940
0.73919 0.79247 0.18292
0.78503 0.79302 0.19071
0.82537 0.79380 0.19459
0.86291 0.79732 0.19780
0.89248 0.79487 0.20229
0.91930 0.79124 0.20386
0.94885 0.78592 0.20969
0.97327 0.77889 0.20821
0.98617 0.76990 0.20199
0.99450 0.76265 0.19453
0.99514 0.75467 0.18242
0.99449 0.74776 0.16436
0.99372 0.74337 0.14030
0.00000 0.80486 0.07707
0.00000 0.80546 0.08310
0.00000 0.80612 0.08948
0.00000 0.80702 0.09781
0.00000 0.80810 0.10756
0.00000 0.80927 0.11793
0.00000 0.81034 0.12787
0.00000 0.81109 0.13610
0.00000 0.81134 0.14130
0.00000 0.81139 0.14301
0.00000 0.81202 0.14317
0.00000 0.81378 0.14495
0.07739 0.81634 0.15016
0.27098 0.81779 0.15593
0.38319 0.81927 0.16037
0.46980 0.82146 0.16444
0.54447 0.82362 0.17122
0.61244 0.82375 0.17593
0.66980 0.82533 0.18351
0.72186 0.82454 0.18901
0.76904 0.82402 0.19154
0.81213 0.82389 0.19970
0.85012 0.82426 0.20297
0.88410 0.82614 0.20585
0.91288 0.82558 0.21082
0.93972 0.82152 0.21263
0.96672 0.81864 0.21727
0.98324 0.81073 0.21784
0.99327 0.80300 0.20995
0.99361 0.79664 0.20533
0.99356 0.78961 0.19279
0.99355 0.78675 0.17918
0.00000 0.83295 0.08650
0.00000 0.83360 0.09191
0.00000 0.83431 0.09770
0.00000 0.83529 0.10535
0.00000 0.83650 0.11444
0.00000 0.83787 0.12430
0.00000 0.83924 0.13403
0.00000 0.84038 0.14249
0.00000 0.84106 0.14840
0.00000 0.84127 0.15084
0.00000 0.84162 0.15062
0.00000 0.84326 0.15052
0.00000 0.84609 0.15431
0.19673 0.84860 0.16045
0.33767 0.84964 0.16594
0.43553 0.85145 0.16990
0.51590 0.85347 0.17466
0.58825 0.85394 0.18153
0.65152 0.85388 0.18515
0.70454 0.85556 0.19387
0.75297 0.85385 0.19818
0.79683 0.85326 0.20022
0.83688 0.85196 0.20838
0.87236 0.85164 0.21146
0.90379 0.85299 0.21271
0.93373 0.85161 0.21863
0.95890 0.84833 0.22022
0.97711 0.84504 0.22269
0.99140 0.83942 0.22399
0.99250 0.83305 0.21720
0.99099 0.82733 0.21126
0.99160 0.82315 0.20300
0.00000 0.85865 0.09491
0.00000 0.85933 0.09986
0.00000 0.86008 0.10520
0.00000 0.86113 0.11231
0.00000 0.86246 0.12087
0.00000 0.86400 0.13031
0.00000 0.86564 0.13985
0.00000 0.86719 0.14851
0.00000 0.86840 0.15510
0.00000 0.86910 0.15850
0.00000 0.86963 0.15849
0.00000 0.87092 0.15721
0.00000 0.87351 0.15852
0.07112 0.87599 0.16426
0.27913 0.87802 0.17060
0.39649 0.87952 0.17591
0.48569 0.88123 0.17992
0.56081 0.88309 0.18549
0.62953 0.88171 0.19198
0.68695 0.88217 0.19525
0.73628 0.88319 0.20417
0.78186 0.88024 0.20746
0.82221 0.87984 0.20830
0.85997 0.87824 0.21667
0.89332 0.87774 0.21877
0.92442 0.87749 0.21959
0.95318 0.87500 0.22589
0.97232 0.87182 0.22771
0.98680 0.86941 0.22670
0.99210 0.86517 0.22872
0.99001 0.85924 0.22349
0.98942 0.85445 0.21845
0.00000 0.88207 0.10238
0.00000 0.88278 0.10697
0.00000 0.88358 0.11195
0.00000 0.88470 0.11863
0.00000 0.88615 0.12676
0.00000 0.88787 0.13584
0.00000 0.88976 0.14520
0.00000 0.89169 0.15399
0.00000 0.89341 0.16117
0.00000 0.89467 0.16561
0.00000 0.89548 0.16661
0.00000 0.89653 0.16502
0.00000 0.89878 0.16409
0.00000 0.90124 0.16775
0.20808 0.90290 0.17430
0.34808 0.90537 0.18067
0.45121 0.90723 0.18632
0.53415 0.90871 0.19021
0.60396 0.90953 0.19603
0.66769 0.90714 0.20195
0.71968 0.90855 0.20500
0.76627 0.90814 0.21393
0.80874 0.90468 0.21566
0.84669 0.90475 0.21629
0.88197 0.90347 0.22407
0.91395 0.90156 0.22733
0.94421 0.90058 0.22621
0.96899 0.89786 0.23270
0.98478 0.89462 0.23401
0.99189 0.89310 0.23109
0.99151 0.88861 0.23277
0.99065 0.88455 0.22915
0.00000 0.90303 0.10905
0.00000 0.90378 0.11338
0.00000 0.90463 0.11810
0.00000 0.90583 0.12447
0.00000 0.90741 0.13229
0.00000 0.90932 0.14111
0.00000 0.91152 0.15035
0.00000 0.91386 0.15926
0.00000 0.91614 0.16690
0.00000 0.91807 0.17223
0.00000 0.91942 0.17437
0.00000 0.92049 0.17332
0.00000 0.92218 0.17107
0.00000 0.92464 0.17153
0.08541 0.92654 0.17714
0.29279 0.92867 0.18434
0.41071 0.93107 0.19055
0.50370 0.93216 0.19627
0.58001 0.93366 0.20009
0.64475 0.93306 0.20592
0.70318 0.93061 0.21136
0.75088 0.93324 0.21431
0.79431 0.93097 0.22287
0.83406 0.92751 0.22339
0.86982 0.92882 0.22234
0.90268 0.92610 0.23264
0.93401 0.92424 0.23610
0.96129 0.92404 0.23218
0.98147 0.91976 0.23855
0.99204 0.91714 0.24003
0.99377 0.91534 0.23464
0.99414 0.91288 0.23572
0.00000 0.92101 0.11475
0.00000 0.92178 0.11891
0.00000 0.92266 0.12346
0.00000 0.92392 0.12963
0.00000 0.92559 0.13726
0.00000 0.92767 0.14596
0.00000 0.93014 0.15522
0.00000 0.93291 0.16438
0.00000 0.93583 0.17260
0.00000 0.93864 0.17890
0.00000 0.94097 0.18226
0.00000 0.94264 0.18210
0.00000 0.94415 0.17920
0.00000 0.94619 0.17682
0.00000 0.94847 0.17980
0.22225 0.95044 0.18694
0.36431 0.95240 0.19436
0.46956 0.95346 0.20045
0.55306 0.95370 0.20535
0.62232 0.95493 0.20904
0.68265 0.95283 0.21626
0.73592 0.95150 0.22019
0.77944 0.95407 0.22339
0.81995 0.95060 0.23060
0.85735 0.94810 0.23021
0.89112 0.94942 0.22919
0.92383 0.94765 0.24162
0.95228 0.94570 0.24464
0.97488 0.94686 0.23650
0.98887 0.94058 0.24350
0.99121 0.93715 0.24613
0.99084 0.93339 0.24090
0.00000 0.93559 0.11897
0.00000 0.93633 0.12302
0.00000 0.93717 0.12745
0.00000 0.93839 0.13350
0.00000 0.94001 0.14102
0.00000 0.94206 0.14967
0.00000 0.94454 0.15900
0.00000 0.94742 0.16842
0.00000 0.95063 0.17719
0.00000 0.95403 0.18445
0.00000 0.95738 0.18918
0.00000 0.96040 0.19049
0.00000 0.96310 0.18818
0.00000 0.96576 0.18411
0.00000 0.96752 0.18296
0.10581 0.96921 0.18947
0.30956 0.97073 0.19743
0.42943 0.97113 0.20357
0.52379 0.97048 0.21064
0.59946 0.97005 0.21603
0.66188 0.97093 0.22033
0.71815 0.96838 0.22676
0.76576 0.96901 0.22727
0.80642 0.97075 0.23065
0.84501 0.96743 0.23910
0.88037 0.96647 0.23781
0.91417 0.96990 0.23600
0.94369 0.96707 0.24973
0.96827 0.96439 0.25320
0.98464 0.96503 0.24307
0.98778 0.96077 0.24713
0.98808 0.95524 0.25214
0.00000 0.94699 0.12157
0.00000 0.94763 0.12553
0.00000 0.94836 0.12989
0.00000 0.94942 0.13584
0.00000 0.95084 0.14327
0.00000 0.95263 0.15186
0.00000 0.95480 0.16121
0.00000 0.95734 0.17077
0.00000 0.96019 0.17988
0.00000 0.96325 0.18774
0.00000 0.96630 0.19341
0.00000 0.96907 0.19595
0.00000 0.97132 0.19475
0.00000 0.97314 0.19058
0.00000 0.97474 0.18705
0.00000 0.97609 0.19018
0.25337 0.97763 0.19942
0.39057 0.97869 0.20699
0.49338 0.97896 0.21186
0.57599 0.97978 0.22125
0.64357 0.98090 0.22672
0.70005 0.98102 0.22993
0.75111 0.98102 0.23555
0.79483 0.98312 0.23419
0.83335 0.98420 0.24062
0.86980 0.98205 0.24912
0.90439 0.98334 0.24539
0.93485 0.98692 0.24098
0.96025 0.98162 0.25848
0.97960 0.97940 0.26149
0.98399 0.98232 0.24526
0.98396 0.97747 0.24937
0.00000 0.95601 0.12304
0.00000 0.95652 0.12693
0.00000 0.95710 0.13123
0.00000 0.95794 0.13711
