cube lut/pro neg std_sRGB.cube
# sRGB
# github.com/abpy/FujifilmCameraProfiles
LUT_3D_SIZE 32
0.00000 0.00000 0.00000
0.01370 0.00108 0.00000
0.02828 0.00235 0.00140
0.04311 0.00565 0.00207
0.06164 0.00913 0.00308
0.08613 0.01331 0.00317
0.12978 0.01740 0.00488
0.17826 0.02163 0.00767
0.23034 0.02665 0.01044
0.28897 0.02864 0.01566
0.34880 0.03209 0.02485
0.40745 0.03613 0.03654
0.46796 0.03885 0.04702
0.52634 0.04215 0.05557
0.58226 0.04668 0.05993
0.63629 0.05372 0.05925
0.68619 0.05946 0.05863
0.73170 0.06662 0.05623
0.77449 0.07799 0.05195
0.81415 0.08629 0.03537
0.85067 0.09460 0.01675
0.88362 0.10242 0.00233
0.91402 0.11016 0.00000
0.94211 0.11877 0.00000
0.96817 0.12647 0.00000
0.99281 0.13416 0.00000
1.00000 0.14219 0.00000
1.00000 0.15230 0.00000
1.00000 0.16498 0.00000
1.00000 0.17849 0.00000
1.00000 0.19378 0.00000
1.00000 0.20950 0.00000
0.00000 0.01645 0.00000
0.01483 0.01850 0.00234
0.03398 0.01818 0.00439
0.04757 0.02079 0.00547
0.06592 0.02253 0.00699
0.09187 0.02664 0.00760
0.13414 0.03169 0.01015
0.18209 0.03658 0.01312
0.23413 0.04230 0.01529
0.29211 0.04509 0.01988
0.35180 0.04903 0.02785
0.41053 0.05244 0.03906
0.47083 0.05570 0.04790
0.52899 0.05859 0.05588
0.58460 0.06203 0.06031
0.63826 0.06890 0.05904
0.68790 0.07415 0.05811
0.73316 0.08033 0.05574
0.77565 0.09147 0.05075
0.81517 0.09885 0.03411
0.85157 0.10627 0.01600
0.88443 0.11353 0.00174
0.91477 0.12080 0.00000
0.94283 0.12893 0.00000
0.96888 0.13603 0.00000
0.99351 0.14323 0.00000
1.00000 0.15077 0.00000
1.00000 0.16038 0.00000
1.00000 0.17253 0.00000
1.00000 0.18551 0.00000
1.00000 0.20031 0.00000
1.00000 0.21556 0.00000
0.00000 0.03110 0.00157
0.01447 0.03301 0.00435
0.03281 0.03455 0.00600
0.05117 0.03793 0.00777
0.07071 0.03894 0.01008
0.10113 0.04310 0.01127
0.13985 0.04724 0.01231
0.18720 0.05064 0.01553
0.23934 0.05613 0.01898
0.29630 0.05967 0.02547
0.35553 0.06393 0.03378
0.41426 0.06696 0.04505
0.47410 0.07097 0.05218
0.53198 0.07364 0.05941
0.58722 0.07623 0.06384
0.64043 0.08326 0.06189
0.68978 0.08820 0.06052
0.73479 0.09357 0.05814
0.77693 0.10482 0.05232
0.81630 0.11143 0.03592
0.85258 0.11811 0.01818
0.88534 0.12493 0.00386
0.91560 0.13183 0.00000
0.94363 0.13957 0.00000
0.96969 0.14613 0.00000
0.99431 0.15289 0.00000
1.00000 0.15998 0.00000
1.00000 0.16910 0.00000
1.00000 0.18075 0.00000
1.00000 0.19320 0.00000
1.00000 0.20751 0.00000
1.00000 0.22228 0.00000
0.00000 0.04588 0.00707
0.01302 0.04846 0.00962
0.02954 0.05146 0.01184
0.05142 0.05582 0.01192
0.07609 0.06007 0.01419
0.10664 0.06490 0.01706
0.14695 0.06906 0.01767
0.19439 0.07205 0.02054
0.24603 0.07501 0.02186
0.30283 0.07796 0.02591
0.36149 0.08186 0.03489
0.42040 0.08424 0.04867
0.47928 0.08913 0.05625
0.53658 0.09161 0.06440
0.59113 0.09332 0.07024
0.64354 0.10096 0.06846
0.69247 0.10567 0.06725
0.73715 0.11010 0.06529
0.77873 0.12182 0.05870
0.81789 0.12755 0.04369
0.85399 0.13337 0.02649
0.88662 0.13975 0.01180
0.91678 0.14626 0.00000
0.94477 0.15357 0.00000
0.97084 0.15952 0.00000
0.99544 0.16578 0.00000
1.00000 0.17233 0.00000
1.00000 0.18088 0.00000
1.00000 0.19192 0.00000
1.00000 0.20373 0.00000
1.00000 0.21744 0.00000
1.00000 0.23160 0.00000
0.00000 0.06861 0.01259
0.01011 0.07081 0.01542
0.02559 0.07503 0.01560
0.04878 0.07871 0.01813
0.07799 0.08443 0.01839
0.11235 0.08939 0.02112
0.15395 0.09658 0.02392
0.20337 0.10141 0.02589
0.25411 0.10278 0.02803
0.31110 0.10644 0.02904
0.36933 0.10877 0.03473
0.42840 0.10692 0.04526
0.48613 0.11113 0.05249
0.54260 0.11332 0.06308
0.59665 0.11370 0.07340
0.64785 0.12180 0.07377
0.69609 0.12611 0.07467
0.74043 0.12926 0.07487
0.78115 0.14195 0.06884
0.82003 0.14683 0.05703
0.85588 0.15180 0.04359
0.88832 0.15781 0.02897
0.91834 0.16394 0.01517
0.94628 0.17078 0.00530
0.97238 0.17606 0.00000
0.99697 0.18178 0.00000
1.00000 0.18773 0.00000
1.00000 0.19563 0.00000
1.00000 0.20600 0.00000
1.00000 0.21708 0.00000
1.00000 0.23010 0.00000
1.00000 0.24356 0.00000
0.00000 0.10461 0.01506
0.00000 0.10756 0.01641
0.01281 0.11092 0.01809
0.04184 0.11366 0.01960
0.07757 0.11855 0.02222
0.11628 0.12304 0.02260
0.15969 0.13010 0.02576
0.21045 0.13729 0.02813
0.26324 0.13960 0.02755
0.31914 0.14352 0.03186
0.37728 0.14570 0.03514
0.43565 0.14287 0.03995
0.49346 0.14446 0.04776
0.54881 0.14315 0.05601
0.60260 0.13945 0.06847
0.65288 0.14665 0.07035
0.70031 0.15087 0.07484
0.74471 0.15201 0.07978
0.78431 0.16533 0.07585
0.82284 0.16902 0.06869
0.85834 0.17291 0.06114
0.89049 0.17865 0.05144
0.92030 0.18452 0.04019
0.94818 0.19097 0.03044
0.97436 0.19561 0.01631
0.99893 0.20082 0.00168
1.00000 0.20613 0.00000
1.00000 0.21329 0.00000
1.00000 0.22297 0.00000
1.00000 0.23322 0.00000
1.00000 0.24550 0.00000
1.00000 0.25819 0.00000
0.00000 0.14804 0.01261
0.00000 0.14982 0.01390
0.00000 0.15284 0.01521
0.01918 0.15650 0.01636
0.06759 0.15895 0.01753
0.11248 0.16391 0.01883
0.15866 0.16881 0.01956
0.21348 0.17808 0.02535
0.26679 0.18252 0.02627
0.32418 0.18670 0.03043
0.38255 0.18848 0.03090
0.44113 0.18840 0.03369
0.49798 0.18786 0.04252
0.55273 0.18534 0.04981
0.60613 0.18096 0.06009
0.65773 0.18217 0.06359
0.70442 0.18262 0.06711
0.74902 0.18051 0.07425
0.78786 0.19235 0.07193
0.82613 0.19538 0.07059
0.86135 0.19793 0.07010
0.89317 0.20294 0.06598
0.92270 0.20812 0.06062
0.95048 0.21390 0.05551
0.97677 0.21785 0.04615
1.00000 0.22263 0.03445
1.00000 0.22735 0.01836
1.00000 0.23379 0.00000
1.00000 0.24281 0.00000
1.00000 0.25222 0.00000
1.00000 0.26374 0.00000
1.00000 0.27560 0.00000
0.00000 0.19740 0.00397
0.00000 0.19831 0.00467
0.00000 0.20092 0.00603
0.00000 0.20437 0.00614
0.02904 0.20800 0.00710
0.09811 0.21096 0.01013
0.15062 0.21577 0.01230
0.20614 0.22113 0.01519
0.26722 0.22948 0.01771
0.32517 0.23334 0.02010
0.38235 0.23671 0.02679
0.44238 0.23709 0.02351
0.49935 0.23799 0.03570
0.55488 0.23600 0.04235
0.61070 0.23204 0.04737
0.66050 0.23063 0.05612
0.70720 0.22831 0.06110
0.75213 0.22313 0.06778
0.79143 0.22721 0.06229
0.82947 0.22701 0.06136
0.86454 0.22667 0.06549
0.89605 0.23097 0.06588
0.92531 0.23594 0.06682
0.95308 0.24097 0.06743
0.97959 0.24375 0.06414
1.00000 0.24760 0.05926
1.00000 0.25138 0.05068
1.00000 0.25691 0.02315
1.00000 0.26531 0.00000
1.00000 0.27393 0.00000
1.00000 0.28476 0.00000
1.00000 0.29582 0.00000
0.00000 0.25183 0.00000
0.00000 0.25249 0.00000
0.00000 0.25452 0.00000
0.00000 0.25738 0.00000
0.00000 0.26065 0.00000
0.05968 0.26333 0.00000
0.13372 0.26745 0.00078
0.19622 0.27172 0.00213
0.25852 0.27618 0.00339
0.32143 0.28276 0.00863
0.38039 0.28559 0.01036
0.43868 0.28981 0.01522
0.49749 0.29017 0.02635
0.55473 0.28895 0.02854
0.61177 0.28840 0.03400
0.66012 0.28563 0.04691
0.70766 0.28126 0.05122
0.75254 0.27699 0.05793
0.79375 0.27516 0.05738
0.83214 0.27095 0.05417
0.86752 0.26544 0.06005
0.89892 0.26549 0.05776
0.92785 0.26793 0.05763
0.95561 0.27161 0.06137
0.98246 0.27356 0.06412
1.00000 0.27672 0.06547
1.00000 0.27945 0.06457
1.00000 0.28365 0.05025
1.00000 0.29102 0.00000
1.00000 0.29852 0.00000
1.00000 0.30852 0.00000
1.00000 0.31871 0.00000
0.00000 0.30662 0.00000
0.00000 0.30744 0.00000
0.00000 0.30988 0.00000
0.00000 0.31219 0.00000
0.00000 0.31390 0.00000
0.00000 0.31632 0.00000
0.09347 0.31882 0.00000
0.17693 0.32239 0.00000
0.24433 0.32563 0.00000
0.30892 0.32975 0.00000
0.37220 0.33450 0.00000
0.43480 0.33774 0.00287
0.49292 0.34085 0.01129
0.54929 0.34373 0.02171
0.60453 0.34023 0.01607
0.65644 0.34009 0.03483
0.70558 0.33752 0.04072
0.75102 0.33466 0.04248
0.79373 0.32900 0.04879
0.83271 0.32477 0.04739
0.86834 0.31911 0.05186
0.90076 0.31374 0.05194
0.92992 0.31054 0.04837
0.95779 0.31012 0.04821
0.98496 0.30881 0.05126
1.00000 0.30939 0.05291
1.00000 0.31063 0.05681
1.00000 0.31385 0.05164
1.00000 0.32069 0.01130
1.00000 0.32712 0.00000
1.00000 0.33601 0.00000
1.00000 0.34490 0.00000
0.00000 0.36005 0.00000
0.00000 0.36029 0.00000
0.00000 0.36156 0.00000
0.00000 0.36377 0.00000
0.00000 0.36511 0.00000
0.00000 0.36711 0.00000
0.00237 0.36930 0.00000
0.13686 0.37180 0.00000
0.22278 0.37487 0.00000
0.29253 0.37832 0.00000
0.35737 0.38232 0.00000
0.42318 0.38635 0.00000
0.48582 0.39092 0.00000
0.54107 0.39215 0.00268
0.59642 0.39501 0.00825
0.65056 0.39371 0.01890
0.70163 0.39241 0.02135
0.74762 0.38962 0.02754
0.79111 0.38646 0.04180
0.83111 0.38250 0.03933
0.86713 0.37685 0.03611
0.89992 0.37093 0.04321
0.93012 0.36518 0.04567
0.95863 0.36029 0.04226
0.98633 0.35532 0.03896
1.00000 0.35146 0.04196
1.00000 0.34829 0.04237
1.00000 0.34803 0.03391
1.00000 0.35326 0.00115
1.00000 0.35873 0.00000
1.00000 0.36701 0.00000
1.00000 0.37489 0.00000
0.00000 0.41697 0.00000
0.00000 0.41724 0.00000
0.00000 0.41803 0.00000
0.00000 0.41977 0.00000
0.00000 0.42134 0.00000
0.00000 0.42279 0.00000
0.00000 0.42447 0.00000
0.07686 0.42648 0.00000
0.18883 0.42845 0.00000
0.27181 0.43011 0.00000
0.34135 0.43397 0.00000
0.40652 0.43671 0.00000
0.47425 0.44201 0.00000
0.53355 0.44341 0.00000
0.58800 0.44494 0.00000
0.64227 0.44726 0.00089
0.69452 0.44760 0.00885
0.74206 0.44405 0.00000
0.78613 0.44204 0.02779
0.82693 0.43876 0.02626
0.86446 0.43679 0.01647
0.89717 0.42994 0.03175
0.92781 0.42234 0.03544
0.95695 0.41686 0.03769
0.98528 0.41176 0.03721
1.00000 0.40509 0.02807
1.00000 0.39766 0.02913
1.00000 0.39232 0.02859
1.00000 0.39349 0.00000
1.00000 0.39543 0.00000
1.00000 0.40121 0.00000
1.00000 0.40731 0.00000
0.00000 0.46901 0.00000
0.00000 0.46916 0.00000
0.00000 0.46957 0.00000
0.00000 0.47059 0.00000
0.00000 0.47193 0.00000
0.00000 0.47343 0.00000
0.00000 0.47515 0.00000
0.00000 0.47694 0.00000
0.13781 0.47907 0.00000
0.24187 0.48215 0.00000
0.32087 0.48618 0.00000
0.39142 0.48969 0.00000
0.45925 0.49244 0.00000
0.52240 0.49365 0.00000
0.57934 0.49450 0.00000
0.63450 0.49726 0.00000
0.68635 0.49882 0.00000
0.73259 0.50127 0.00000
0.77919 0.49560 0.00570
0.82029 0.49301 0.00324
0.85796 0.49151 0.00757
0.89224 0.48714 0.01668
0.92342 0.48150 0.02834
0.95328 0.47447 0.03085
0.98183 0.46845 0.02767
1.00000 0.46263 0.02754
1.00000 0.45549 0.03188
1.00000 0.44766 0.01421
1.00000 0.44427 0.00000
1.00000 0.44166 0.00000
1.00000 0.44316 0.00000
1.00000 0.44537 0.00000
0.00000 0.51940 0.00000
0.00000 0.51947 0.00000
0.00000 0.51970 0.00000
0.00000 0.52036 0.00000
0.00000 0.52156 0.00000
0.00000 0.52312 0.00000
0.00000 0.52503 0.00000
0.00000 0.52713 0.00000
0.03402 0.52916 0.00000
0.19590 0.53147 0.00000
0.29380 0.53462 0.00000
0.36854 0.53814 0.00000
0.44016 0.54076 0.00000
0.50563 0.54085 0.00000
0.56696 0.54231 0.00000
0.62503 0.54576 0.00000
0.67781 0.54814 0.00000
0.72574 0.54932 0.00000
0.76952 0.55011 0.00000
0.81087 0.54705 0.00000
0.85045 0.54220 0.00000
0.88480 0.54042 0.00026
0.91715 0.53600 0.01416
0.94737 0.53087 0.02339
0.97635 0.52546 0.01517
1.00000 0.51925 0.01957
1.00000 0.51219 0.02267
1.00000 0.50534 0.02232
1.00000 0.50082 0.00674
1.00000 0.49593 0.00000
1.00000 0.49345 0.00000
1.00000 0.49176 0.00000
0.00000 0.57014 0.00000
0.00000 0.57026 0.00000
0.00000 0.57047 0.00000
0.00000 0.57093 0.00000
0.00000 0.57182 0.00000
0.00000 0.57322 0.00000
0.00000 0.57495 0.00000
0.00000 0.57666 0.00000
0.00000 0.57826 0.00000
0.14141 0.58004 0.00000
0.25431 0.58215 0.00000
0.34495 0.58509 0.00000
0.41780 0.58791 0.00000
0.48697 0.58911 0.00000
0.55072 0.58942 0.00000
0.61086 0.59148 0.00000
0.66696 0.59503 0.00000
0.71681 0.59685 0.00000
0.76165 0.59751 0.00000
0.80122 0.59687 0.00000
0.83945 0.59439 0.00000
0.87647 0.58969 0.00000
0.90920 0.58662 0.00000
0.93969 0.58302 0.00964
0.96943 0.57752 0.01184
0.99791 0.57341 0.00402
1.00000 0.56896 0.01077
1.00000 0.56180 0.01986
1.00000 0.55503 0.00714
1.00000 0.54995 0.00000
1.00000 0.54766 0.00000
1.00000 0.54457 0.00000
0.00000 0.61792 0.00000
0.00000 0.61805 0.00000
0.00000 0.61825 0.00000
0.00000 0.61863 0.00000
0.00000 0.61930 0.00000
0.00000 0.62068 0.00000
0.00000 0.62252 0.00000
0.00000 0.62420 0.00000
0.00000 0.62564 0.00000
0.00000 0.62703 0.00000
0.21179 0.62885 0.00000
0.31207 0.63131 0.00000
0.39589 0.63386 0.00000
0.46669 0.63540 0.00000
0.53357 0.63608 0.00000
0.59428 0.63657 0.00000
0.65189 0.63851 0.00000
0.70503 0.64158 0.00000
0.75210 0.64254 0.00000
0.79263 0.64240 0.00000
0.82997 0.64082 0.00000
0.86522 0.63982 0.00000
0.89986 0.63589 0.00000
0.93172 0.63083 0.00000
0.96124 0.62670 0.00000
0.99013 0.62286 0.00778
1.00000 0.61930 0.00862
1.00000 0.61584 0.00251
1.00000 0.60974 0.00765
1.00000 0.60254 0.00000
1.00000 0.59903 0.00000
1.00000 0.59574 0.00000
0.00000 0.66327 0.00000
0.00000 0.66347 0.00000
0.00000 0.66375 0.00000
0.00000 0.66423 0.00000
0.00000 0.66504 0.00000
0.00000 0.66638 0.00000
0.00000 0.66806 0.00000
0.00000 0.66964 0.00000
0.00000 0.67083 0.00000
0.00000 0.67189 0.00000
0.14456 0.67347 0.00000
0.27232 0.67546 0.00000
0.36859 0.67725 0.00000
0.44664 0.67889 0.00000
0.51456 0.67975 0.00000
0.57788 0.68031 0.00000
0.63517 0.68065 0.00000
0.68956 0.68206 0.00000
0.73911 0.68460 0.00000
0.78291 0.68476 0.00000
0.82029 0.68397 0.00000
0.85618 0.68308 0.00000
0.88943 0.68305 0.00000
0.92148 0.67955 0.00000
0.95264 0.67302 0.00000
0.98146 0.66894 0.00000
1.00000 0.66613 0.00118
1.00000 0.66269 0.00864
1.00000 0.65879 0.00375
1.00000 0.65357 0.00000
1.00000 0.64950 0.00000
1.00000 0.64480 0.00000
0.00000 0.70604 0.00000
0.00000 0.70626 0.00000
0.00000 0.70654 0.00000
0.00000 0.70702 0.00000
0.00000 0.70779 0.00000
0.00000 0.70894 0.00000
0.00000 0.71034 0.00000
0.00000 0.71171 0.00000
0.00000 0.71275 0.00000
0.00000 0.71352 0.00000
0.00000 0.71454 0.00000
0.23252 0.71605 0.00000
0.33290 0.71777 0.00000
0.42328 0.71917 0.00000
0.49572 0.72009 0.00000
0.55970 0.72077 0.00000
0.61892 0.72118 0.00000
0.67270 0.72119 0.00000
0.72362 0.72209 0.00000
0.76972 0.72385 0.00000
0.81001 0.72343 0.00000
0.84683 0.72356 0.00000
0.88119 0.72397 0.00000
0.91224 0.72332 0.00000
0.94159 0.71922 0.00000
0.97175 0.71406 0.00000
0.99952 0.70918 0.00000
1.00000 0.70646 0.00000
1.00000 0.70346 0.01650
1.00000 0.69898 0.00972
1.00000 0.69604 0.00000
1.00000 0.69264 0.00000
0.00000 0.74604 0.00000
0.00000 0.74625 0.00000
0.00000 0.74651 0.00000
0.00000 0.74693 0.00000
0.00000 0.74757 0.00000
0.00000 0.74847 0.00000
0.00000 0.74958 0.00000
0.00000 0.75070 0.00000
0.00000 0.75163 0.00000
0.00000 0.75231 0.00000
0.00000 0.75291 0.00000
0.16621 0.75392 0.00000
0.30327 0.75517 0.00000
0.39214 0.75662 0.00000
0.47452 0.75745 0.00000
0.54160 0.75782 0.00000
0.60124 0.75855 0.00000
0.65673 0.75856 0.00000
0.70726 0.75826 0.00000
0.75455 0.75890 0.00000
0.79779 0.76003 0.00000
0.83692 0.76066 0.00000
0.87293 0.76165 0.00000
0.90438 0.76181 0.00000
0.93289 0.75954 0.00000
0.96087 0.75654 0.00000
0.98963 0.75228 0.00000
1.00000 0.74764 0.00000
1.00000 0.74408 0.00000
1.00000 0.74133 0.01048
1.00000 0.73837 0.01687
1.00000 0.73494 0.00000
0.00000 0.78276 0.00000
0.00000 0.78297 0.00000
0.00000 0.78323 0.00000
0.00000 0.78362 0.00000
0.00000 0.78416 0.00000
0.00000 0.78483 0.00000
0.00000 0.78573 0.00000
0.00000 0.78668 0.00000
0.00000 0.78752 0.00000
0.00000 0.78815 0.00000
0.00000 0.78859 0.00000
0.06075 0.78910 0.00000
0.25944 0.78984 0.00000
0.36280 0.79070 0.00000
0.44682 0.79179 0.00000
0.52180 0.79225 0.00000
0.58376 0.79231 0.00000
0.63986 0.79288 0.00000
0.69181 0.79292 0.00000
0.73907 0.79259 0.00000
0.78374 0.79309 0.00000
0.82501 0.79446 0.00000
0.86250 0.79533 0.00000
0.89630 0.79622 0.00000
0.92474 0.79543 0.00000
0.95208 0.79286 0.00000
0.97956 0.79011 0.00000
1.00000 0.78725 0.01603
1.00000 0.78300 0.01626
1.00000 0.77899 0.00000
1.00000 0.77691 0.00394
1.00000 0.77439 0.01358
0.00000 0.81555 0.00000
0.00000 0.81579 0.00000
0.00000 0.81609 0.00000
0.00000 0.81654 0.00000
0.00000 0.81709 0.00000
0.00000 0.81765 0.00000
0.00000 0.81846 0.00000
0.00000 0.81944 0.00000
0.00000 0.82035 0.00000
0.00000 0.82107 0.00000
0.00000 0.82162 0.00000
0.00000 0.82189 0.00000
0.20334 0.82224 0.00000
0.33272 0.82238 0.00000
0.41721 0.82331 0.00000
0.49790 0.82391 0.00000
0.56626 0.82395 0.00000
0.62332 0.82421 0.00000
0.67580 0.82483 0.00000
0.72465 0.82481 0.00000
0.76924 0.82474 0.00000
0.81104 0.82466 0.00000
0.84959 0.82559 0.00000
0.88486 0.82659 0.00000
0.91607 0.82658 0.00000
0.94311 0.82539 0.00000
0.97050 0.82277 0.00000
0.99577 0.82071 0.02277
1.00000 0.81888 0.06013
1.00000 0.81555 0.05337
1.00000 0.81190 0.01235
1.00000 0.80902 0.00000
0.00000 0.84487 0.00000
0.00000 0.84511 0.00000
0.00000 0.84540 0.00000
0.00000 0.84585 0.00000
0.00000 0.84648 0.00000
0.00000 0.84731 0.00000
0.00000 0.84831 0.00000
0.00000 0.84940 0.00000
0.00000 0.85044 0.00000
0.00000 0.85135 0.00000
0.00000 0.85210 0.00000
0.00000 0.85261 0.00000
0.13257 0.85276 0.00000
0.29032 0.85272 0.00000
0.39552 0.85242 0.00000
0.47112 0.85342 0.00000
0.54620 0.85345 0.00000
0.60771 0.85327 0.00000
0.66026 0.85364 0.00000
0.70947 0.85430 0.00000
0.75526 0.85407 0.00000
0.79636 0.85330 0.00000
0.83520 0.85275 0.02370
0.87151 0.85401 0.04153
0.90439 0.85477 0.03773
0.93372 0.85355 0.00000
0.96065 0.85257 0.04657
0.98596 0.85053 0.06035
1.00000 0.84909 0.06550
1.00000 0.84817 0.08199
1.00000 0.84646 0.07412
1.00000 0.84280 0.04326
0.00000 0.87254 0.00000
0.00000 0.87274 0.00000
0.00000 0.87298 0.00000
0.00000 0.87337 0.00000
0.00000 0.87394 0.00000
0.00000 0.87474 0.00000
0.00000 0.87576 0.00000
0.00000 0.87679 0.00000
0.00000 0.87775 0.00000
0.00000 0.87867 0.00000
0.00000 0.87962 0.00000
0.00000 0.88056 0.00000
0.00000 0.88096 0.00000
0.25102 0.88096 0.00000
0.36729 0.88026 0.00000
0.45339 0.88019 0.00000
0.52369 0.88101 0.00000
0.59114 0.88056 0.00000
0.64645 0.88027 0.00000
0.69486 0.88081 0.00424
0.74065 0.88126 0.03557
0.78297 0.88029 0.04716
0.82109 0.87928 0.02941
0.85796 0.87928 0.07306
0.89203 0.88063 0.08133
0.92275 0.88061 0.08751
0.95081 0.87916 0.06378
0.97640 0.87822 0.09574
0.99802 0.87716 0.10525
1.00000 0.87620 0.09436
1.00000 0.87668 0.09893
1.00000 0.87605 0.10725
0.00000 0.89836 0.00000
0.00000 0.89849 0.00000
0.00000 0.89864 0.00000
0.00000 0.89889 0.00000
0.00000 0.89927 0.00000
0.00000 0.89988 0.00000
0.00000 0.90076 0.00000
0.00000 0.90169 0.00000
0.00000 0.90253 0.00000
0.00000 0.90339 0.00000
0.00000 0.90439 0.00000
0.00000 0.90557 0.00000
0.00000 0.90650 0.00000
0.21119 0.90665 0.00000
0.33866 0.90651 0.00000
0.43638 0.90537 0.00000
0.50635 0.90605 0.00000
0.57243 0.90631 0.00000
0.63246 0.90568 0.05067
0.68251 0.90566 0.06103
0.72733 0.90632 0.06649
0.76971 0.90619 0.08623
0.80921 0.90491 0.09186
0.84541 0.90452 0.07610
0.88012 0.90447 0.10857
0.91183 0.90532 0.12525
0.94106 0.90520 0.13796
0.96767 0.90352 0.11776
0.99038 0.90336 0.12728
1.00000 0.90275 0.13937
1.00000 0.90278 0.12448
1.00000 0.90384 0.12897
0.00000 0.92308 0.00000
0.00000 0.92318 0.00000
0.00000 0.92330 0.00000
0.00000 0.92349 0.00000
0.00000 0.92377 0.00000
0.00000 0.92418 0.00000
0.00000 0.92473 0.00000
0.00000 0.92538 0.00000
0.00000 0.92606 0.00000
0.00000 0.92685 0.00000
0.00000 0.92781 0.00000
0.00000 0.92899 0.00000
0.00000 0.93013 0.00000
0.15216 0.93048 0.00000
0.31375 0.93037 0.00000
0.41202 0.92971 0.00000
0.49535 0.92838 0.00000
0.55508 0.92967 0.00000
0.61684 0.92963 0.06536
0.67071 0.92915 0.10016
0.71624 0.92936 0.10118
0.75761 0.92986 0.10696
0.79728 0.92932 0.12048
0.83484 0.92811 0.12460
0.86892 0.92776 0.11806
0.90132 0.92787 0.15170
0.93158 0.92900 0.16635
0.95918 0.92896 0.17425
0.98317 0.92737 0.16021
1.00000 0.92663 0.15775
1.00000 0.92733 0.17601
1.00000 0.92834 0.16328
0.00000 0.94597 0.00000
0.00000 0.94607 0.00000
0.00000 0.94618 0.00000
0.00000 0.94636 0.00000
0.00000 0.94662 0.00000
0.00000 0.94697 0.00000
0.00000 0.94743 0.00000
0.00000 0.94800 0.00000
0.00000 0.94865 0.00000
0.00000 0.94946 0.00000
0.00000 0.95044 0.00000
0.00000 0.95150 0.00000
0.00000 0.95237 0.00000
0.01766 0.95274 0.00000
0.28401 0.95215 0.02759
0.39130 0.95161 0.02789
0.47650 0.95038 0.03643
0.54558 0.95000 0.05252
0.60102 0.95100 0.06978
0.65795 0.95062 0.12220
0.70603 0.95040 0.13635
0.74728 0.95073 0.13207
0.78635 0.95088 0.13969
0.82416 0.95022 0.15449
0.85957 0.94928 0.16401
0.89158 0.94957 0.16291
0.92253 0.95055 0.18939
0.95062 0.95123 0.20114
0.97552 0.95013 0.20903
0.99478 0.94819 0.20414
1.00000 0.94924 0.19608
1.00000 0.95098 0.21138
0.00000 0.96719 0.00000
0.00000 0.96734 0.00000
0.00000 0.96752 0.00000
0.00000 0.96779 0.00000
0.00000 0.96815 0.00000
0.00000 0.96856 0.00000
0.00000 0.96897 0.00000
0.00000 0.96929 0.00000
0.00000 0.96956 0.00000
0.00000 0.96997 0.00000
0.00000 0.97058 0.00000
0.00000 0.97110 0.00000
0.00000 0.97134 0.02199
0.00000 0.97125 0.04908
0.25111 0.97050 0.08471
0.37639 0.96972 0.10296
0.46032 0.96921 0.10097
0.53550 0.96820 0.11864
0.59235 0.96863 0.11463
0.64474 0.96915 0.13076
0.69598 0.96888 0.16138
0.73935 0.96888 0.16625
0.77793 0.96934 0.16311
0.81504 0.96954 0.17741
0.85062 0.96902 0.19397
0.88410 0.96880 0.20330
0.91417 0.97002 0.19968
0.94209 0.97030 0.22465
0.96727 0.96927 0.23861
0.98667 0.96776 0.24778
0.99539 0.96777 0.24812
0.99549 0.97027 0.23111
0.00000 0.98186 0.00664
0.00000 0.98197 0.00000
0.00000 0.98210 0.00000
0.00000 0.98229 0.00000
0.00000 0.98254 0.00000
0.00000 0.98283 0.00000
0.00000 0.98313 0.00000
0.00000 0.98340 0.00000
0.00000 0.98361 0.00000
0.00000 0.98382 0.00000
0.00000 0.98411 0.03064
0.00000 0.98437 0.06080
0.00000 0.98456 0.08278
0.00000 0.98463 0.10170
0.22092 0.98458 0.11735
0.36192 0.98426 0.14237
0.45124 0.98412 0.14859
0.52275 0.98388 0.15091
0.58737 0.98371 0.16327
0.63584 0.98437 0.15333
0.68582 0.98440 0.17510
0.73248 0.98417 0.19762
0.77235 0.98457 0.20191
0.80821 0.98505 0.20352
0.84336 0.98464 0.21933
0.87702 0.98422 0.23321
0.90777 0.98468 0.24058
0.93468 0.98547 0.23936
0.95987 0.98429 0.26416
0.97960 0.98281 0.27774
0.98925 0.98287 0.28448
0.98958 0.98427 0.28684
0.00000 0.99305 0.05634
0.00000 0.99312 0.04949
0.00000 0.99319 0.04049
0.00000 0.99330 0.02630
