cube lut/pro neg hi_DisplayP3.cube
# DisplayP3
# github.com/abpy/FujifilmCameraProfiles
LUT_3D_SIZE 8
DOMAIN_MIN 0.000000 0.000000 0.000000
DOMAIN_MAX 0.903226 0.903226 0.903226
0.00000 0.00000 0.00000
0.03464 0.00000 0.00000
0.23480 0.01882 0.00000
0.49921 0.08431 0.02590
0.70948 0.13970 0.04696
0.86726 0.18045 0.03057
0.97579 0.21815 0.07395
1.00000 0.23992 0.00000
0.00000 0.04406 0.00000
0.03606 0.04076 0.00128
0.23950 0.07269 0.00908
0.50793 0.12674 0.03002
0.71676 0.18179 0.01322
0.87413 0.22385 0.00000
0.98353 0.25726 0.00000
1.00000 0.27622 0.00000
0.00000 0.23742 0.00000
0.00000 0.21557 0.01208
0.23252 0.24365 0.02559
0.52783 0.26651 0.06897
0.73130 0.26886 0.06408
0.88583 0.29980 0.00000
0.99908 0.33064 0.00000
1.00000 0.34900 0.00000
0.00000 0.47242 0.01327
0.00000 0.46761 0.04903
0.03445 0.47126 0.06730
0.48293 0.48874 0.09951
0.72850 0.49779 0.13272
0.90359 0.48191 0.12546
1.00000 0.45552 0.00000
1.00000 0.45106 0.00000
0.00000 0.65416 0.07196
0.00000 0.65398 0.08718
0.00000 0.65141 0.10442
0.35427 0.66495 0.12049
0.67408 0.67556 0.15352
0.88273 0.67970 0.18123
1.00000 0.66103 0.18227
1.00000 0.62379 0.05824
0.00000 0.79463 0.11925
0.00000 0.79680 0.12579
0.00000 0.79903 0.13474
0.00000 0.80580 0.14249
0.57270 0.81008 0.16593
0.83070 0.81442 0.19508
1.00000 0.80963 0.21705
1.00000 0.79234 0.21233
0.00000 0.90163 0.15767
0.00000 0.90546 0.16186
0.00000 0.91286 0.16774
0.00000 0.91742 0.16192
0.38823 0.92281 0.18042
0.74729 0.91826 0.20129
0.95314 0.91967 0.22530
1.00000 0.90986 0.23633
0.00000 0.95857 0.18354
0.00000 0.96162 0.18701
0.00000 0.96884 0.19278
0.00000 0.97692 0.18571
0.00000 0.97782 0.17713
0.62923 0.97977 0.21216
0.88294 0.98349 0.23061
1.00000 0.98717 0.24310
0.00000 0.00000 0.04240
0.05196 0.01082 0.06048
0.25499 0.03340 0.10358
0.50478 0.08672 0.15461
0.71010 0.13460 0.19121
0.86611 0.17164 0.20185
0.97586 0.21245 0.22452
1.00000 0.23621 0.11936
0.00160 0.04922 0.04413
0.06369 0.06382 0.06376
0.26571 0.09569 0.10223
0.51741 0.13500 0.14955
0.71712 0.17302 0.18070
0.87248 0.21124 0.18152
0.98358 0.24907 0.19961
1.00000 0.27122 0.07608
0.00000 0.23711 0.04942
0.00000 0.24011 0.05104
0.25450 0.26499 0.07484
0.52881 0.28959 0.11345
0.73199 0.28799 0.15407
0.88601 0.29640 0.18280
0.99959 0.32284 0.19207
1.00000 0.34309 0.04620
0.00000 0.47329 0.08008
0.00000 0.47110 0.06872
0.10832 0.47853 0.07331
0.48640 0.49229 0.10771
0.72360 0.50780 0.14840
0.89860 0.49570 0.17154
1.00000 0.46592 0.16935
1.00000 0.45404 0.10160
0.00000 0.65475 0.12323
0.00000 0.65448 0.11672
0.00000 0.65477 0.10613
0.37379 0.66695 0.12462
0.67348 0.67742 0.15550
0.87582 0.68348 0.18954
1.00000 0.66784 0.20988
1.00000 0.63392 0.17636
0.00000 0.79555 0.16127
0.00000 0.79734 0.15840
0.00000 0.79864 0.14507
0.00000 0.80729 0.14496
0.57586 0.81370 0.17384
0.82559 0.81986 0.20324
0.99537 0.81730 0.22489
1.00000 0.79847 0.22753
0.00000 0.90364 0.19387
0.00000 0.90732 0.19309
0.00000 0.91408 0.18631
0.00000 0.91849 0.16509
0.39990 0.92573 0.18811
0.74556 0.92618 0.21189
0.94616 0.92886 0.23488
1.00000 0.92332 0.24833
0.00000 0.95996 0.21727
0.00000 0.96293 0.21755
0.00000 0.96980 0.21517
0.00000 0.97699 0.19525
0.00000 0.97942 0.18483
0.63231 0.98315 0.22419
0.87848 0.98988 0.24210
1.00000 0.99530 0.25767
0.01143 0.00741 0.26908
0.07914 0.01241 0.28755
0.31223 0.05834 0.34295
0.52911 0.10877 0.37281
0.71506 0.15256 0.41458
0.86167 0.17474 0.43136
0.97244 0.20682 0.44294
1.00000 0.22716 0.36667
0.02309 0.08982 0.26993
0.11165 0.10763 0.28699
0.31386 0.13504 0.32637
0.53179 0.17595 0.37296
0.71865 0.21556 0.41613
0.86727 0.23028 0.43879
0.97962 0.23982 0.43510
1.00000 0.25837 0.35844
0.00000 0.27135 0.25520
0.02105 0.28089 0.26641
0.29679 0.29661 0.29739
0.53460 0.31820 0.33531
0.72676 0.34327 0.38282
0.88037 0.35130 0.41645
0.99633 0.34206 0.43911
1.00000 0.34209 0.36791
0.00000 0.48118 0.24001
0.00000 0.48406 0.23200
0.18787 0.49224 0.25598
0.50072 0.50653 0.29274
0.71655 0.52366 0.33054
0.88361 0.52348 0.35939
1.00000 0.50495 0.37471
1.00000 0.47568 0.34947
0.00000 0.65653 0.24033
0.00000 0.65724 0.22952
0.00000 0.66135 0.23421
0.41542 0.67079 0.26779
0.67244 0.67920 0.28846
0.86112 0.68857 0.31966
1.00000 0.68094 0.33408
1.00000 0.65444 0.31654
0.00000 0.79650 0.25446
0.00000 0.79776 0.24598
0.00000 0.79947 0.23445
0.15980 0.80733 0.23268
0.58883 0.81636 0.26990
0.81631 0.81687 0.29109
0.97815 0.82332 0.31606
1.00000 0.81036 0.31362
0.00000 0.90665 0.27286
0.00000 0.90972 0.26696
0.00000 0.91430 0.25004
0.00000 0.91863 0.21539
0.43946 0.92609 0.25302
0.74510 0.93387 0.29002
0.93443 0.93279 0.30870
1.00000 0.93627 0.32706
0.00000 0.96253 0.28986
0.00000 0.96522 0.28608
0.00000 0.97119 0.27385
0.00000 0.97718 0.24217
0.00000 0.98145 0.24641
0.64142 0.98808 0.28415
0.87293 0.99782 0.31519
0.99983 1.00000 0.34353
0.03227 0.01283 0.54376
0.11543 0.01998 0.56240
0.33041 0.06490 0.61223
0.55367 0.12588 0.65007
0.73144 0.16632 0.66646
0.86564 0.21753 0.67364
0.96792 0.24869 0.69505
0.99354 0.26049 0.62992
0.05803 0.11342 0.54918
0.16297 0.13296 0.57102
0.36132 0.16714 0.60032
0.55564 0.22212 0.61508
0.73233 0.24831 0.64449
0.87213 0.27522 0.66614
0.97689 0.29697 0.68830
1.00000 0.30703 0.63528
0.00000 0.31812 0.52934
0.13974 0.32458 0.53597
0.35804 0.34444 0.55077
0.55325 0.36576 0.57223
0.73382 0.38564 0.59972
0.87761 0.40986 0.62969
0.99261 0.42746 0.66100
1.00000 0.43303 0.63944
0.00000 0.50390 0.48517
0.00000 0.50552 0.48983
0.27607 0.51481 0.50352
0.52417 0.52457 0.52437
0.72308 0.53709 0.54596
0.87586 0.54563 0.57763
1.00000 0.55541 0.60689
1.00000 0.55372 0.60065
0.00000 0.66587 0.44958
0.00000 0.66822 0.44958
0.00000 0.67251 0.46004
0.45024 0.68157 0.47991
0.68269 0.68587 0.50128
0.85483 0.69519 0.52896
0.99091 0.69726 0.55877
1.00000 0.69646 0.56627
0.00000 0.79918 0.42939
0.00000 0.80101 0.42835
0.00000 0.80500 0.42976
0.29030 0.81123 0.44443
0.61516 0.81403 0.47023
0.81358 0.81818 0.49283
0.96656 0.82601 0.52007
1.00000 0.82165 0.53390
0.00000 0.90829 0.41495
0.00000 0.91069 0.41378
0.00000 0.91468 0.41720
0.00000 0.92077 0.41954
0.50001 0.92518 0.43877
0.75748 0.92948 0.47115
0.92844 0.93115 0.49175
1.00000 0.93702 0.51776
0.00000 0.96521 0.41091
0.00000 0.96756 0.40851
0.00000 0.97283 0.40614
0.00000 0.97894 0.41409
0.27605 0.98288 0.42324
0.67091 0.98916 0.45034
0.87824 0.99726 0.49070
0.99623 0.99711 0.52017
0.08113 0.01959 0.77170
0.16879 0.02942 0.79862
0.36262 0.07227 0.84414
0.56049 0.13072 0.87836
0.73765 0.19503 0.88301
0.88032 0.23425 0.88549
0.97009 0.26566 0.87782
0.99300 0.31733 0.83258
0.10819 0.12566 0.78627
0.20790 0.13831 0.81042
0.39147 0.16733 0.83680
0.57470 0.21733 0.85298
0.74382 0.28139 0.85314
0.88352 0.30813 0.86271
0.97995 0.32105 0.86708
1.00000 0.36243 0.82485
0.15451 0.36967 0.75285
0.26924 0.38498 0.75516
0.42896 0.40198 0.76506
0.59030 0.41964 0.77531
0.74813 0.43401 0.79092
0.88262 0.45386 0.80825
0.99273 0.46979 0.82942
1.00000 0.48749 0.80588
0.00000 0.53236 0.70703
0.16021 0.53420 0.71158
0.36747 0.54034 0.72209
0.56261 0.55475 0.73298
0.73585 0.56384 0.74708
0.87786 0.57340 0.76237
0.99408 0.58888 0.78368
1.00000 0.61112 0.78438
0.00000 0.68243 0.66040
0.00000 0.68378 0.66494
0.22791 0.69007 0.67253
0.49609 0.69511 0.68615
0.70056 0.70085 0.70024
0.85740 0.70600 0.71559
0.98624 0.71069 0.74067
1.00000 0.72284 0.74952
0.00000 0.80592 0.62474
0.00000 0.80767 0.62596
0.00000 0.81135 0.63312
0.37624 0.81727 0.64364
0.64086 0.81968 0.66040
0.82046 0.82402 0.67704
0.96316 0.83183 0.69932
1.00000 0.83448 0.71721
0.00000 0.91184 0.59815
0.00000 0.91410 0.59859
0.00000 0.91832 0.60154
0.03606 0.92347 0.61069
0.54750 0.92606 0.62808
0.77454 0.93148 0.65460
0.92985 0.93443 0.67647
1.00000 0.93978 0.70545
0.00000 0.96924 0.58260
0.00000 0.97145 0.58455
0.00000 0.97650 0.59110
0.00000 0.98141 0.60224
0.41043 0.98562 0.61803
0.71067 0.98993 0.64356
0.89093 0.99214 0.67547
0.99460 0.99364 0.69369
0.15267 0.04170 0.90049
0.23310 0.04467 0.93371
0.39374 0.08141 0.97446
0.57166 0.13426 0.98256
0.73896 0.19485 0.98585
0.88103 0.25851 0.99033
0.97344 0.31430 0.98475
0.99080 0.35693 0.96045
0.18140 0.13831 0.95948
0.26743 0.14636 0.97480
0.42144 0.17468 0.97997
0.59176 0.22172 0.97946
0.75010 0.27192 0.98021
0.88691 0.32829 0.98152
0.98315 0.37219 0.97733
1.00000 0.41008 0.95413
0.24569 0.38600 0.93408
0.33466 0.39941 0.93760
0.47585 0.41976 0.94290
0.62377 0.44208 0.94666
0.76480 0.44969 0.95314
0.89308 0.49635 0.94545
0.99529 0.50370 0.95527
1.00000 0.53638 0.94221
0.25394 0.56524 0.88377
0.33581 0.57315 0.88580
0.45987 0.58058 0.89540
0.61488 0.59342 0.89984
0.75778 0.60458 0.90582
0.88781 0.61204 0.91609
0.99819 0.62702 0.93220
1.00000 0.64936 0.91475
0.00000 0.69904 0.83776
0.17351 0.70093 0.84086
0.36952 0.70509 0.84805
0.55512 0.71102 0.85942
0.72671 0.71939 0.87039
0.86746 0.72731 0.87964
0.98825 0.73497 0.89430
1.00000 0.74903 0.88239
0.00000 0.81833 0.79710
0.00000 0.81951 0.79945
0.16242 0.82204 0.80548
0.46761 0.82619 0.81582
0.67628 0.83052 0.82784
0.83559 0.83569 0.83590
0.96738 0.84423 0.85422
1.00000 0.84925 0.86002
0.00000 0.92339 0.76300
0.00000 0.92536 0.76370
0.00000 0.92885 0.76948
0.31030 0.93023 0.78002
0.60274 0.93175 0.79258
0.79385 0.93655 0.80958
0.93730 0.94067 0.82394
1.00000 0.94464 0.84008
0.00000 0.97563 0.74912
0.00000 0.97730 0.75000
0.00000 0.98026 0.75318
0.00000 0.98219 0.76170
0.49861 0.98544 0.77501
0.73796 0.98959 0.79061
0.90003 0.99015 0.81086
0.99499 0.99605 0.82309
0.23408 0.08152 0.94259
0.29918 0.08600 0.96050
0.43140 0.11376 0.98042
0.58838 0.15418 0.98095
0.73830 0.19325 0.98278
0.87931 0.26743 0.98554
0.97260 0.34763 0.98996
0.99146 0.39713 0.99474
0.26318 0.16861 0.97317
0.32870 0.17004 0.97705
0.45488 0.19067 0.98084
0.60734 0.22527 0.98136
0.75377 0.26270 0.98341
0.88861 0.32615 0.98622
0.98136 0.40016 0.99086
0.99872 0.45019 0.99569
0.31705 0.38702 0.98094
0.38150 0.39519 0.98125
0.50502 0.41339 0.98219
0.64069 0.42581 0.98356
0.78162 0.45438 0.98593
0.90282 0.48858 0.99006
0.99525 0.53260 0.99531
1.00000 0.57471 0.99423
0.37347 0.59541 0.98365
0.43919 0.60618 0.98396
0.53670 0.61612 0.98425
0.66441 0.62831 0.98578
0.78736 0.64458 0.98879
0.90404 0.64616 0.98937
0.99696 0.66518 0.99376
1.00000 0.69470 0.98661
0.31770 0.72375 0.97511
0.37807 0.72612 0.97584
0.48444 0.72898 0.97906
0.62562 0.73677 0.97943
0.76528 0.74936 0.98292
0.88793 0.75522 0.98484
0.98883 0.76375 0.98441
1.00000 0.78066 0.97909
0.00000 0.83502 0.95332
0.19667 0.83559 0.95472
0.37952 0.83683 0.95661
0.55917 0.83935 0.95874
0.72280 0.84467 0.96308
0.85955 0.85353 0.96510
0.97152 0.85772 0.97341
1.00000 0.86709 0.96474
0.00000 0.93721 0.91625
0.00000 0.93781 0.91838
0.11492 0.93929 0.92262
0.44982 0.94089 0.92677
0.65812 0.94199 0.93499
0.81798 0.94228 0.94423
0.94592 0.94623 0.94577
1.00000 0.94570 0.94777
0.00000 0.98135 0.89684
0.00000 0.98193 0.89901
0.00000 0.98234 0.90296
0.26928 0.98342 0.90558
0.57149 0.98667 0.90845
0.76716 0.98774 0.91434
0.90505 0.99279 0.91874
0.99047 0.99522 0.92595
0.31601 0.12973 0.97025
0.36626 0.13573 0.97900
0.47468 0.15073 0.97955
0.61137 0.18330 0.98132
0.75136 0.22281 0.98291
0.87763 0.26262 0.98499
0.96490 0.32013 0.98687
0.99096 0.42167 0.98877
0.34175 0.20356 0.97912
0.39065 0.21103 0.98182
0.49679 0.22672 0.98008
0.62969 0.25443 0.98185
0.76642 0.28890 0.98339
0.88924 0.32722 0.98558
0.97668 0.38552 0.98768
0.99624 0.47141 0.98921
0.38498 0.39846 0.98122
0.43447 0.40588 0.98134
0.53851 0.41747 0.98175
0.66642 0.43244 0.98351
0.79628 0.46344 0.98522
0.91415 0.48591 0.98760
0.99831 0.53312 0.98988
1.00000 0.59552 0.99068
0.44200 0.60766 0.98364
0.49030 0.61512 0.98415
0.58515 0.62984 0.98532
0.70553 0.64780 0.98683
0.81198 0.65600 0.98883
0.92260 0.67788 0.99165
0.99913 0.68833 0.99212
1.00000 0.73281 0.99593
0.45877 0.75167 0.98635
0.50951 0.75762 0.98717
0.59455 0.76519 0.98896
0.70155 0.77669 0.99021
0.80902 0.78415 0.99238
0.90953 0.79126 0.99499
0.98942 0.79638 0.99759
1.00000 0.80506 0.99851
0.38835 0.85127 0.99002
0.43340 0.85222 0.99025
0.52600 0.85423 0.99076
0.64618 0.85787 0.99154
0.77099 0.86464 0.99461
0.88434 0.87052 0.99487
0.97355 0.87316 1.00000
1.00000 0.87841 0.99873
0.15665 0.93970 0.98850
0.25517 0.93996 0.98859
0.40459 0.94092 0.98895
0.56692 0.94238 0.99024
0.71752 0.94213 0.99241
0.84626 0.94420 0.99808
0.95061 0.94582 0.99629
0.99709 0.94244 0.99683
0.00000 0.98034 0.97034
0.00000 0.98075 0.97143
0.16536 0.98155 0.97516
0.44508 0.98403 0.97785
0.64516 0.98643 0.97873
0.79288 0.98965 0.97981
0.91075 0.99173 0.98373
0.99114 0.99113 0.99106
