cube lut/provia_DisplayP3.cube
# DisplayP3
# github.com/abpy/FujifilmCameraProfiles
LUT_3D_SIZE 8
DOMAIN_MIN 0.000000 0.000000 0.000000
DOMAIN_MAX 0.903226 0.903226 0.903226
0.00000 0.00000 0.00000
0.09844 0.00855 0.00455
0.32565 0.04348 0.02130
0.58574 0.10725 0.05426
0.80759 0.16865 0.08030
0.96460 0.21710 0.08943
1.00000 0.23874 0.07002
1.00000 0.25099 0.00000
0.00000 0.08194 0.00218
0.07020 0.07686 0.00764
0.31035 0.09853 0.01357
0.57935 0.14498 0.03887
0.80558 0.20321 0.04061
0.96479 0.25069 0.02309
1.00000 0.27217 0.00000
1.00000 0.28344 0.00000
0.00000 0.27173 0.00918
0.00000 0.25173 0.01498
0.24207 0.26358 0.03021
0.55411 0.27679 0.07470
0.79782 0.27918 0.07484
0.96172 0.31174 0.04154
1.00000 0.33568 0.00000
1.00000 0.34854 0.00000
0.00000 0.49482 0.06492
0.00000 0.48396 0.06136
0.00000 0.48060 0.06642
0.45476 0.48982 0.09678
0.75373 0.49782 0.13549
0.94019 0.47338 0.14065
1.00000 0.44825 0.03716
1.00000 0.44163 0.00000
0.00000 0.69327 0.12551
0.00000 0.69259 0.11661
0.00000 0.68919 0.11078
0.22923 0.68649 0.11929
0.64672 0.68543 0.15241
0.87570 0.68298 0.17981
1.00000 0.66054 0.18810
1.00000 0.61878 0.12395
0.00000 0.83805 0.17457
0.00000 0.84063 0.16553
0.00000 0.84163 0.14922
0.00000 0.83606 0.14558
0.47924 0.82682 0.16202
0.79142 0.81989 0.19016
0.96545 0.81034 0.21012
1.00000 0.78410 0.21359
0.00000 0.93031 0.21177
0.00000 0.93441 0.20478
0.00000 0.94239 0.18777
0.00000 0.94673 0.16770
0.01334 0.93252 0.16943
0.67038 0.91664 0.19260
0.89593 0.90566 0.21660
1.00000 0.89552 0.23024
0.00000 0.96838 0.23299
0.00000 0.97045 0.22763
0.00000 0.97509 0.21343
0.00000 0.97948 0.18559
0.00000 0.98047 0.17394
0.48130 0.98214 0.18669
0.80944 0.98062 0.21070
0.97785 0.97219 0.23601
0.00923 0.00708 0.10397
0.11594 0.02229 0.10869
0.33682 0.05481 0.12969
0.59356 0.10957 0.16568
0.81311 0.16419 0.19369
0.96802 0.21027 0.20517
1.00000 0.23170 0.20215
1.00000 0.24520 0.04972
0.00000 0.08689 0.08250
0.09407 0.09436 0.09399
0.31975 0.11766 0.11867
0.58548 0.15323 0.15271
0.80994 0.19597 0.17755
0.96789 0.23997 0.18090
1.00000 0.26297 0.17433
1.00000 0.27649 0.00000
0.00000 0.26965 0.08033
0.00000 0.26692 0.06803
0.26347 0.27817 0.08608
0.55572 0.29497 0.11451
0.79824 0.29752 0.15056
0.96365 0.30727 0.17398
1.00000 0.32633 0.16314
1.00000 0.34026 0.00000
0.00000 0.49374 0.11273
0.00000 0.48575 0.08152
0.00000 0.48813 0.07517
0.46585 0.49631 0.10276
0.75000 0.50610 0.14562
0.93556 0.48718 0.16747
1.00000 0.45533 0.16336
1.00000 0.44156 0.08094
0.00000 0.69409 0.16050
0.00000 0.69313 0.13876
0.00000 0.68934 0.11127
0.26149 0.68698 0.12098
0.65236 0.68639 0.14910
0.87343 0.68543 0.18222
1.00000 0.66826 0.19998
1.00000 0.63066 0.18369
0.00000 0.83902 0.20388
0.00000 0.84109 0.18893
0.00000 0.84018 0.15419
0.00000 0.83516 0.14152
0.49245 0.82748 0.16512
0.79179 0.82407 0.18906
0.96304 0.81610 0.21142
1.00000 0.79297 0.21707
0.00000 0.93183 0.23814
0.00000 0.93570 0.22810
0.00000 0.94271 0.20103
0.00000 0.94604 0.16777
0.11858 0.93212 0.16597
0.67620 0.92103 0.19850
0.89571 0.91164 0.21963
1.00000 0.90348 0.23320
0.00000 0.96923 0.25799
0.00000 0.97125 0.25070
0.00000 0.97566 0.23040
0.00000 0.97956 0.18990
0.00000 0.98044 0.17408
0.49480 0.98356 0.18821
0.81226 0.98432 0.21413
0.97734 0.97774 0.24275
0.03067 0.01605 0.33955
0.14399 0.02745 0.34455
0.37792 0.07646 0.36323
0.62221 0.13125 0.37501
0.82535 0.17995 0.40115
0.97200 0.20857 0.40675
1.00000 0.22003 0.40090
1.00000 0.23036 0.32081
0.03032 0.12173 0.31174
0.14741 0.13637 0.31818
0.35419 0.15790 0.33532
0.60132 0.19502 0.36670
0.81392 0.23509 0.39740
0.96720 0.25093 0.40723
1.00000 0.24895 0.38930
1.00000 0.25852 0.31079
0.00000 0.29395 0.28650
0.00000 0.29700 0.29379
0.30724 0.30830 0.30757
0.57157 0.32376 0.32992
0.79605 0.34432 0.36187
0.95559 0.35043 0.37829
1.00000 0.34027 0.38469
1.00000 0.33256 0.31734
0.00000 0.50278 0.26633
0.00000 0.50368 0.25368
0.11768 0.50444 0.26135
0.49299 0.50963 0.27911
0.74741 0.52045 0.30722
0.92231 0.51685 0.32280
1.00000 0.49443 0.32741
1.00000 0.46175 0.29873
0.00000 0.69346 0.26210
0.00000 0.69198 0.23886
0.00000 0.68922 0.22366
0.33258 0.68554 0.24195
0.66269 0.68566 0.26332
0.86773 0.69080 0.28569
1.00000 0.68089 0.29263
1.00000 0.65278 0.26883
0.00000 0.83774 0.28013
0.00000 0.83820 0.25978
0.00000 0.83402 0.21628
0.00000 0.82890 0.20573
0.52423 0.82558 0.24150
0.79264 0.82304 0.24530
0.95451 0.82488 0.28170
1.00000 0.80953 0.27537
0.00000 0.93349 0.30284
0.00000 0.93658 0.28875
0.00000 0.94082 0.24964
0.00000 0.93999 0.18606
0.25153 0.92943 0.20848
0.69084 0.92611 0.26194
0.89472 0.91944 0.26407
1.00000 0.92313 0.27730
0.00000 0.97082 0.31697
0.00000 0.97267 0.30669
0.00000 0.97654 0.27719
0.00000 0.97961 0.21380
0.00000 0.98011 0.19698
0.52866 0.98616 0.22847
0.81982 0.98873 0.27178
0.97633 0.98672 0.29676
0.07245 0.02503 0.61344
0.18438 0.03565 0.61868
0.41018 0.08627 0.63765
0.65684 0.15336 0.65405
0.84452 0.20065 0.65187
0.97700 0.23884 0.64597
1.00000 0.26061 0.65670
1.00000 0.25902 0.58762
0.08037 0.14966 0.59163
0.20638 0.16573 0.60229
0.41108 0.19252 0.61200
0.63378 0.24064 0.61558
0.82724 0.26584 0.62894
0.96930 0.28563 0.63801
1.00000 0.30088 0.65016
1.00000 0.30250 0.59314
0.00000 0.33503 0.55744
0.13839 0.33900 0.56036
0.36778 0.35151 0.56663
0.59882 0.36464 0.57438
0.80108 0.38412 0.58993
0.94670 0.40480 0.60924
1.00000 0.41886 0.63021
1.00000 0.42368 0.60395
0.00000 0.52479 0.51576
0.00000 0.52410 0.51682
0.21862 0.52538 0.51944
0.52673 0.52685 0.52672
0.75652 0.53487 0.53839
0.91683 0.54225 0.56095
1.00000 0.54697 0.58051
1.00000 0.54552 0.56684
0.00000 0.69588 0.47927
0.00000 0.69552 0.47276
0.00000 0.69278 0.47284
0.38773 0.69138 0.47573
0.67875 0.69182 0.49151
0.86690 0.69633 0.50987
0.99825 0.69605 0.53091
1.00000 0.69080 0.53574
0.00000 0.83279 0.45541
0.00000 0.83261 0.44750
0.00000 0.82950 0.43776
0.00000 0.82232 0.44252
0.56853 0.81978 0.45415
0.80099 0.82025 0.46934
0.94775 0.82656 0.49632
1.00000 0.81942 0.50504
0.00000 0.93133 0.43869
0.00000 0.93296 0.43099
0.00000 0.93316 0.41893
0.00000 0.92726 0.41152
0.37985 0.92325 0.42389
0.71773 0.92056 0.44664
0.89691 0.92385 0.45538
1.00000 0.93019 0.47589
0.00000 0.97217 0.42846
0.00000 0.97372 0.42039
0.00000 0.97686 0.40272
0.00000 0.97940 0.38545
0.00000 0.98087 0.37809
0.59049 0.98468 0.40804
0.83419 0.98932 0.44936
0.97608 0.99196 0.45963
0.13282 0.05151 0.85702
0.23568 0.06005 0.86735
0.44184 0.10108 0.87571
0.66781 0.16493 0.88163
0.85440 0.22382 0.87584
0.98688 0.25939 0.86861
1.00000 0.28064 0.85401
1.00000 0.32136 0.80720
0.13871 0.16726 0.83685
0.24923 0.17630 0.84743
0.44733 0.19860 0.85293
0.66205 0.24075 0.85567
0.84186 0.29398 0.84663
0.97483 0.31940 0.84539
1.00000 0.32755 0.84255
1.00000 0.36203 0.80052
0.13323 0.38222 0.78582
0.25954 0.39364 0.78388
0.44067 0.40550 0.78644
0.63434 0.42108 0.78569
0.81217 0.43314 0.79066
0.94682 0.45029 0.79680
1.00000 0.46616 0.80707
1.00000 0.48131 0.78387
0.00000 0.54726 0.74558
0.00368 0.54711 0.74606
0.32897 0.54944 0.74576
0.57165 0.55624 0.74572
0.77077 0.56425 0.74755
0.91778 0.57042 0.75575
1.00000 0.58633 0.76638
1.00000 0.60701 0.76242
0.00000 0.70834 0.70285
0.00000 0.70629 0.70117
0.00000 0.70207 0.69759
0.45520 0.70131 0.69956
0.70372 0.70398 0.70339
0.87279 0.70664 0.71133
0.99673 0.71220 0.72516
1.00000 0.72028 0.73179
0.00000 0.83290 0.66541
0.00000 0.83284 0.66292
0.00000 0.83035 0.66141
0.23723 0.82392 0.65981
0.60670 0.82123 0.66284
0.81377 0.82336 0.67226
0.95242 0.83047 0.68828
1.00000 0.83074 0.70405
0.00000 0.92769 0.63513
0.00000 0.92866 0.63269
0.00000 0.92899 0.62861
0.00000 0.92396 0.62981
0.45986 0.91858 0.63593
0.74412 0.91933 0.64923
0.90652 0.92420 0.66393
1.00000 0.92376 0.68835
0.00000 0.97353 0.60735
0.00000 0.97497 0.60671
0.00000 0.97801 0.60726
0.00000 0.98032 0.60893
0.17201 0.98340 0.61509
0.64998 0.98331 0.63136
0.85180 0.98707 0.65350
0.97745 0.98659 0.66354
0.19969 0.08057 0.97482
0.28980 0.08667 0.98050
0.47093 0.12016 0.98113
0.68064 0.17405 0.98336
0.85969 0.23122 0.98647
0.99046 0.28997 0.98753
1.00000 0.32689 0.97348
1.00000 0.36077 0.94632
0.20656 0.18615 0.98138
0.30012 0.19032 0.98191
0.47839 0.20837 0.98077
0.68359 0.24968 0.98146
0.85458 0.29575 0.98013
0.98108 0.34924 0.97682
1.00000 0.38030 0.96329
1.00000 0.41106 0.93682
0.21675 0.40168 0.95447
0.31688 0.41192 0.95447
0.49133 0.42716 0.95416
0.67004 0.44683 0.95204
0.82982 0.45549 0.94981
0.95088 0.50077 0.93719
1.00000 0.50775 0.93676
1.00000 0.53371 0.91644
0.14482 0.58175 0.91148
0.26621 0.58686 0.90885
0.43408 0.59047 0.90920
0.62754 0.60079 0.90338
0.79010 0.61041 0.90074
0.92185 0.61367 0.90639
1.00000 0.63067 0.90642
1.00000 0.64853 0.89071
0.00000 0.71873 0.86899
0.00000 0.71743 0.86818
0.27394 0.71610 0.86644
0.53236 0.71763 0.86700
0.73553 0.72495 0.86775
0.88203 0.72879 0.86868
0.99679 0.73880 0.87403
1.00000 0.74950 0.86573
0.00000 0.83795 0.83498
0.00000 0.83700 0.83324
0.00000 0.83324 0.83094
0.37580 0.82916 0.82974
0.65279 0.83052 0.82945
0.83422 0.83437 0.83458
0.96242 0.84066 0.84221
1.00000 0.84568 0.84892
0.00000 0.93064 0.80682
0.00000 0.93098 0.80586
0.00000 0.92942 0.80396
0.00000 0.92486 0.80014
0.53872 0.92032 0.80234
0.76884 0.92472 0.80765
0.91864 0.92541 0.81700
1.00000 0.92761 0.82919
0.00000 0.97593 0.78232
0.00000 0.97727 0.78197
0.00000 0.97992 0.78117
0.00000 0.98189 0.77881
0.33947 0.98040 0.77940
0.68651 0.98349 0.78638
0.86777 0.98316 0.80026
0.97935 0.98577 0.80799
0.27508 0.12706 0.97731
0.35037 0.12834 0.97956
0.50870 0.15630 0.98008
0.69605 0.19776 0.98224
0.86290 0.23645 0.98459
0.99147 0.30117 0.98816
1.00000 0.36609 0.99446
1.00000 0.40712 0.99461
0.28133 0.21754 0.97938
0.35869 0.21732 0.97965
0.51648 0.23352 0.98037
0.69993 0.26505 0.98264
0.86221 0.29951 0.98514
0.98652 0.35395 0.98864
1.00000 0.41527 0.99461
1.00000 0.45908 0.99243
0.28463 0.41102 0.98041
0.36609 0.41801 0.98091
0.52547 0.43390 0.98252
0.69428 0.44211 0.98432
0.84810 0.47229 0.98726
0.96483 0.50312 0.99175
1.00000 0.54251 0.99272
1.00000 0.58123 0.98337
0.30609 0.61224 0.98375
0.39631 0.62092 0.98376
0.52605 0.62887 0.98376
0.68313 0.64034 0.98413
0.81794 0.65540 0.98465
0.93272 0.65469 0.98365
1.00000 0.67227 0.98370
1.00000 0.69944 0.97433
0.16178 0.73722 0.97645
0.27186 0.73845 0.97555
0.43168 0.73988 0.97548
0.61562 0.74681 0.97441
0.77606 0.75758 0.97570
0.89813 0.76148 0.97010
1.00000 0.76806 0.97126
1.00000 0.78331 0.96765
0.00000 0.84557 0.96069
0.00000 0.84419 0.95968
0.22403 0.84135 0.95713
0.50229 0.84008 0.95503
0.70812 0.84511 0.95160
0.85688 0.85195 0.95286
0.97217 0.85345 0.95920
1.00000 0.86162 0.95027
0.00000 0.93609 0.93647
0.00000 0.93643 0.93521
0.00000 0.93533 0.93166
0.30806 0.92888 0.92660
0.61084 0.92863 0.92809
0.79998 0.93046 0.93148
0.92948 0.92976 0.92960
1.00000 0.93032 0.92856
0.00000 0.97907 0.91491
0.00000 0.98014 0.91460
0.00000 0.98101 0.91274
0.00000 0.98067 0.90821
0.45729 0.98148 0.90381
0.72449 0.98445 0.90108
0.87759 0.98327 0.90548
0.97792 0.98522 0.90653
0.34724 0.17859 0.97829
0.40923 0.17868 0.97941
0.54688 0.19625 0.98046
0.71484 0.23024 0.98258
0.86992 0.26610 0.98492
0.99259 0.30427 0.98732
1.00000 0.34851 0.98914
1.00000 0.44215 0.99016
0.35241 0.25453 0.97945
0.41570 0.25777 0.98001
0.55321 0.27152 0.98094
0.71821 0.29588 0.98298
0.86992 0.32779 0.98527
0.98862 0.36146 0.98775
1.00000 0.40973 0.98961
1.00000 0.49031 0.99051
0.34923 0.42500 0.98099
0.42190 0.43274 0.98134
0.56012 0.44603 0.98251
0.71827 0.45872 0.98432
0.86016 0.48848 0.98665
0.97303 0.50759 0.98919
1.00000 0.55110 0.99125
1.00000 0.60956 0.99216
0.38167 0.62536 0.98367
0.44762 0.63114 0.98423
0.57273 0.64472 0.98560
0.72153 0.66328 0.98726
0.83952 0.67189 0.98993
0.94697 0.69247 0.99239
1.00000 0.70159 0.99339
1.00000 0.74160 0.99712
0.37606 0.76332 0.98599
0.44926 0.76817 0.98693
0.56218 0.77400 0.98909
0.69365 0.78301 0.99040
0.81522 0.79182 0.99317
0.91588 0.79908 0.99529
1.00000 0.80250 0.99707
1.00000 0.80925 0.99933
0.20834 0.85676 0.98886
0.29608 0.85642 0.98923
0.44393 0.85593 0.99017
0.60904 0.85737 0.99153
0.76133 0.86305 0.99317
0.87828 0.86817 0.99425
0.97441 0.86889 0.99921
1.00000 0.87413 0.99657
0.00000 0.93599 0.98909
0.00000 0.93572 0.98911
0.19784 0.93409 0.98917
0.48240 0.93203 0.98976
0.68385 0.93063 0.99023
0.82936 0.93054 0.99520
0.93719 0.93036 0.99200
1.00000 0.92870 0.99247
0.00000 0.97648 0.98820
0.00000 0.97753 0.98717
0.00000 0.97897 0.98479
0.22373 0.98100 0.98113
0.56551 0.98347 0.97800
0.75430 0.98158 0.97604
0.88423 0.98116 0.97826
0.97907 0.97901 0.97894
