cube lut/provia_DisplayP3.cube
# DisplayP3
# github.com/abpy/FujifilmCameraProfiles
LUT_3D_SIZE 32
0.00000 0.00000 0.00000
0.01815 0.00207 0.00084
0.03695 0.00437 0.00075
0.06189 0.00612 0.00258
0.09844 0.00855 0.00455
0.14551 0.01375 0.00733
0.20181 0.02105 0.01035
0.26232 0.03094 0.01533
0.32565 0.04348 0.02130
0.38973 0.05807 0.02891
0.45422 0.07496 0.03701
0.52129 0.09079 0.04561
0.58574 0.10725 0.05426
0.64655 0.12397 0.06071
0.70482 0.13980 0.06648
0.75847 0.15404 0.07350
0.80759 0.16865 0.08030
0.85283 0.18389 0.07892
0.89403 0.19678 0.08033
0.93099 0.20766 0.08463
0.96460 0.21710 0.08943
0.99522 0.22510 0.09431
1.00000 0.23156 0.09233
1.00000 0.23602 0.08616
1.00000 0.23874 0.07002
1.00000 0.24089 0.02123
1.00000 0.24332 0.00000
1.00000 0.24651 0.00000
1.00000 0.25099 0.00000
1.00000 0.25687 0.00000
1.00000 0.26545 0.00000
1.00000 0.28149 0.00000
0.00000 0.01620 0.00000
0.01478 0.01471 0.00127
0.03214 0.01841 0.00050
0.05735 0.01704 0.00048
0.09243 0.01978 0.00268
0.13933 0.02640 0.00484
0.19697 0.03469 0.00691
0.25872 0.04543 0.01070
0.32293 0.05697 0.01499
0.38770 0.06997 0.02118
0.45264 0.08525 0.02841
0.52022 0.10028 0.03580
0.58507 0.11599 0.04427
0.64609 0.13189 0.05060
0.70463 0.14713 0.05618
0.75837 0.16109 0.06301
0.80752 0.17556 0.06963
0.85283 0.19050 0.06734
0.89412 0.20314 0.06834
0.93112 0.21389 0.07270
0.96475 0.22323 0.07767
0.99542 0.23117 0.08284
1.00000 0.23751 0.08051
1.00000 0.24193 0.07357
1.00000 0.24464 0.05518
1.00000 0.24679 0.00221
1.00000 0.24914 0.00000
1.00000 0.25225 0.00000
1.00000 0.25666 0.00000
1.00000 0.26242 0.00000
1.00000 0.27084 0.00000
1.00000 0.28671 0.00000
0.00000 0.03201 0.00000
0.00888 0.02806 0.00308
0.02766 0.03032 0.00217
0.05284 0.03168 0.00198
0.08700 0.03328 0.00210
0.13470 0.03857 0.00348
0.19271 0.04551 0.00666
0.25466 0.05583 0.01099
0.31929 0.06711 0.01421
0.38483 0.07945 0.01887
0.45029 0.09406 0.02470
0.51847 0.10906 0.03001
0.58390 0.12449 0.03677
0.64523 0.13982 0.04229
0.70415 0.15466 0.04703
0.75805 0.16852 0.05297
0.80727 0.18294 0.05881
0.85270 0.19764 0.05502
0.89411 0.21009 0.05512
0.93119 0.22076 0.05925
0.96487 0.23002 0.06417
0.99559 0.23790 0.06952
1.00000 0.24414 0.06653
1.00000 0.24852 0.05824
1.00000 0.25125 0.03578
1.00000 0.25339 0.00000
1.00000 0.25567 0.00000
1.00000 0.25869 0.00000
1.00000 0.26303 0.00000
1.00000 0.26867 0.00000
1.00000 0.27689 0.00000
1.00000 0.29258 0.00000
0.00000 0.05353 0.00150
0.00000 0.04666 0.00387
0.01803 0.04808 0.00391
0.04552 0.05026 0.00463
0.08064 0.05316 0.00471
0.12685 0.05740 0.00531
0.18742 0.06067 0.00543
0.25082 0.06952 0.00932
0.31582 0.07890 0.01369
0.38147 0.08966 0.02049
0.44686 0.10363 0.02638
0.51560 0.11882 0.02970
0.58185 0.13415 0.03428
0.64363 0.14909 0.03777
0.70312 0.16382 0.04015
0.75730 0.17789 0.04350
0.80667 0.19246 0.04708
0.85230 0.20703 0.04023
0.89395 0.21939 0.03793
0.93116 0.23005 0.04081
0.96491 0.23929 0.04495
0.99575 0.24716 0.05011
1.00000 0.25330 0.04533
1.00000 0.25767 0.03369
1.00000 0.26045 0.00870
1.00000 0.26261 0.00000
1.00000 0.26479 0.00000
1.00000 0.26771 0.00000
1.00000 0.27194 0.00000
1.00000 0.27743 0.00000
1.00000 0.28540 0.00000
1.00000 0.30084 0.00000
0.00000 0.08194 0.00218
0.00000 0.07143 0.00625
0.00515 0.07092 0.00704
0.03071 0.07374 0.00684
0.07020 0.07686 0.00764
0.11731 0.08230 0.00828
0.17640 0.08684 0.00931
0.24295 0.09234 0.01098
0.31035 0.09853 0.01357
0.37831 0.10434 0.01980
0.44390 0.11594 0.02684
0.51269 0.13043 0.03230
0.57935 0.14498 0.03887
0.64133 0.15916 0.04265
0.70145 0.17394 0.04205
0.75601 0.18841 0.04118
0.80558 0.20321 0.04061
0.85149 0.21793 0.02971
0.89349 0.23044 0.02359
0.93092 0.24130 0.02255
0.96479 0.25069 0.02309
0.99581 0.25869 0.02556
1.00000 0.26480 0.01806
1.00000 0.26924 0.00455
1.00000 0.27217 0.00000
1.00000 0.27440 0.00000
1.00000 0.27649 0.00000
1.00000 0.27929 0.00000
1.00000 0.28344 0.00000
1.00000 0.28874 0.00000
1.00000 0.29640 0.00000
1.00000 0.31152 0.00000
0.00000 0.11951 0.00270
0.00000 0.10958 0.00683
0.00000 0.10512 0.00831
0.01183 0.10669 0.00859
0.05152 0.10902 0.01001
0.10428 0.11101 0.01108
0.16211 0.11866 0.01273
0.23123 0.12367 0.01610
0.30021 0.12905 0.01914
0.37078 0.13047 0.02373
0.43895 0.13825 0.02748
0.50970 0.14800 0.03163
0.57737 0.15940 0.04121
0.63939 0.17143 0.05032
0.69966 0.18587 0.05029
0.75433 0.20042 0.04853
0.80401 0.21496 0.04588
0.85022 0.22985 0.03168
0.89267 0.24258 0.02082
0.93038 0.25378 0.01442
0.96440 0.26347 0.00945
0.99566 0.27180 0.00677
1.00000 0.27806 0.00000
1.00000 0.28275 0.00000
1.00000 0.28597 0.00000
1.00000 0.28840 0.00000
1.00000 0.29046 0.00000
1.00000 0.29318 0.00000
1.00000 0.29727 0.00000
1.00000 0.30242 0.00000
1.00000 0.30975 0.00000
1.00000 0.32449 0.00000
0.00000 0.16452 0.00402
0.00000 0.15538 0.00778
0.00000 0.14868 0.01123
0.00000 0.14700 0.01258
0.02302 0.14933 0.01361
0.07997 0.15297 0.01522
0.14473 0.15590 0.01774
0.21543 0.16270 0.02004
0.28727 0.16811 0.02591
0.35945 0.16958 0.03204
0.43061 0.17470 0.03292
0.50331 0.17890 0.03897
0.57361 0.18433 0.04777
0.63726 0.19033 0.05594
0.69813 0.20270 0.05419
0.75290 0.21596 0.05481
0.80246 0.22891 0.05588
0.84873 0.24348 0.04451
0.89155 0.25621 0.03218
0.92952 0.26753 0.02153
0.96369 0.27738 0.01061
0.99524 0.28602 0.00139
1.00000 0.29250 0.00000
1.00000 0.29754 0.00000
1.00000 0.30123 0.00000
1.00000 0.30402 0.00000
1.00000 0.30617 0.00000
1.00000 0.30890 0.00000
1.00000 0.31305 0.00000
1.00000 0.31811 0.00000
1.00000 0.32513 0.00000
1.00000 0.33943 0.00000
0.00000 0.21605 0.00537
0.00000 0.20842 0.00782
0.00000 0.20138 0.01108
0.00000 0.19663 0.01291
0.00000 0.19822 0.01474
0.03411 0.20142 0.01578
0.11259 0.20419 0.01815
0.18962 0.20826 0.02231
0.27021 0.21456 0.02801
0.34507 0.21918 0.04086
0.41897 0.22092 0.04199
0.49300 0.22269 0.05201
0.56578 0.22474 0.06084
0.63160 0.22554 0.06725
0.69490 0.23154 0.06220
0.75103 0.23916 0.05899
0.80088 0.24816 0.06122
0.84734 0.26097 0.05425
0.89048 0.27272 0.04660
0.92859 0.28338 0.03795
0.96274 0.29297 0.02562
0.99453 0.30170 0.01203
1.00000 0.30825 0.00000
1.00000 0.31354 0.00000
1.00000 0.31767 0.00000
1.00000 0.32083 0.00000
1.00000 0.32313 0.00000
1.00000 0.32593 0.00000
1.00000 0.33023 0.00000
1.00000 0.33533 0.00000
1.00000 0.34210 0.00000
1.00000 0.35593 0.00000
0.00000 0.27173 0.00918
0.00000 0.26580 0.01004
0.00000 0.25970 0.01198
0.00000 0.25372 0.01372
0.00000 0.25173 0.01498
0.00000 0.25508 0.01682
0.05995 0.25693 0.01910
0.15538 0.26014 0.02404
0.24207 0.26358 0.03021
0.32722 0.26999 0.04429
0.40376 0.27399 0.05249
0.47726 0.27461 0.06327
0.55411 0.27679 0.07470
0.62185 0.27473 0.07757
0.68772 0.27564 0.07599
0.74674 0.27725 0.07495
0.79782 0.27918 0.07484
0.84531 0.28604 0.06363
0.88919 0.29469 0.05429
0.92760 0.30350 0.04945
0.96172 0.31174 0.04154
0.99366 0.31968 0.02887
1.00000 0.32590 0.00987
1.00000 0.33123 0.00000
1.00000 0.33568 0.00000
1.00000 0.33907 0.00000
1.00000 0.34139 0.00000
1.00000 0.34411 0.00000
1.00000 0.34854 0.00000
1.00000 0.35370 0.00000
1.00000 0.36028 0.00000
1.00000 0.37354 0.00000
0.00000 0.32891 0.01809
0.00000 0.32448 0.01809
0.00000 0.31966 0.01933
0.00000 0.31394 0.02135
0.00000 0.30967 0.02245
0.00000 0.30976 0.02387
0.00000 0.31331 0.02558
0.10370 0.31470 0.02983
0.20600 0.31777 0.03677
0.29684 0.32045 0.04799
0.38261 0.32632 0.05799
0.45912 0.33067 0.06949
0.53593 0.33170 0.08062
0.60774 0.32993 0.08607
0.67624 0.32937 0.09033
0.73939 0.32769 0.09461
0.79209 0.32521 0.09754
0.84080 0.32579 0.08550
0.88632 0.32772 0.07215
0.92584 0.33115 0.06141
0.96028 0.33593 0.05131
0.99247 0.34201 0.03987
1.00000 0.34705 0.02531
1.00000 0.35158 0.00243
1.00000 0.35583 0.00000
1.00000 0.35921 0.00000
1.00000 0.36143 0.00000
1.00000 0.36388 0.00000
1.00000 0.36829 0.00000
1.00000 0.37338 0.00000
1.00000 0.37965 0.00000
1.00000 0.39212 0.00000
0.00000 0.38571 0.03121
0.00000 0.38250 0.03041
0.00000 0.37891 0.03089
0.00000 0.37424 0.03284
0.00000 0.36967 0.03504
0.00000 0.36619 0.03679
0.00000 0.36940 0.03800
0.00000 0.37143 0.04080
0.15357 0.37312 0.04641
0.25833 0.37532 0.05367
0.34991 0.37729 0.06225
0.43582 0.38356 0.07508
0.51819 0.38848 0.08510
0.58938 0.38711 0.09481
0.66040 0.38545 0.10159
0.72791 0.38527 0.11153
0.78448 0.38129 0.11790
0.83339 0.37767 0.10584
0.88004 0.37453 0.09928
0.92140 0.37220 0.09028
0.95720 0.37071 0.07536
0.99027 0.37172 0.05538
1.00000 0.37357 0.03549
1.00000 0.37642 0.01448
1.00000 0.37980 0.00000
1.00000 0.38234 0.00000
1.00000 0.38380 0.00000
1.00000 0.38562 0.00000
1.00000 0.38989 0.00000
1.00000 0.39481 0.00000
1.00000 0.40070 0.00000
1.00000 0.41201 0.00000
0.00000 0.44097 0.04774
0.00000 0.43858 0.04609
0.00000 0.43590 0.04532
0.00000 0.43225 0.04554
0.00000 0.42816 0.04641
0.00000 0.42479 0.04711
0.00000 0.42312 0.04834
0.00000 0.42544 0.05018
0.05437 0.42785 0.05381
0.20698 0.43022 0.06055
0.31085 0.43247 0.06858
0.40136 0.43339 0.08017
0.49261 0.44272 0.09034
0.57031 0.44224 0.10227
0.64128 0.44227 0.11041
0.71032 0.44398 0.12265
0.77168 0.44115 0.12888
0.82331 0.43573 0.12255
0.87063 0.43058 0.12393
0.91288 0.42384 0.12015
0.95046 0.41842 0.11093
0.98541 0.41415 0.09142
1.00000 0.41042 0.06518
1.00000 0.40863 0.03482
1.00000 0.40906 0.00000
1.00000 0.40988 0.00000
1.00000 0.41006 0.00000
1.00000 0.41050 0.00000
1.00000 0.41392 0.00000
1.00000 0.41827 0.00000
1.00000 0.42370 0.00000
1.00000 0.43362 0.00000
0.00000 0.49482 0.06492
0.00000 0.49295 0.06310
0.00000 0.49080 0.06184
0.00000 0.48774 0.06118
0.00000 0.48396 0.06136
0.00000 0.48029 0.06167
0.00000 0.47806 0.06260
0.00000 0.47806 0.06363
0.00000 0.48060 0.06642
0.12704 0.48228 0.07106
0.26005 0.48427 0.07821
0.36257 0.48632 0.08713
0.45476 0.48982 0.09678
0.54408 0.49606 0.10662
0.62016 0.49653 0.11769
0.69091 0.49977 0.12733
0.75373 0.49782 0.13549
0.80949 0.49248 0.13470
0.85860 0.48932 0.14229
0.90193 0.48245 0.14491
0.94019 0.47338 0.14065
0.97690 0.46613 0.12667
1.00000 0.45938 0.10540
1.00000 0.45284 0.08115
1.00000 0.44825 0.03716
1.00000 0.44462 0.00000
1.00000 0.44134 0.00000
1.00000 0.43949 0.00000
1.00000 0.44163 0.00000
1.00000 0.44486 0.00000
1.00000 0.44928 0.00000
1.00000 0.45731 0.00000
0.00000 0.54773 0.08114
0.00000 0.54639 0.07921
0.00000 0.54481 0.07761
0.00000 0.54248 0.07625
0.00000 0.53943 0.07558
0.00000 0.53607 0.07545
0.00000 0.53345 0.07580
0.00000 0.53288 0.07666
0.00000 0.53393 0.07778
0.00000 0.53637 0.08099
0.18816 0.53798 0.08645
0.31413 0.53962 0.09403
0.41657 0.54121 0.10242
0.50818 0.54524 0.11240
0.59425 0.54852 0.12149
0.66924 0.55047 0.13262
0.73233 0.55045 0.14147
0.78974 0.54791 0.14455
0.84390 0.54401 0.15420
0.88813 0.53981 0.16042
0.92854 0.53187 0.15953
0.96577 0.52315 0.15257
1.00000 0.51401 0.13728
1.00000 0.50554 0.12296
1.00000 0.49847 0.09618
1.00000 0.49056 0.04999
1.00000 0.48207 0.00000
1.00000 0.47526 0.00000
1.00000 0.47390 0.00000
1.00000 0.47499 0.00000
1.00000 0.47819 0.00000
1.00000 0.48407 0.00000
0.00000 0.59909 0.09655
0.00000 0.59827 0.09454
0.00000 0.59726 0.09267
0.00000 0.59574 0.09069
0.00000 0.59360 0.08903
0.00000 0.59094 0.08786
0.00000 0.58835 0.08728
0.00000 0.58708 0.08768
0.00000 0.58731 0.08823
0.00000 0.58894 0.09025
0.05073 0.59085 0.09363
0.24900 0.59215 0.10010
0.37019 0.59242 0.10827
0.46980 0.59402 0.11684
0.55839 0.59600 0.12601
0.63978 0.59877 0.13538
0.71176 0.59998 0.14493
0.76935 0.59759 0.15192
0.82187 0.59625 0.15974
0.87066 0.59297 0.16627
0.91287 0.58691 0.16827
0.95223 0.57999 0.16769
0.98767 0.57128 0.16064
1.00000 0.56170 0.15498
1.00000 0.55283 0.13812
1.00000 0.54419 0.11219
1.00000 0.53323 0.07135
1.00000 0.52146 0.00438
1.00000 0.51471 0.00000
1.00000 0.51119 0.00000
1.00000 0.51103 0.00000
1.00000 0.51390 0.00000
0.00000 0.64791 0.11141
0.00000 0.64754 0.10943
0.00000 0.64706 0.10748
0.00000 0.64629 0.10523
0.00000 0.64512 0.10306
0.00000 0.64347 0.10128
0.00000 0.64150 0.10014
0.00000 0.64003 0.10005
0.00000 0.63978 0.10003
0.00000 0.63938 0.10108
0.00000 0.64058 0.10500
0.15372 0.64138 0.10712
0.30988 0.64157 0.11391
0.42512 0.64093 0.12283
0.51986 0.64184 0.13033
0.60362 0.64264 0.13996
0.68230 0.64549 0.14765
0.74888 0.64528 0.15624
0.80198 0.64279 0.16362
0.84994 0.64177 0.17024
0.89433 0.63760 0.17456
0.93602 0.63190 0.17703
0.97347 0.62589 0.17603
1.00000 0.61748 0.17648
1.00000 0.60853 0.16880
1.00000 0.59930 0.15350
1.00000 0.58805 0.12828
1.00000 0.57541 0.09936
1.00000 0.56497 0.05027
1.00000 0.55641 0.00000
1.00000 0.55127 0.00000
1.00000 0.54909 0.00000
0.00000 0.69327 0.12551
0.00000 0.69324 0.12358
0.00000 0.69316 0.12160
0.00000 0.69298 0.11918
0.00000 0.69259 0.11661
0.00000 0.69188 0.11419
0.00000 0.69080 0.11215
0.00000 0.68963 0.11095
0.00000 0.68919 0.11078
0.00000 0.68806 0.11084
0.00000 0.68620 0.11228
0.00000 0.68654 0.11582
0.22923 0.68649 0.11929
0.36924 0.68534 0.12626
0.47705 0.68500 0.13581
0.56713 0.68532 0.14244
0.64672 0.68543 0.15241
0.72100 0.68790 0.15905
0.78238 0.68704 0.16719
0.83216 0.68551 0.17441
0.87570 0.68298 0.17981
0.91745 0.67899 0.18395
0.95784 0.67388 0.18634
0.99379 0.66884 0.19038
1.00000 0.66054 0.18810
1.00000 0.65195 0.18085
1.00000 0.64212 0.16623
1.00000 0.63010 0.14911
1.00000 0.61878 0.12395
1.00000 0.60838 0.08856
1.00000 0.59941 0.02396
1.00000 0.59198 0.00000
0.00000 0.73475 0.13880
0.00000 0.73494 0.13692
0.00000 0.73512 0.13494
0.00000 0.73530 0.13241
0.00000 0.73541 0.12955
0.00000 0.73529 0.12661
0.00000 0.73478 0.12383
0.00000 0.73384 0.12160
0.00000 0.73294 0.12060
0.00000 0.73239 0.12055
0.00000 0.73028 0.12078
0.00000 0.72927 0.12258
0.08394 0.72863 0.12492
0.29743 0.72738 0.13105
0.42656 0.72568 0.13842
0.52675 0.72632 0.14823
0.61189 0.72566 0.15400
0.68754 0.72505 0.16481
0.75577 0.72674 0.16925
0.81377 0.72520 0.17797
0.85970 0.72359 0.18405
0.90121 0.71923 0.18858
0.93953 0.71713 0.19237
0.97841 0.71055 0.19908
1.00000 0.70621 0.19953
1.00000 0.69756 0.19784
1.00000 0.68944 0.18947
1.00000 0.68017 0.18048
1.00000 0.67031 0.16632
1.00000 0.66015 0.14494
1.00000 0.65026 0.11612
1.00000 0.64049 0.06964
0.00000 0.77249 0.15136
0.00000 0.77281 0.14955
0.00000 0.77314 0.14759
0.00000 0.77355 0.14500
0.00000 0.77396 0.14193
0.00000 0.77422 0.13856
0.00000 0.77413 0.13510
0.00000 0.77351 0.13186
0.00000 0.77250 0.12965
0.00000 0.77167 0.12905
0.00000 0.77032 0.12896
0.00000 0.76877 0.12943
0.00000 0.76876 0.13168
0.19898 0.76635 0.13422
0.36204 0.76411 0.14180
0.48071 0.76334 0.14989
0.57385 0.76462 0.15908
0.65407 0.76252 0.16447
0.72548 0.76142 0.17448
0.78723 0.76047 0.17848
0.84162 0.75952 0.18702
0.88498 0.75604 0.19203
0.92436 0.75282 0.19563
0.96052 0.74971 0.20115
0.99606 0.74350 0.20622
1.00000 0.73685 0.20651
1.00000 0.72931 0.20416
1.00000 0.72182 0.19884
1.00000 0.71347 0.19189
1.00000 0.70552 0.17935
1.00000 0.69818 0.16222
1.00000 0.68852 0.13453
0.00000 0.80683 0.16330
0.00000 0.80724 0.16157
0.00000 0.80768 0.15968
0.00000 0.80824 0.15711
0.00000 0.80885 0.15397
0.00000 0.80937 0.15037
0.00000 0.80959 0.14645
0.00000 0.80926 0.14243
0.00000 0.80830 0.13897
0.00000 0.80717 0.13722
0.00000 0.80595 0.13686
0.00000 0.80430 0.13683
0.00000 0.80379 0.13768
0.00000 0.80243 0.13969
0.28361 0.79909 0.14401
0.42266 0.79694 0.15213
0.53123 0.79667 0.16081
0.61796 0.79561 0.16855
0.69326 0.79302 0.17376
0.75888 0.79167 0.18235
0.81692 0.79092 0.18688
0.86657 0.78950 0.19419
0.90862 0.78631 0.19888
0.94568 0.78268 0.20357
0.97985 0.77973 0.20777
1.00000 0.77395 0.21240
1.00000 0.76541 0.21330
1.00000 0.75807 0.20992
1.00000 0.75046 0.20535
1.00000 0.74226 0.19994
1.00000 0.73626 0.18966
1.00000 0.73200 0.17500
0.00000 0.83805 0.17457
0.00000 0.83855 0.17293
0.00000 0.83909 0.17113
0.00000 0.83980 0.16864
0.00000 0.84063 0.16553
0.00000 0.84145 0.16187
0.00000 0.84206 0.15777
0.00000 0.84219 0.15338
0.00000 0.84163 0.14922
0.00000 0.84055 0.14656
0.00000 0.83943 0.14568
0.00000 0.83766 0.14513
0.00000 0.83606 0.14558
0.00000 0.83559 0.14687
0.16062 0.83260 0.14804
0.35558 0.82899 0.15403
0.47924 0.82682 0.16202
0.57877 0.82558 0.17093
0.66029 0.82236 0.17699
0.73011 0.82005 0.18261
0.79142 0.81989 0.19016
0.84452 0.81838 0.19439
0.89097 0.81676 0.20059
0.93035 0.81318 0.20591
0.96545 0.81034 0.21012
0.99854 0.80715 0.21432
1.00000 0.80179 0.21788
1.00000 0.79224 0.21870
1.00000 0.78410 0.21359
1.00000 0.77610 0.21262
1.00000 0.76879 0.20574
1.00000 0.76540 0.19884
0.00000 0.86616 0.18511
0.00000 0.86674 0.18358
0.00000 0.86737 0.18187
0.00000 0.86823 0.17949
0.00000 0.86928 0.17644
0.00000 0.87041 0.17278
0.00000 0.87147 0.16854
0.00000 0.87223 0.16379
0.00000 0.87243 0.15882
0.00000 0.87203 0.15463
0.00000 0.87151 0.15268
0.00000 0.87023 0.15151
0.00000 0.86783 0.15136
0.00000 0.86574 0.15165
0.00000 0.86404 0.15389
0.26461 0.86002 0.15488
0.41946 0.85629 0.16269
0.53220 0.85332 0.17059
0.62404 0.85095 0.17917
0.69980 0.84672 0.18486
0.76442 0.84572 0.19050
0.82042 0.84496 0.19769
0.86960 0.84230 0.20123
0.91319 0.84017 0.20700
0.95082 0.83723 0.21216
0.98540 0.83484 0.21668
1.00000 0.83142 0.21977
1.00000 0.82669 0.22130
1.00000 0.81725 0.22107
1.00000 0.80861 0.21832
1.00000 0.80045 0.21592
1.00000 0.79626 0.21216
0.00000 0.89101 0.19491
0.00000 0.89165 0.19349
0.00000 0.89237 0.19190
0.00000 0.89335 0.18966
0.00000 0.89458 0.18675
0.00000 0.89598 0.18319
0.00000 0.89742 0.17898
0.00000 0.89869 0.17412
0.00000 0.89955 0.16872
0.00000 0.89980 0.16338
0.00000 0.89961 0.15960
0.00000 0.89928 0.15790
0.00000 0.89759 0.15720
0.00000 0.89482 0.15763
0.00000 0.89171 0.15766
0.10966 0.88786 0.15930
0.34620 0.88334 0.16172
0.47829 0.87866 0.17062
0.58172 0.87596 0.17876
0.66594 0.87323 0.18712
0.73552 0.86951 0.19233
0.79481 0.86886 0.19824
0.84627 0.86703 0.20441
0.89277 0.86365 0.20737
0.93356 0.86118 0.21273
0.97069 0.85904 0.21790
1.00000 0.85665 0.22205
1.00000 0.85309 0.22415
1.00000 0.84945 0.22371
1.00000 0.84106 0.22441
1.00000 0.83156 0.22239
1.00000 0.82558 0.22153
0.00000 0.91246 0.20385
0.00000 0.91315 0.20255
0.00000 0.91392 0.20107
0.00000 0.91500 0.19899
0.00000 0.91638 0.19627
0.00000 0.91801 0.19289
0.00000 0.91978 0.18883
0.00000 0.92154 0.18406
0.00000 0.92305 0.17857
0.00000 0.92406 0.17266
0.00000 0.92449 0.16748
0.00000 0.92463 0.16456
0.00000 0.92442 0.16305
0.00000 0.92253 0.16278
0.00000 0.91890 0.16313
0.00000 0.91403 0.16391
0.24703 0.90850 0.16398
0.41676 0.90317 0.16855
0.53287 0.89853 0.17786
0.62783 0.89670 0.18617
0.70472 0.89380 0.19369
0.76822 0.89085 0.19899
0.82289 0.89014 0.20486
0.87135 0.88716 0.20998
0.91475 0.88321 0.21368
0.95357 0.88119 0.21848
0.99019 0.87920 0.22393
1.00000 0.87648 0.22668
1.00000 0.87389 0.22725
1.00000 0.87042 0.22678
1.00000 0.86295 0.22718
1.00000 0.85543 0.22649
0.00000 0.93031 0.21177
0.00000 0.93101 0.21058
0.00000 0.93181 0.20923
0.00000 0.93295 0.20731
0.00000 0.93441 0.20478
0.00000 0.93619 0.20161
0.00000 0.93820 0.19777
0.00000 0.94033 0.19318
0.00000 0.94239 0.18777
0.00000 0.94414 0.18159
0.00000 0.94540 0.17529
0.00000 0.94619 0.17040
0.00000 0.94673 0.16770
0.00000 0.94643 0.16672
0.00000 0.94391 0.16704
0.00000 0.93916 0.16751
0.01334 0.93252 0.16943
0.33851 0.92679 0.16898
0.47941 0.92163 0.17560
0.58361 0.91814 0.18484
0.67038 0.91664 0.19260
0.74029 0.91346 0.19957
0.79873 0.91071 0.20549
0.85009 0.90944 0.21140
0.89593 0.90566 0.21660
0.93668 0.90183 0.21966
0.97442 0.90078 0.22466
1.00000 0.89769 0.22923
1.00000 0.89552 0.23024
1.00000 0.89330 0.23089
1.00000 0.88961 0.22976
1.00000 0.88489 0.22970
0.00000 0.94443 0.21855
0.00000 0.94512 0.21746
0.00000 0.94590 0.21623
0.00000 0.94702 0.21446
0.00000 0.94849 0.21213
0.00000 0.95030 0.20918
0.00000 0.95242 0.20557
0.00000 0.95475 0.20123
0.00000 0.95715 0.19603
0.00000 0.95940 0.18992
0.00000 0.96120 0.18322
0.00000 0.96233 0.17712
0.00000 0.96286 0.17315
0.00000 0.96325 0.17108
0.00000 0.96304 0.17084
0.00000 0.96090 0.17183
0.00000 0.95527 0.17277
0.22979 0.94830 0.17407
0.41355 0.94391 0.17433
0.53552 0.93932 0.18279
0.63003 0.93688 0.19111
0.70886 0.93526 0.19822
0.77236 0.93137 0.20529
0.82724 0.92845 0.21196
0.87615 0.92684 0.21803
0.91957 0.92245 0.22180
0.95830 0.92066 0.22599
0.99009 0.91960 0.23053
1.00000 0.91545 0.23360
1.00000 0.91382 0.23309
1.00000 0.91243 0.23377
1.00000 0.90951 0.23251
0.00000 0.95496 0.22418
0.00000 0.95557 0.22318
0.00000 0.95628 0.22204
0.00000 0.95729 0.22041
0.00000 0.95863 0.21823
0.00000 0.96030 0.21547
0.00000 0.96229 0.21208
0.00000 0.96456 0.20797
0.00000 0.96703 0.20301
0.00000 0.96958 0.19708
0.00000 0.97204 0.19025
0.00000 0.97419 0.18328
0.00000 0.97587 0.17778
0.00000 0.97707 0.17461
0.00000 0.97757 0.17319
0.00000 0.97743 0.17355
0.00000 0.97482 0.17523
0.00000 0.96745 0.17786
0.33172 0.96209 0.17790
0.47858 0.95897 0.18008
0.58596 0.95500 0.18919
0.67263 0.95382 0.19677
0.74397 0.95195 0.20282
0.80290 0.94796 0.21110
0.85472 0.94579 0.21874
0.90072 0.94363 0.22376
0.94174 0.94060 0.22710
0.97662 0.93897 0.23204
1.00000 0.93736 0.23588
1.00000 0.93291 0.23605
1.00000 0.93314 0.23528
1.00000 0.93185 0.23628
0.00000 0.96256 0.22885
0.00000 0.96305 0.22791
0.00000 0.96362 0.22684
0.00000 0.96443 0.22530
0.00000 0.96550 0.22324
0.00000 0.96684 0.22062
0.00000 0.96844 0.21739
0.00000 0.97026 0.21345
0.00000 0.97226 0.20868
0.00000 0.97433 0.20293
0.00000 0.97633 0.19617
0.00000 0.97806 0.18881
0.00000 0.97932 0.18221
0.00000 0.98004 0.17802
0.00000 0.98056 0.17549
0.00000 0.98103 0.17465
0.00000 0.98084 0.17563
0.00000 0.97802 0.17851
0.21419 0.97408 0.18321
0.41222 0.97301 0.18229
0.53738 0.97176 0.18624
0.63287 0.96981 0.19513
0.71257 0.96924 0.20151
0.77809 0.96782 0.20742
0.83247 0.96453 0.21714
0.88027 0.96232 0.22471
0.92346 0.96078 0.22908
0.96130 0.95765 0.23144
0.99022 0.95581 0.23784
1.00000 0.95326 0.24097
1.00000 0.94845 0.23917
1.00000 0.94740 0.23753
0.00000 0.96838 0.23299
0.00000 0.96873 0.23210
0.00000 0.96913 0.23108
0.00000 0.96970 0.22960
