cube lut/provia_sRGB.cube
# sRGB
# github.com/abpy/FujifilmCameraProfiles
LUT_3D_SIZE 5
DOMAIN_MIN 0.000000 0.000000 0.000000
DOMAIN_MAX 0.903226 0.903226 0.903226
0.00000 0.00000 0.00000
0.24125 0.01208 0.00444
0.69019 0.02795 0.00000
1.00000 0.10386 0.00000
1.00000 0.16170 0.00000
0.00000 0.19824 0.00000
0.19138 0.21341 0.00000
0.68605 0.21489 0.00000
1.00000 0.22297 0.00000
1.00000 0.26406 0.00000
0.00000 0.59185 0.00000
0.00000 0.59711 0.00000
0.55730 0.60096 0.00000
0.95097 0.59264 0.00000
1.00000 0.55988 0.00000
0.00000 0.87594 0.00000
0.00000 0.87424 0.00000
0.14863 0.86473 0.00000
0.81257 0.85255 0.00000
1.00000 0.84930 0.00000
0.00000 1.00000 0.00000
0.00000 1.00000 0.00000
0.00000 0.99802 0.00000
0.66886 0.99459 0.00000
0.97301 0.98963 0.04396
0.02370 0.01294 0.26301
0.28782 0.03212 0.27659
0.70977 0.06431 0.31040
1.00000 0.09941 0.34312
1.00000 0.12348 0.31776
0.00000 0.23569 0.23039
0.24788 0.24882 0.24800
0.69059 0.27182 0.28720
1.00000 0.27758 0.31711
1.00000 0.28073 0.33051
0.00000 0.60367 0.15552
0.00000 0.60388 0.16884
0.57680 0.60277 0.19795
0.93764 0.60688 0.24147
1.00000 0.58791 0.24984
0.00000 0.86962 0.04350
0.00000 0.86653 0.05949
0.28513 0.85926 0.15404
0.81508 0.85068 0.16258
1.00000 0.85366 0.23498
0.00000 0.99992 0.00000
0.00000 0.99949 0.00000
0.00000 0.99776 0.11012
0.68807 0.99405 0.22450
0.97219 0.99246 0.28945
0.10148 0.02794 0.73684
0.35479 0.04334 0.75184
0.75872 0.13166 0.75939
1.00000 0.20318 0.74740
1.00000 0.27501 0.74068
0.10296 0.32093 0.68605
0.36589 0.33231 0.68872
0.72182 0.34914 0.69322
1.00000 0.37700 0.70593
1.00000 0.43146 0.72427
0.00000 0.62277 0.61597
0.00000 0.62231 0.61702
0.62076 0.62090 0.62019
0.93542 0.62744 0.63588
1.00000 0.64259 0.66470
0.00000 0.86375 0.55796
0.00000 0.85954 0.55888
0.42029 0.85123 0.56339
0.83030 0.84958 0.58292
1.00000 0.85527 0.62459
0.00000 0.99946 0.54801
0.00000 0.99956 0.54986
0.00000 0.99538 0.55836
0.73411 0.99230 0.58461
0.97534 0.98706 0.61681
0.22024 0.07409 1.00000
0.42624 0.08158 1.00000
0.78378 0.13890 1.00000
1.00000 0.26937 1.00000
1.00000 0.37461 0.98055
0.24580 0.34505 1.00000
0.45807 0.36088 1.00000
0.77257 0.39940 0.99796
1.00000 0.46119 0.97681
1.00000 0.51360 0.95507
0.00000 0.65786 0.92935
0.35415 0.65918 0.92616
0.69340 0.66702 0.92070
0.94057 0.67631 0.91629
1.00000 0.69680 0.91838
0.00000 0.86584 0.86174
0.00000 0.86253 0.86066
0.54773 0.86041 0.85812
0.86151 0.86175 0.86195
1.00000 0.86791 0.87082
0.00000 0.99864 0.82489
0.00000 0.99651 0.82442
0.36904 0.99235 0.82388
0.77683 0.98759 0.83327
0.97797 0.98673 0.84091
0.35447 0.15136 1.00000
0.50941 0.15333 1.00000
0.80884 0.19615 1.00000
1.00000 0.26953 1.00000
1.00000 0.43657 1.00000
0.37172 0.36735 1.00000
0.53188 0.37643 1.00000
0.80942 0.40223 1.00000
1.00000 0.46357 1.00000
1.00000 0.58272 1.00000
0.44093 0.71069 1.00000
0.55706 0.71639 1.00000
0.77675 0.73206 1.00000
0.96001 0.74898 1.00000
1.00000 0.76155 1.00000
0.23579 0.87973 1.00000
0.41702 0.87904 1.00000
0.68245 0.88003 1.00000
0.89405 0.88340 1.00000
1.00000 0.88388 1.00000
0.00000 0.99545 0.98881
0.00000 0.99470 0.98689
0.55145 0.99007 0.98124
0.80740 0.98405 0.98163
0.97905 0.97902 0.97900
