cube lut/provia_sRGB.cube
# sRGB
# github.com/abpy/FujifilmCameraProfiles
LUT_3D_SIZE 8
DOMAIN_MIN 0.000000 0.000000 0.000000
DOMAIN_MAX 0.903226 0.903226 0.903226
0.00000 0.00000 0.00000
0.08984 0.00653 0.00247
0.30206 0.01442 0.00490
0.56329 0.01768 0.00000
0.80606 0.04066 0.00000
0.98800 0.09330 0.00000
1.00000 0.12805 0.00000
1.00000 0.16170 0.00000
0.00000 0.07058 0.00585
0.07133 0.07948 0.00616
0.29714 0.08718 0.00693
0.56482 0.08744 0.00000
0.80737 0.10569 0.00000
0.98876 0.14384 0.00000
1.00000 0.17419 0.00000
1.00000 0.20373 0.00000
0.00000 0.25369 0.00000
0.00000 0.25905 0.00000
0.24425 0.26904 0.00000
0.54247 0.27939 0.00000
0.80200 0.26827 0.00000
0.99010 0.25498 0.00000
1.00000 0.26748 0.00000
1.00000 0.29015 0.00000
0.00000 0.48202 0.00000
0.00000 0.48334 0.00000
0.00000 0.48849 0.00000
0.45541 0.49540 0.00000
0.74840 0.50206 0.00000
0.94661 0.49164 0.00000
1.00000 0.46643 0.00000
1.00000 0.44702 0.00000
0.00000 0.69265 0.00000
0.00000 0.69360 0.00000
0.00000 0.69394 0.00000
0.25540 0.69020 0.00000
0.64652 0.68737 0.00000
0.87124 0.68731 0.00000
1.00000 0.67662 0.00000
1.00000 0.66139 0.00000
0.00000 0.84555 0.00000
0.00000 0.84533 0.00000
0.00000 0.84302 0.00000
0.00000 0.83779 0.00000
0.51068 0.83109 0.00000
0.78437 0.82569 0.00000
0.95587 0.82196 0.00000
1.00000 0.82079 0.00000
0.00000 0.95436 0.00000
0.00000 0.95476 0.00000
0.00000 0.95185 0.00000
0.00000 0.94380 0.00000
0.30891 0.94037 0.00000
0.69253 0.92785 0.00000
0.88929 0.91993 0.00000
1.00000 0.92576 0.00000
0.00000 1.00000 0.00000
0.00000 1.00000 0.00000
0.00000 1.00000 0.00000
0.00000 0.99885 0.00000
0.00000 0.99815 0.00000
0.59366 0.99599 0.00000
0.82722 0.99220 0.00000
0.97301 0.98963 0.04396
0.00880 0.00622 0.10109
0.10621 0.02004 0.10312
0.31385 0.02545 0.11710
0.56904 0.03053 0.14531
0.81149 0.03153 0.15523
0.99152 0.06796 0.15632
1.00000 0.10550 0.16408
1.00000 0.14314 0.12641
0.00000 0.08749 0.08506
0.09400 0.09437 0.09395
0.30924 0.10578 0.11016
0.56776 0.11741 0.13375
0.80969 0.12401 0.15331
0.99092 0.13434 0.16201
1.00000 0.15985 0.16638
1.00000 0.18953 0.13216
0.00000 0.26631 0.04789
0.00000 0.27085 0.05668
0.26466 0.28144 0.07127
0.54512 0.29864 0.09659
0.79767 0.29733 0.10987
0.98391 0.27941 0.11584
1.00000 0.27186 0.15129
1.00000 0.28981 0.15536
0.00000 0.48965 0.00000
0.00000 0.49234 0.00000
0.00000 0.49460 0.00000
0.46705 0.50174 0.00000
0.74695 0.50749 0.01819
0.93864 0.50153 0.03706
1.00000 0.47994 0.07361
1.00000 0.46107 0.10156
0.00000 0.69334 0.00000
0.00000 0.69334 0.00000
0.00000 0.69401 0.00000
0.29022 0.68933 0.00000
0.65147 0.68647 0.00000
0.86838 0.68881 0.00000
1.00000 0.68013 0.00000
1.00000 0.66736 0.00738
0.00000 0.84389 0.00000
0.00000 0.84345 0.00000
0.00000 0.84061 0.00000
0.00000 0.83581 0.00000
0.52250 0.82976 0.00000
0.78497 0.82479 0.00000
0.95266 0.82402 0.00000
1.00000 0.82334 0.07462
0.00000 0.95209 0.00000
0.00000 0.95216 0.00000
0.00000 0.94727 0.00000
0.00000 0.94111 0.00000
0.33807 0.93962 0.00000
0.69755 0.92772 0.00000
0.88850 0.92156 0.00000
1.00000 0.92942 0.01906
0.00000 1.00000 0.00000
0.00000 1.00000 0.00000
0.00000 0.99991 0.00000
0.00000 0.99841 0.00000
0.00000 0.99814 0.00000
0.60288 0.99578 0.00000
0.82956 0.99271 0.11530
0.97247 0.99108 0.16665
0.03095 0.01446 0.32934
0.13619 0.02064 0.33384
0.35626 0.04271 0.34641
0.59902 0.06684 0.36154
0.82397 0.08913 0.38156
0.99131 0.12734 0.40737
1.00000 0.12868 0.41005
1.00000 0.13280 0.38403
0.02776 0.12304 0.30533
0.14449 0.13245 0.31186
0.34399 0.14615 0.32606
0.58740 0.16409 0.35350
0.81213 0.19034 0.38117
0.98488 0.20893 0.40261
1.00000 0.20631 0.41255
1.00000 0.20590 0.39292
0.00000 0.29533 0.29069
0.00000 0.29825 0.29544
0.30700 0.30834 0.30750
0.56515 0.31794 0.32269
0.79723 0.33022 0.34840
0.97007 0.33997 0.37046
1.00000 0.33240 0.38305
1.00000 0.33558 0.38378
0.00000 0.50654 0.25271
0.00000 0.50740 0.25635
0.09321 0.50869 0.26164
0.49309 0.51179 0.27572
0.74605 0.51880 0.29787
0.92792 0.52055 0.32142
1.00000 0.51844 0.34193
1.00000 0.50602 0.33845
0.00000 0.69474 0.20416
0.00000 0.69438 0.20836
0.00000 0.69285 0.21906
0.34734 0.68922 0.23202
0.66147 0.68757 0.25521
0.86609 0.69166 0.27527
1.00000 0.68915 0.30123
1.00000 0.68069 0.30369
0.00000 0.83889 0.16998
0.00000 0.83786 0.17384
0.00000 0.83493 0.18556
0.00000 0.83085 0.21234
0.55116 0.82537 0.22423
0.78995 0.82250 0.23825
0.94719 0.82573 0.28180
1.00000 0.82497 0.31998
0.00000 0.94487 0.14639
0.00000 0.94343 0.14611
0.00000 0.93949 0.16500
0.00000 0.93558 0.17706
0.40328 0.93440 0.23513
0.71289 0.92479 0.25700
0.88881 0.92414 0.25870
1.00000 0.93145 0.31662
0.00000 0.99967 0.14998
0.00000 0.99962 0.13594
0.00000 0.99879 0.15214
0.00000 0.99782 0.19114
0.19093 0.99722 0.22803
0.62838 0.99424 0.24950
0.83617 0.99331 0.31405
0.97236 0.99263 0.33575
0.07059 0.02007 0.60289
0.17641 0.02277 0.60937
0.39476 0.04471 0.62522
0.64045 0.09484 0.63535
0.84446 0.13628 0.63375
0.99566 0.17424 0.63598
1.00000 0.20629 0.64554
1.00000 0.25797 0.64789
0.08403 0.14819 0.58596
0.20888 0.16222 0.59223
0.40269 0.18616 0.59749
0.62211 0.21395 0.60017
0.82614 0.23692 0.61112
0.98203 0.26464 0.62327
1.00000 0.28988 0.64122
1.00000 0.32562 0.64628
0.00000 0.33340 0.55519
0.12947 0.33772 0.55772
0.36621 0.34694 0.56302
0.59474 0.35327 0.56885
0.80577 0.36237 0.58018
0.96490 0.38070 0.59414
1.00000 0.40674 0.61550
1.00000 0.43053 0.62560
0.00000 0.52573 0.51833
0.00000 0.52687 0.51933
0.21434 0.52675 0.52131
0.52671 0.52685 0.52669
0.75774 0.53021 0.53415
0.92698 0.53579 0.55084
1.00000 0.54555 0.57112
1.00000 0.55622 0.58494
0.00000 0.69837 0.47677
0.00000 0.69810 0.47770
0.00000 0.69738 0.47909
0.39733 0.69531 0.48110
0.67837 0.69324 0.49351
0.86847 0.69550 0.50732
1.00000 0.69775 0.53104
1.00000 0.70054 0.55571
0.00000 0.83616 0.44782
0.00000 0.83463 0.44859
0.00000 0.83106 0.45193
0.15206 0.82620 0.45967
0.58586 0.82253 0.46673
0.79982 0.82097 0.48083
0.94520 0.82676 0.50762
1.00000 0.82749 0.52982
0.00000 0.93779 0.43744
0.00000 0.93644 0.43948
0.00000 0.93304 0.44381
0.00000 0.92968 0.44757
0.47139 0.92539 0.46418
0.73406 0.92152 0.47780
0.89475 0.92534 0.49124
1.00000 0.92748 0.53149
0.00000 0.99876 0.44187
0.00000 0.99879 0.44292
0.00000 0.99894 0.44602
0.00000 0.99861 0.45181
0.34865 0.99399 0.46698
0.66626 0.99271 0.47770
0.84847 0.99196 0.52056
0.97457 0.98965 0.52880
0.13190 0.03696 0.85745
0.23038 0.03781 0.86598
0.43120 0.06103 0.87173
0.66142 0.09694 0.87537
0.85925 0.16977 0.86444
1.00000 0.21501 0.85053
1.00000 0.24936 0.84414
1.00000 0.28970 0.82794
0.14662 0.16125 0.83927
0.25508 0.16948 0.84681
0.44458 0.18418 0.84879
0.65889 0.21926 0.84710
0.84340 0.27639 0.83034
0.98801 0.30677 0.82341
1.00000 0.33004 0.82538
1.00000 0.36350 0.81923
0.14830 0.38691 0.78353
0.25836 0.39054 0.78295
0.43825 0.39843 0.78480
0.63006 0.40987 0.78122
0.81648 0.41391 0.78560
0.96140 0.43381 0.78394
1.00000 0.44894 0.79398
1.00000 0.48146 0.79652
0.00000 0.54637 0.74765
0.00000 0.54730 0.74740
0.32975 0.54891 0.74698
0.57073 0.55281 0.74534
0.77209 0.55674 0.74533
0.92628 0.56503 0.75068
1.00000 0.57331 0.75785
1.00000 0.59294 0.76341
0.00000 0.70755 0.70113
0.00000 0.70652 0.70041
0.00000 0.70515 0.70056
0.46426 0.70364 0.70173
0.70366 0.70398 0.70333
0.87516 0.70497 0.70879
1.00000 0.71102 0.71696
1.00000 0.71823 0.73007
0.00000 0.83733 0.66755
0.00000 0.83590 0.66721
0.00000 0.83249 0.66636
0.29918 0.82798 0.66546
0.62053 0.82446 0.66877
0.81353 0.82450 0.67594
0.95234 0.82987 0.69120
1.00000 0.83239 0.70805
0.00000 0.93617 0.64393
0.00000 0.93504 0.64409
0.00000 0.93203 0.64444
0.00000 0.92740 0.64665
0.52766 0.92258 0.65459
0.75417 0.92383 0.66133
0.90589 0.92471 0.67759
1.00000 0.92470 0.69946
0.00000 0.99957 0.63914
0.00000 0.99939 0.63974
0.00000 0.99890 0.64090
0.00000 0.99607 0.64496
0.44001 0.99197 0.65326
0.69935 0.99205 0.66420
0.86347 0.98815 0.68311
0.97623 0.98546 0.69352
0.20179 0.06431 1.00000
0.28736 0.06252 1.00000
0.46524 0.07948 1.00000
0.68034 0.11190 1.00000
0.87052 0.16620 1.00000
1.00000 0.24590 0.99870
1.00000 0.30677 0.98692
1.00000 0.35389 0.96092
0.21692 0.17772 1.00000
0.30676 0.18028 1.00000
0.48016 0.19206 1.00000
0.68577 0.22531 1.00000
0.86515 0.26261 0.99707
0.99756 0.33706 0.98103
1.00000 0.38558 0.96828
1.00000 0.41438 0.94895
0.23565 0.40380 0.96895
0.33020 0.41165 0.96789
0.49650 0.42292 0.96542
0.66943 0.43647 0.95990
0.83664 0.44946 0.95310
0.96548 0.47889 0.94292
1.00000 0.50429 0.93198
1.00000 0.52807 0.92462
0.13619 0.58314 0.91441
0.25766 0.58434 0.91428
0.43534 0.58843 0.91258
0.62430 0.59375 0.90664
0.79136 0.59789 0.90417
0.92969 0.60488 0.90541
1.00000 0.61581 0.90144
1.00000 0.63729 0.89988
0.00000 0.71867 0.87213
0.00000 0.71844 0.87106
0.28378 0.71780 0.86981
0.53857 0.71855 0.86938
0.73468 0.72247 0.86787
0.88376 0.72477 0.86658
1.00000 0.73322 0.86738
1.00000 0.74145 0.87538
0.00000 0.83928 0.83547
0.00000 0.83792 0.83531
0.00000 0.83565 0.83406
0.41672 0.83410 0.83143
0.66290 0.83302 0.83207
0.83418 0.83437 0.83462
0.96337 0.83878 0.84179
1.00000 0.84341 0.84741
0.00000 0.93646 0.80752
0.00000 0.93536 0.80686
0.00000 0.93252 0.80586
0.25962 0.92783 0.80667
0.58621 0.92721 0.80942
0.77553 0.92771 0.81130
0.91851 0.92609 0.81977
1.00000 0.92862 0.82976
0.00000 1.00000 0.79142
0.00000 0.99949 0.79112
0.00000 0.99701 0.79115
0.00000 0.99329 0.79220
0.51086 0.99160 0.79424
0.72826 0.98994 0.80189
0.87709 0.98481 0.80995
0.97811 0.98653 0.81581
0.27679 0.10578 1.00000
0.35040 0.10242 1.00000
0.50737 0.11434 1.00000
0.69869 0.14553 1.00000
0.87937 0.18452 1.00000
1.00000 0.25372 1.00000
1.00000 0.33535 1.00000
1.00000 0.42480 1.00000
0.29110 0.20331 1.00000
0.36776 0.20133 1.00000
0.52144 0.21129 1.00000
0.70538 0.23732 1.00000
0.87880 0.27481 1.00000
1.00000 0.33158 1.00000
1.00000 0.40598 1.00000
1.00000 0.48310 1.00000
0.30378 0.40950 1.00000
0.38191 0.41512 1.00000
0.53497 0.42721 1.00000
0.70121 0.43411 1.00000
0.85697 0.47287 1.00000
0.98050 0.48901 1.00000
1.00000 0.54047 1.00000
1.00000 0.57838 1.00000
0.34105 0.61712 1.00000
0.40339 0.61846 1.00000
0.53287 0.62752 1.00000
0.68239 0.63198 1.00000
0.81900 0.64255 1.00000
0.93865 0.65022 0.99465
1.00000 0.65792 0.99102
1.00000 0.68537 0.99449
0.17445 0.73803 0.98960
0.28033 0.73841 0.98905
0.44349 0.73964 0.98792
0.61940 0.74536 0.98443
0.77441 0.75192 0.98444
0.89959 0.75296 0.97670
1.00000 0.76077 0.97470
1.00000 0.77120 0.97750
0.00000 0.84575 0.96308
0.00000 0.84491 0.96253
0.29769 0.84361 0.96128
0.53095 0.84338 0.95801
0.71380 0.84652 0.95442
0.85583 0.85014 0.95430
0.97392 0.85088 0.96012
1.00000 0.85643 0.95098
0.00000 0.93988 0.93265
0.00000 0.93828 0.93169
0.00000 0.93517 0.93030
0.42215 0.93370 0.93080
0.64517 0.93367 0.93241
0.80519 0.93215 0.93199
0.92941 0.92977 0.92963
1.00000 0.93013 0.93007
0.00000 0.99706 0.91681
0.00000 0.99639 0.91600
0.00000 0.99488 0.91405
0.27823 0.99348 0.91057
0.57548 0.99271 0.90614
0.75784 0.98660 0.90916
0.88224 0.98666 0.90660
0.97587 0.98513 0.90776
0.35447 0.15136 1.00000
0.41454 0.14887 1.00000
0.54875 0.15704 1.00000
0.72135 0.17763 1.00000
0.89045 0.20745 1.00000
1.00000 0.25229 1.00000
1.00000 0.34438 1.00000
1.00000 0.43657 1.00000
0.36597 0.23534 1.00000
0.42711 0.23619 1.00000
0.56031 0.24324 1.00000
0.72782 0.26156 1.00000
0.89037 0.29241 1.00000
1.00000 0.33528 1.00000
1.00000 0.40777 1.00000
1.00000 0.49578 1.00000
0.37314 0.41921 1.00000
0.43973 0.42406 1.00000
0.57186 0.43370 1.00000
0.72995 0.44508 1.00000
0.87539 0.47400 1.00000
0.99192 0.50544 1.00000
1.00000 0.54580 1.00000
1.00000 0.61373 1.00000
0.40878 0.62637 1.00000
0.46548 0.63000 1.00000
0.58682 0.64474 1.00000
0.72542 0.65670 1.00000
0.84478 0.66192 1.00000
0.95400 0.68832 1.00000
1.00000 0.69015 1.00000
1.00000 0.71954 1.00000
0.42449 0.76814 1.00000
0.47059 0.76883 1.00000
0.56440 0.77028 1.00000
0.69539 0.77999 1.00000
0.81319 0.78425 1.00000
0.91729 0.78912 1.00000
1.00000 0.79539 1.00000
1.00000 0.80059 1.00000
0.28806 0.85795 1.00000
0.35521 0.85776 1.00000
0.48084 0.85782 1.00000
0.62798 0.85914 1.00000
0.76390 0.86355 1.00000
0.87767 0.86550 1.00000
0.97823 0.86451 1.00000
1.00000 0.86871 1.00000
0.00000 0.94092 0.99950
0.12553 0.94018 0.99932
0.36203 0.93856 0.99883
0.54854 0.93618 0.99794
0.70640 0.93360 0.99894
0.83332 0.93225 1.00000
0.93833 0.93012 0.99536
1.00000 0.92781 0.99657
0.00000 0.99545 0.98881
0.00000 0.99517 0.98809
0.15719 0.99447 0.98635
0.45364 0.99226 0.98322
0.63606 0.98797 0.97993
0.77724 0.98465 0.98123
0.88893 0.98303 0.97760
0.97905 0.97902 0.97900
