cube lut/provia_DisplayP3.cube
# DisplayP3
# github.com/abpy/FujifilmCameraProfiles
LUT_3D_SIZE 5
DOMAIN_MIN 0.000000 0.000000 0.000000
DOMAIN_MAX 0.903226 0.903226 0.903226
0.00000 0.00000 0.00000
0.26232 0.03094 0.01533
0.70482 0.13980 0.06648
0.99522 0.22510 0.09431
1.00000 0.25099 0.00000
0.00000 0.21605 0.00537
0.18962 0.20826 0.02231
0.69490 0.23154 0.06220
0.99453 0.30170 0.01203
1.00000 0.33023 0.00000
0.00000 0.59909 0.09655
0.00000 0.58708 0.08768
0.55839 0.59600 0.12601
0.95223 0.57999 0.16769
1.00000 0.51471 0.00000
0.00000 0.86616 0.18511
0.00000 0.87223 0.16379
0.00000 0.86404 0.15389
0.82042 0.84496 0.19769
1.00000 0.81725 0.22107
0.00000 0.96838 0.23299
0.00000 0.97375 0.21811
0.00000 0.97997 0.17705
0.59073 0.98209 0.19178
0.97785 0.97219 0.23601
0.02403 0.01398 0.27318
0.30779 0.05764 0.29111
0.72523 0.15209 0.32868
1.00000 0.21222 0.35012
1.00000 0.23504 0.25963
0.00000 0.23464 0.22788
0.24805 0.24880 0.24807
0.69882 0.28612 0.29781
0.99488 0.30547 0.33170
1.00000 0.30855 0.24294
0.00000 0.60155 0.21533
0.00000 0.59941 0.18223
0.57698 0.60094 0.21567
0.93722 0.60027 0.24960
1.00000 0.54291 0.23693
0.00000 0.86711 0.26153
0.00000 0.86804 0.20886
0.14974 0.85828 0.17765
0.81987 0.85113 0.21897
1.00000 0.84297 0.25681
0.00000 0.97040 0.29846
0.00000 0.97520 0.27045
0.00000 0.97975 0.18007
0.61726 0.98694 0.20878
0.97663 0.98445 0.27480
0.09942 0.03282 0.74600
0.36738 0.08009 0.76071
0.76578 0.19052 0.77442
1.00000 0.25476 0.76103
1.00000 0.30052 0.71437
0.09321 0.31807 0.69100
0.36850 0.33892 0.69246
0.72417 0.36653 0.69971
0.98059 0.40300 0.72080
1.00000 0.42533 0.70787
0.00000 0.62213 0.61479
0.00000 0.61940 0.61438
0.62079 0.62090 0.62027
0.92891 0.62857 0.64275
1.00000 0.64033 0.65856
0.00000 0.85928 0.55625
0.00000 0.85845 0.54620
0.36826 0.84695 0.55107
0.83129 0.84840 0.57252
1.00000 0.85349 0.60944
0.00000 0.97269 0.51227
0.00000 0.97628 0.50490
0.00000 0.98065 0.50317
0.69380 0.98458 0.53402
0.97718 0.98990 0.56689
0.21769 0.09379 0.97510
0.43206 0.12014 0.98066
0.77828 0.19921 0.98498
1.00000 0.30953 0.99438
1.00000 0.37627 0.96539
0.23077 0.34712 0.97499
0.44967 0.36492 0.97725
0.76787 0.40338 0.97897
0.98992 0.46960 0.96878
1.00000 0.50606 0.94540
0.04417 0.65813 0.92482
0.35089 0.65997 0.92112
0.69547 0.67287 0.91782
0.93553 0.68445 0.91675
1.00000 0.71202 0.90416
0.00000 0.86508 0.86211
0.00000 0.86202 0.85809
0.51646 0.85582 0.85583
0.86157 0.86175 0.86191
1.00000 0.87052 0.87297
0.00000 0.97624 0.81873
0.00000 0.97913 0.81725
0.00000 0.98072 0.81267
0.74795 0.98453 0.82102
0.97964 0.98629 0.83589
0.34724 0.17859 0.97829
0.50710 0.18902 0.98028
0.79668 0.24801 0.98384
1.00000 0.33327 0.98778
1.00000 0.44215 0.99016
0.35053 0.37777 0.98048
0.51958 0.39145 0.98161
0.79486 0.42129 0.98499
1.00000 0.47433 0.98925
1.00000 0.57390 0.99157
0.39832 0.70621 0.98512
0.54973 0.71812 0.98705
0.77745 0.73983 0.99022
0.95545 0.75878 0.99533
1.00000 0.77806 0.99868
0.09636 0.87841 0.98890
0.35670 0.87651 0.98967
0.66790 0.87745 0.99154
0.89429 0.88536 0.99435
1.00000 0.88837 0.99546
0.00000 0.97648 0.98820
0.00000 0.97857 0.98555
0.42553 0.98253 0.97945
0.79118 0.98129 0.97713
0.97907 0.97901 0.97894
