cube lut/provia_sRGB.cube
# sRGB
# github.com/abpy/FujifilmCameraProfiles
LUT_3D_SIZE 32
0.00000 0.00000 0.00000
0.01806 0.00152 0.00068
0.03542 0.00396 0.00000
0.05974 0.00546 0.00148
0.08984 0.00653 0.00247
0.12971 0.00947 0.00383
0.18293 0.01093 0.00451
0.24125 0.01208 0.00444
0.30206 0.01442 0.00490
0.36646 0.01339 0.00329
0.43086 0.01360 0.00239
0.49536 0.01724 0.00004
0.56329 0.01768 0.00000
0.62889 0.02115 0.00000
0.69019 0.02795 0.00000
0.75019 0.03396 0.00000
0.80606 0.04066 0.00000
0.85688 0.05201 0.00000
0.90414 0.06848 0.00000
0.94805 0.08163 0.00000
0.98800 0.09330 0.00000
1.00000 0.10386 0.00000
1.00000 0.11340 0.00000
1.00000 0.12179 0.00000
1.00000 0.12805 0.00000
1.00000 0.13488 0.00000
1.00000 0.14271 0.00000
1.00000 0.15155 0.00000
1.00000 0.16170 0.00000
1.00000 0.17228 0.00000
1.00000 0.18559 0.00000
1.00000 0.20000 0.00000
0.00000 0.01493 0.00000
0.01526 0.01505 0.00201
0.03209 0.01901 0.00131
0.05554 0.01810 0.00156
0.08581 0.01769 0.00224
0.12661 0.02112 0.00376
0.17991 0.02285 0.00495
0.23898 0.02426 0.00505
0.30032 0.02725 0.00631
0.36531 0.02631 0.00310
0.43006 0.02697 0.00164
0.49490 0.03021 0.00000
0.56309 0.03208 0.00000
0.62897 0.03601 0.00000
0.69031 0.04262 0.00000
0.75041 0.04924 0.00000
0.80633 0.05540 0.00000
0.85710 0.06492 0.00000
0.90427 0.08091 0.00000
0.94821 0.09276 0.00000
0.98819 0.10348 0.00000
1.00000 0.11362 0.00000
1.00000 0.12287 0.00000
1.00000 0.13103 0.00000
1.00000 0.13690 0.00000
1.00000 0.14348 0.00000
1.00000 0.15113 0.00000
1.00000 0.15971 0.00000
1.00000 0.16946 0.00000
1.00000 0.17960 0.00000
1.00000 0.19251 0.00000
1.00000 0.20653 0.00000
0.00000 0.02941 0.00156
0.01037 0.02925 0.00391
0.02798 0.03097 0.00316
0.05268 0.03276 0.00255
0.08203 0.03209 0.00380
0.12445 0.03578 0.00390
0.17861 0.03620 0.00407
0.23885 0.03627 0.00424
0.30002 0.04008 0.00826
0.36493 0.03974 0.00452
0.42956 0.04109 0.00357
0.49448 0.04363 0.00329
0.56279 0.04738 0.00000
0.62896 0.05124 0.00000
0.69034 0.05650 0.00000
0.75054 0.06335 0.00000
0.80653 0.06908 0.00000
0.85728 0.07715 0.00000
0.90435 0.09319 0.00000
0.94834 0.10397 0.00000
0.98836 0.11389 0.00000
1.00000 0.12374 0.00000
1.00000 0.13278 0.00000
1.00000 0.14076 0.00000
1.00000 0.14627 0.00000
1.00000 0.15265 0.00000
1.00000 0.16016 0.00000
1.00000 0.16852 0.00000
1.00000 0.17789 0.00000
1.00000 0.18760 0.00000
1.00000 0.20011 0.00000
1.00000 0.21375 0.00000
0.00000 0.04780 0.00469
0.00115 0.04770 0.00506
0.01931 0.04974 0.00555
0.04573 0.05096 0.00565
0.07933 0.05335 0.00601
0.12215 0.05651 0.00515
0.17480 0.05790 0.00559
0.23687 0.05757 0.00461
0.30066 0.05835 0.00754
0.36566 0.05811 0.00286
0.43030 0.05927 0.00232
0.49516 0.05972 0.00689
0.56329 0.06542 0.00000
0.62945 0.06884 0.00000
0.69061 0.07267 0.00000
0.75072 0.08043 0.00000
0.80676 0.08586 0.00000
0.85746 0.09216 0.00000
0.90436 0.10883 0.00000
0.94843 0.11837 0.00000
0.98856 0.12738 0.00000
1.00000 0.13698 0.00000
1.00000 0.14584 0.00000
1.00000 0.15366 0.00000
1.00000 0.15874 0.00000
1.00000 0.16490 0.00000
1.00000 0.17228 0.00000
1.00000 0.18040 0.00000
1.00000 0.18934 0.00000
1.00000 0.19851 0.00000
1.00000 0.21056 0.00000
1.00000 0.22372 0.00000
0.00000 0.07058 0.00585
0.00000 0.07212 0.00685
0.00493 0.07447 0.00607
0.03352 0.07597 0.00747
0.07133 0.07948 0.00616
0.11650 0.08233 0.00653
0.16838 0.08590 0.00736
0.23252 0.08676 0.00633
0.29714 0.08718 0.00693
0.36399 0.08690 0.00277
0.42989 0.08653 0.00050
0.49582 0.08160 0.00750
0.56482 0.08744 0.00000
0.63088 0.09023 0.00000
0.69177 0.09179 0.00000
0.75153 0.10069 0.00000
0.80737 0.10569 0.00000
0.85787 0.10953 0.00000
0.90439 0.12757 0.00000
0.94851 0.13579 0.00000
0.98876 0.14384 0.00000
1.00000 0.15329 0.00000
1.00000 0.16198 0.00000
1.00000 0.16962 0.00000
1.00000 0.17419 0.00000
1.00000 0.18013 0.00000
1.00000 0.18740 0.00000
1.00000 0.19527 0.00000
1.00000 0.20373 0.00000
1.00000 0.21230 0.00000
1.00000 0.22384 0.00000
1.00000 0.23647 0.00000
0.00000 0.10606 0.00564
0.00000 0.10677 0.00539
0.00000 0.10837 0.00589
0.00787 0.10883 0.00715
0.05253 0.11144 0.00747
0.10482 0.11466 0.00594
0.16112 0.11992 0.00552
0.22485 0.12245 0.00510
0.29051 0.12523 0.00418
0.35946 0.12477 0.00248
0.42663 0.12439 0.00000
0.49412 0.11954 0.00305
0.56462 0.12150 0.00000
0.63172 0.12057 0.00000
0.69342 0.11619 0.00409
0.75292 0.12551 0.00000
0.80841 0.13053 0.00000
0.85872 0.13079 0.00000
0.90469 0.15000 0.00000
0.94879 0.15641 0.00000
0.98916 0.16316 0.00000
1.00000 0.17246 0.00000
1.00000 0.18102 0.00000
1.00000 0.18850 0.00000
1.00000 0.19251 0.00000
1.00000 0.19825 0.00000
1.00000 0.20545 0.00000
1.00000 0.21305 0.00000
1.00000 0.22103 0.00000
1.00000 0.22892 0.00000
1.00000 0.23993 0.00000
1.00000 0.25199 0.00000
0.00000 0.14811 0.00134
0.00000 0.14830 0.00085
0.00000 0.14999 0.00109
0.00000 0.15207 0.00147
0.00920 0.15400 0.00052
0.07907 0.15712 0.00063
0.14563 0.16018 0.00020
0.21403 0.16559 0.00000
0.28223 0.16877 0.00000
0.35157 0.17048 0.00000
0.42038 0.17017 0.00000
0.49039 0.16738 0.00000
0.56121 0.16743 0.00000
0.62924 0.16534 0.00000
0.69240 0.15865 0.00096
0.75305 0.16209 0.00000
0.80905 0.16339 0.00000
0.85942 0.15956 0.00000
0.90514 0.17690 0.00000
0.94916 0.18199 0.00000
0.98979 0.18695 0.00000
1.00000 0.19548 0.00000
1.00000 0.20334 0.00000
1.00000 0.21027 0.00000
1.00000 0.21353 0.00000
1.00000 0.21909 0.00000
1.00000 0.22631 0.00000
1.00000 0.23368 0.00000
1.00000 0.24121 0.00000
1.00000 0.24839 0.00000
1.00000 0.25888 0.00000
1.00000 0.27036 0.00000
0.00000 0.19824 0.00000
0.00000 0.19820 0.00000
0.00000 0.19966 0.00000
0.00000 0.20233 0.00000
0.00000 0.20475 0.00000
0.01460 0.20693 0.00000
0.11234 0.21005 0.00000
0.19138 0.21341 0.00000
0.26853 0.21798 0.00000
0.34166 0.22078 0.00000
0.41090 0.22331 0.00000
0.48293 0.22053 0.00000
0.55379 0.22146 0.00000
0.62288 0.21958 0.00000
0.68605 0.21489 0.00000
0.74958 0.21339 0.00000
0.80692 0.21169 0.00000
0.85782 0.20487 0.00000
0.90473 0.21256 0.00000
0.94914 0.21388 0.00000
0.99051 0.21542 0.00000
1.00000 0.22297 0.00000
1.00000 0.23036 0.00000
1.00000 0.23648 0.00000
1.00000 0.23835 0.00000
1.00000 0.24318 0.00000
1.00000 0.25006 0.00000
1.00000 0.25700 0.00000
1.00000 0.26406 0.00000
1.00000 0.27055 0.00000
1.00000 0.28063 0.00000
1.00000 0.29157 0.00000
0.00000 0.25369 0.00000
0.00000 0.25351 0.00000
0.00000 0.25449 0.00000
0.00000 0.25651 0.00000
0.00000 0.25905 0.00000
0.00000 0.26105 0.00000
0.04621 0.26347 0.00000
0.15801 0.26643 0.00000
0.24425 0.26904 0.00000
0.32571 0.27414 0.00000
0.40025 0.27654 0.00000
0.46923 0.27973 0.00000
0.54247 0.27939 0.00000
0.61276 0.27684 0.00000
0.67762 0.27417 0.00000
0.74236 0.27245 0.00000
0.80200 0.26827 0.00000
0.85329 0.26326 0.00000
0.90143 0.26283 0.00000
0.94675 0.25926 0.00000
0.99010 0.25498 0.00000
1.00000 0.25771 0.00000
1.00000 0.26223 0.00000
1.00000 0.26678 0.00000
1.00000 0.26748 0.00000
1.00000 0.27172 0.00000
1.00000 0.27812 0.00000
1.00000 0.28412 0.00000
1.00000 0.29015 0.00000
1.00000 0.29557 0.00000
1.00000 0.30507 0.00000
1.00000 0.31542 0.00000
0.00000 0.31115 0.00000
0.00000 0.31065 0.00000
0.00000 0.31033 0.00000
0.00000 0.31181 0.00000
0.00000 0.31416 0.00000
0.00000 0.31677 0.00000
0.00000 0.31860 0.00000
0.10102 0.32104 0.00000
0.21047 0.32358 0.00000
0.29909 0.32650 0.00000
0.38129 0.33114 0.00000
0.45613 0.33480 0.00000
0.53011 0.33688 0.00000
0.59891 0.33575 0.00000
0.66516 0.33337 0.00000
0.73223 0.33213 0.00000
0.79368 0.32956 0.00000
0.84697 0.32472 0.00000
0.89548 0.32018 0.00000
0.94089 0.31568 0.00000
0.98413 0.31111 0.00000
1.00000 0.30698 0.00000
1.00000 0.30526 0.00000
1.00000 0.30539 0.00000
1.00000 0.30275 0.00000
1.00000 0.30443 0.00000
1.00000 0.30982 0.00000
1.00000 0.31512 0.00000
1.00000 0.32031 0.00000
1.00000 0.32459 0.00000
1.00000 0.33323 0.00000
1.00000 0.34248 0.00000
0.00000 0.36955 0.00000
0.00000 0.36923 0.00000
0.00000 0.36868 0.00000
0.00000 0.36873 0.00000
0.00000 0.36951 0.00000
0.00000 0.37262 0.00000
0.00000 0.37518 0.00000
0.00000 0.37687 0.00000
0.15729 0.37816 0.00000
0.26316 0.38103 0.00000
0.35189 0.38405 0.00000
0.43506 0.38833 0.00000
0.51416 0.39269 0.00000
0.58464 0.39164 0.00000
0.65066 0.39099 0.00000
0.71903 0.39035 0.00000
0.78174 0.38927 0.00000
0.83694 0.38623 0.00000
0.88626 0.38184 0.00000
0.93212 0.37688 0.00000
0.97351 0.37079 0.00000
1.00000 0.36582 0.00000
1.00000 0.36080 0.00000
1.00000 0.35620 0.00000
1.00000 0.35019 0.00000
1.00000 0.34758 0.00000
1.00000 0.34891 0.00000
1.00000 0.35075 0.00000
1.00000 0.35359 0.00000
1.00000 0.35669 0.00000
1.00000 0.36489 0.00000
1.00000 0.37323 0.00000
0.00000 0.42616 0.00000
0.00000 0.42605 0.00000
0.00000 0.42597 0.00000
0.00000 0.42588 0.00000
0.00000 0.42599 0.00000
0.00000 0.42685 0.00000
0.00000 0.42998 0.00000
0.00000 0.43113 0.00000
0.02759 0.43247 0.00000
0.21048 0.43577 0.00000
0.31448 0.43811 0.00000
0.40418 0.43997 0.00000
0.48814 0.44493 0.00000
0.56589 0.44685 0.00000
0.63566 0.44674 0.00000
0.70240 0.44825 0.00000
0.76525 0.44839 0.00000
0.82357 0.44333 0.00000
0.87360 0.44131 0.00000
0.92012 0.43759 0.00000
0.96150 0.43322 0.00000
0.99898 0.42643 0.00000
1.00000 0.41951 0.00000
1.00000 0.41402 0.00000
1.00000 0.40821 0.00000
1.00000 0.40273 0.00000
1.00000 0.39990 0.00000
1.00000 0.39726 0.00000
1.00000 0.39514 0.00000
1.00000 0.39409 0.00000
1.00000 0.39976 0.00000
1.00000 0.40627 0.00000
0.00000 0.48202 0.00000
0.00000 0.48197 0.00000
0.00000 0.48208 0.00000
0.00000 0.48255 0.00000
0.00000 0.48334 0.00000
0.00000 0.48444 0.00000
0.00000 0.48615 0.00000
0.00000 0.48760 0.00000
0.00000 0.48849 0.00000
0.12448 0.49006 0.00000
0.26432 0.49147 0.00000
0.36707 0.49360 0.00000
0.45541 0.49540 0.00000
0.53917 0.50027 0.00000
0.61624 0.50132 0.00000
0.68538 0.50208 0.00000
0.74840 0.50206 0.00000
0.80306 0.50118 0.00000
0.85768 0.49678 0.00000
0.90522 0.49418 0.00000
0.94661 0.49164 0.00000
0.98492 0.48625 0.00000
1.00000 0.48077 0.00000
1.00000 0.47342 0.00000
1.00000 0.46643 0.00000
1.00000 0.46154 0.00000
1.00000 0.45829 0.00000
1.00000 0.45308 0.00000
1.00000 0.44702 0.00000
1.00000 0.44136 0.00000
1.00000 0.44254 0.00000
1.00000 0.44497 0.00000
0.00000 0.53814 0.00000
0.00000 0.53816 0.00000
0.00000 0.53833 0.00000
0.00000 0.53892 0.00000
0.00000 0.53996 0.00000
0.00000 0.54108 0.00000
0.00000 0.54242 0.00000
0.00000 0.54380 0.00000
0.00000 0.54449 0.00000
0.00000 0.54495 0.00000
0.19557 0.54593 0.00000
0.32224 0.54626 0.00000
0.42094 0.54844 0.00000
0.50757 0.55135 0.00000
0.58910 0.55332 0.00000
0.66395 0.55356 0.00000
0.72908 0.55349 0.00000
0.78502 0.55213 0.00000
0.83621 0.55175 0.00000
0.88529 0.54847 0.00000
0.93012 0.54458 0.00000
0.96850 0.54230 0.00000
1.00000 0.53782 0.00000
1.00000 0.53256 0.00000
1.00000 0.52572 0.00000
1.00000 0.51877 0.00000
1.00000 0.51446 0.00000
1.00000 0.51008 0.00000
1.00000 0.50485 0.00000
1.00000 0.49696 0.00000
1.00000 0.49381 0.00000
1.00000 0.49201 0.00000
0.00000 0.59185 0.00000
0.00000 0.59186 0.00000
0.00000 0.59199 0.00000
0.00000 0.59248 0.00000
0.00000 0.59354 0.00000
0.00000 0.59471 0.00000
0.00000 0.59594 0.00000
0.00000 0.59711 0.00000
0.00000 0.59797 0.00000
0.00000 0.59845 0.00000
0.00315 0.59871 0.00000
0.26305 0.59846 0.00000
0.37914 0.59875 0.00000
0.47412 0.60028 0.00000
0.55730 0.60096 0.00000
0.63497 0.60151 0.00000
0.70490 0.60230 0.00000
0.76438 0.60045 0.00000
0.81738 0.60008 0.00000
0.86424 0.59927 0.00000
0.90716 0.59676 0.00000
0.95097 0.59264 0.00000
0.98919 0.59013 0.00000
1.00000 0.58734 0.00000
1.00000 0.58150 0.00000
1.00000 0.57542 0.00000
1.00000 0.57047 0.00000
1.00000 0.56533 0.00000
1.00000 0.55988 0.00000
1.00000 0.55343 0.00000
1.00000 0.54971 0.00000
1.00000 0.54545 0.00000
0.00000 0.64421 0.00000
0.00000 0.64422 0.00000
0.00000 0.64433 0.00000
0.00000 0.64471 0.00000
0.00000 0.64559 0.00000
0.00000 0.64637 0.00000
0.00000 0.64702 0.00000
0.00000 0.64769 0.00000
0.00000 0.64833 0.00000
0.00000 0.64845 0.00000
0.00000 0.64806 0.00000
0.16221 0.64711 0.00000
0.32859 0.64590 0.00000
0.43490 0.64562 0.00000
0.52445 0.64599 0.00000
0.60370 0.64586 0.00000
0.67644 0.64603 0.00000
0.74103 0.64690 0.00000
0.79668 0.64596 0.00000
0.84523 0.64531 0.00000
0.88930 0.64363 0.00000
0.92954 0.64208 0.00000
0.97057 0.63861 0.00000
1.00000 0.63521 0.00000
1.00000 0.63243 0.00000
1.00000 0.62795 0.00000
1.00000 0.62242 0.00000
1.00000 0.61797 0.00000
1.00000 0.61405 0.00000
1.00000 0.60775 0.00000
1.00000 0.60301 0.00000
1.00000 0.59850 0.00000
0.00000 0.69265 0.00000
0.00000 0.69273 0.00000
0.00000 0.69288 0.00000
0.00000 0.69317 0.00000
0.00000 0.69360 0.00000
0.00000 0.69384 0.00000
0.00000 0.69371 0.00000
0.00000 0.69364 0.00000
0.00000 0.69394 0.00000
0.00000 0.69385 0.00000
0.00000 0.69306 0.00000
0.00000 0.69177 0.00000
0.25540 0.69020 0.00000
0.39074 0.68857 0.00000
0.48822 0.68839 0.00000
0.57240 0.68823 0.00000
0.64652 0.68737 0.00000
0.71404 0.68747 0.00000
0.77372 0.68850 0.00000
0.82645 0.68782 0.00000
0.87124 0.68731 0.00000
0.91325 0.68483 0.00000
0.95153 0.68406 0.00000
0.98927 0.68144 0.00000
1.00000 0.67662 0.00000
1.00000 0.67368 0.00000
1.00000 0.67033 0.00000
1.00000 0.66540 0.00000
1.00000 0.66139 0.00000
1.00000 0.65756 0.00000
1.00000 0.65334 0.00000
1.00000 0.64850 0.00000
0.00000 0.73701 0.00000
0.00000 0.73709 0.00000
0.00000 0.73721 0.00000
0.00000 0.73740 0.00000
0.00000 0.73757 0.00000
0.00000 0.73747 0.00000
0.00000 0.73711 0.00000
0.00000 0.73674 0.00000
0.00000 0.73659 0.00000
0.00000 0.73632 0.00000
0.00000 0.73540 0.00000
0.00000 0.73376 0.00000
0.12672 0.73212 0.00000
0.33313 0.72991 0.00000
0.44854 0.72885 0.00000
0.53790 0.72862 0.00000
0.61636 0.72754 0.00000
0.68573 0.72601 0.00000
0.74827 0.72573 0.00000
0.80399 0.72672 0.00000
0.85299 0.72659 0.00000
0.89523 0.72548 0.00000
0.93565 0.72353 0.00000
0.97179 0.72226 0.00000
1.00000 0.72016 0.00000
1.00000 0.71591 0.00000
1.00000 0.71179 0.00000
1.00000 0.70886 0.00000
1.00000 0.70450 0.00000
1.00000 0.69983 0.00000
1.00000 0.69686 0.00000
1.00000 0.69383 0.00000
0.00000 0.77708 0.00000
0.00000 0.77712 0.00000
0.00000 0.77718 0.00000
0.00000 0.77726 0.00000
0.00000 0.77726 0.00000
0.00000 0.77695 0.00000
0.00000 0.77636 0.00000
0.00000 0.77589 0.00000
0.00000 0.77556 0.00000
0.00000 0.77517 0.00000
0.00000 0.77384 0.00000
0.00000 0.77214 0.00000
0.00000 0.76969 0.00000
0.24983 0.76817 0.00000
0.39983 0.76679 0.00000
0.50076 0.76605 0.00000
0.58334 0.76504 0.00000
0.65678 0.76295 0.00000
0.72142 0.76098 0.00000
0.77919 0.76135 0.00000
0.83133 0.76246 0.00000
0.87715 0.76207 0.00000
0.91776 0.76117 0.00000
0.95540 0.75907 0.00000
0.98985 0.75709 0.00000
1.00000 0.75692 0.00000
1.00000 0.75395 0.00000
1.00000 0.74806 0.00000
1.00000 0.74374 0.00000
1.00000 0.73985 0.00000
1.00000 0.73575 0.00000
1.00000 0.73226 0.00000
0.00000 0.81293 0.00000
0.00000 0.81294 0.00000
0.00000 0.81296 0.00000
0.00000 0.81296 0.00000
0.00000 0.81284 0.00000
0.00000 0.81239 0.00000
0.00000 0.81164 0.00000
0.00000 0.81105 0.00000
0.00000 0.81056 0.00000
0.00000 0.80995 0.00000
0.00000 0.80875 0.00000
0.00000 0.80696 0.00000
0.00000 0.80490 0.00000
0.13025 0.80306 0.00000
0.33506 0.80172 0.00000
0.45786 0.80050 0.00000
0.54797 0.79933 0.00000
0.62553 0.79733 0.00000
0.69411 0.79520 0.00000
0.75379 0.79449 0.00000
0.80776 0.79489 0.00000
0.85667 0.79531 0.00000
0.89957 0.79468 0.00000
0.93812 0.79343 0.00000
0.97284 0.79127 0.00000
1.00000 0.79003 0.00000
1.00000 0.79191 0.00000
1.00000 0.78997 0.00000
1.00000 0.78190 0.00000
1.00000 0.77569 0.00000
1.00000 0.77302 0.00000
1.00000 0.76941 0.00000
0.00000 0.84555 0.00000
0.00000 0.84553 0.00000
0.00000 0.84552 0.00000
0.00000 0.84548 0.00000
0.00000 0.84533 0.00000
0.00000 0.84491 0.00000
0.00000 0.84421 0.00000
0.00000 0.84356 0.00000
0.00000 0.84302 0.00000
0.00000 0.84234 0.00000
0.00000 0.84131 0.00000
0.00000 0.83946 0.00000
0.00000 0.83779 0.00000
0.00000 0.83577 0.00000
0.25164 0.83448 0.00000
0.40514 0.83274 0.00000
0.51068 0.83109 0.00000
0.59280 0.82952 0.00000
0.66551 0.82707 0.00000
0.72910 0.82556 0.00000
0.78437 0.82569 0.00000
0.83434 0.82503 0.00000
0.88005 0.82434 0.00000
0.91990 0.82352 0.00000
0.95587 0.82196 0.00000
0.98958 0.82127 0.00000
1.00000 0.82101 0.00000
1.00000 0.82282 0.00000
1.00000 0.82079 0.00000
1.00000 0.81338 0.00000
1.00000 0.80685 0.00000
1.00000 0.80403 0.00000
0.00000 0.87594 0.00000
0.00000 0.87591 0.00000
0.00000 0.87589 0.00000
0.00000 0.87584 0.00000
0.00000 0.87573 0.00000
0.00000 0.87548 0.00000
0.00000 0.87495 0.00000
0.00000 0.87424 0.00000
0.00000 0.87360 0.00000
0.00000 0.87277 0.00000
0.00000 0.87165 0.00000
0.00000 0.87007 0.00000
0.00000 0.86813 0.00000
0.00000 0.86655 0.00000
0.14863 0.86473 0.00000
0.33981 0.86299 0.00000
0.46788 0.86059 0.00000
0.56073 0.85865 0.00000
0.63630 0.85660 0.00000
0.70350 0.85431 0.00000
0.76173 0.85323 0.00000
0.81257 0.85255 0.00000
0.85891 0.85120 0.00000
0.90148 0.85016 0.00000
0.93859 0.84955 0.00000
0.97355 0.84919 0.00000
1.00000 0.84916 0.00000
1.00000 0.84881 0.00000
1.00000 0.84930 0.00000
1.00000 0.84885 0.00000
1.00000 0.84350 0.00000
1.00000 0.83688 0.00000
0.00000 0.90416 0.00000
0.00000 0.90416 0.00000
0.00000 0.90418 0.00000
0.00000 0.90420 0.00000
0.00000 0.90420 0.00000
0.00000 0.90409 0.00000
0.00000 0.90368 0.00000
0.00000 0.90283 0.00000
0.00000 0.90186 0.00000
0.00000 0.90072 0.00000
0.00000 0.89936 0.00000
0.00000 0.89775 0.00000
0.00000 0.89554 0.00000
0.00000 0.89378 0.00000
0.00000 0.89235 0.00000
0.27542 0.89063 0.00000
0.41634 0.88821 0.00000
0.52572 0.88560 0.00000
0.60849 0.88339 0.00000
0.67767 0.88101 0.00000
0.73872 0.87892 0.00000
0.79186 0.87772 0.00000
0.83887 0.87666 0.00000
0.88225 0.87521 0.00000
0.92225 0.87421 0.00000
0.95803 0.87432 0.00000
0.99191 0.87488 0.00000
1.00000 0.87511 0.00000
1.00000 0.87495 0.00000
1.00000 0.87429 0.00000
1.00000 0.87467 0.00000
1.00000 0.87139 0.00000
0.00000 0.93053 0.00000
0.00000 0.93058 0.00000
0.00000 0.93066 0.00000
0.00000 0.93076 0.00000
0.00000 0.93086 0.00000
0.00000 0.93086 0.00000
0.00000 0.93049 0.00000
0.00000 0.92943 0.00000
0.00000 0.92791 0.00000
0.00000 0.92638 0.00000
0.00000 0.92469 0.00000
0.00000 0.92271 0.00000
0.00000 0.92044 0.00000
0.00000 0.91818 0.00000
0.00000 0.91709 0.00000
0.18668 0.91632 0.00000
0.36328 0.91456 0.00000
0.48340 0.91176 0.00000
0.57845 0.90881 0.00000
0.65270 0.90619 0.00000
0.71555 0.90378 0.00000
0.77110 0.90181 0.00000
0.82027 0.90046 0.00000
0.86450 0.89925 0.00000
0.90526 0.89775 0.00000
0.94348 0.89693 0.00000
0.97801 0.89836 0.00000
1.00000 0.90002 0.00000
1.00000 0.90142 0.00000
1.00000 0.89939 0.00000
1.00000 0.89774 0.00000
1.00000 0.89832 0.00000
0.00000 0.95436 0.00000
0.00000 0.95443 0.00000
0.00000 0.95451 0.00000
0.00000 0.95463 0.00000
0.00000 0.95476 0.00000
0.00000 0.95479 0.00000
0.00000 0.95451 0.00000
0.00000 0.95353 0.00000
0.00000 0.95185 0.00000
0.00000 0.95015 0.00000
0.00000 0.94830 0.00000
0.00000 0.94619 0.00000
0.00000 0.94380 0.00000
0.00000 0.94125 0.00000
0.00000 0.94004 0.00000
0.00000 0.94015 0.00000
0.30891 0.94037 0.00000
0.43557 0.93777 0.00000
0.54211 0.93399 0.00000
0.62583 0.93055 0.00000
0.69253 0.92785 0.00000
0.74993 0.92527 0.00000
0.80138 0.92316 0.00000
0.84757 0.92175 0.00000
0.88929 0.91993 0.00000
0.92799 0.91883 0.00000
0.96456 0.91970 0.00000
0.99566 0.92268 0.00000
1.00000 0.92576 0.00000
1.00000 0.92296 0.00000
1.00000 0.92096 0.00000
1.00000 0.91973 0.00000
0.00000 0.97495 0.00000
0.00000 0.97500 0.00000
0.00000 0.97505 0.00000
0.00000 0.97513 0.00000
0.00000 0.97520 0.00000
0.00000 0.97523 0.00000
0.00000 0.97510 0.00000
0.00000 0.97456 0.00000
0.00000 0.97342 0.00000
0.00000 0.97206 0.00000
0.00000 0.97054 0.00000
0.00000 0.96861 0.00000
0.00000 0.96612 0.00000
0.00000 0.96352 0.00000
0.00000 0.96164 0.00000
0.00000 0.96158 0.00000
0.22354 0.96264 0.00000
0.39183 0.96209 0.00000
0.49951 0.95811 0.00000
0.59483 0.95341 0.00000
0.66876 0.95006 0.00000
0.72879 0.94751 0.00000
0.78207 0.94499 0.00000
0.83019 0.94303 0.00000
0.87352 0.94141 0.00000
0.91316 0.94001 0.00000
0.94974 0.94078 0.00000
0.98238 0.94245 0.00000
1.00000 0.94447 0.00000
1.00000 0.94440 0.00000
1.00000 0.94207 0.00000
1.00000 0.94146 0.00000
0.00000 0.99327 0.00000
0.00000 0.99334 0.00000
0.00000 0.99342 0.00000
0.00000 0.99352 0.00000
0.00000 0.99364 0.00000
0.00000 0.99372 0.00000
0.00000 0.99369 0.00000
0.00000 0.99332 0.00000
0.00000 0.99243 0.00000
0.00000 0.99112 0.00000
0.00000 0.98959 0.00000
0.00000 0.98750 0.00000
0.00000 0.98481 0.00000
0.00000 0.98201 0.00000
0.00000 0.97973 0.00000
0.00000 0.97896 0.00000
0.08485 0.97959 0.00000
0.34230 0.98056 0.00000
0.46414 0.97776 0.00000
0.56089 0.97309 0.00000
0.64382 0.96946 0.00000
0.70887 0.96732 0.00000
0.76347 0.96561 0.00000
0.81275 0.96356 0.00000
0.85747 0.96174 0.00000
0.89829 0.96075 0.00000
0.93542 0.96056 0.00000
0.96799 0.96124 0.00000
0.99478 0.96145 0.00000
1.00000 0.96187 0.00000
1.00000 0.96248 0.00000
1.00000 0.96020 0.00000
0.00000 0.99998 0.00000
0.00000 1.00000 0.00000
0.00000 1.00000 0.00000
0.00000 1.00000 0.00000
0.00000 1.00000 0.00000
0.00000 1.00000 0.00000
0.00000 1.00000 0.00000
0.00000 0.99996 0.00000
0.00000 0.99951 0.00000
0.00000 0.99866 0.00000
0.00000 0.99759 0.00000
0.00000 0.99621 0.00000
0.00000 0.99457 0.00000
0.00000 0.99281 0.00000
0.00000 0.99136 0.00000
0.00000 0.99055 0.00000
0.00000 0.99071 0.00000
0.29073 0.99104 0.00000
0.43888 0.99026 0.00000
0.53245 0.98791 0.00000
0.61740 0.98519 0.00000
0.68906 0.98353 0.00000
0.74657 0.98282 0.00000
0.79598 0.98155 0.00000
0.84165 0.97947 0.00000
0.88357 0.97803 0.00000
0.92146 0.97780 0.00000
0.95481 0.97748 0.00000
0.98281 0.97712 0.01159
1.00000 0.97664 0.05981
1.00000 0.97699 0.05834
1.00000 0.97741 0.03623
0.00000 1.00000 0.00000
0.00000 1.00000 0.00000
0.00000 1.00000 0.00000
0.00000 1.00000 0.00000
