cube lut/reala ace_sRGB.cube
# sRGB
# github.com/abpy/FujifilmCameraProfiles
LUT_3D_SIZE 32
0.00000 0.00000 0.00000
0.01203 0.00000 0.00038
0.02597 0.00026 0.00000
0.04131 0.00095 0.00000
0.06658 0.00186 0.00000
0.10286 0.00499 0.00048
0.16671 0.00586 0.00124
0.23504 0.00756 0.00210
0.30231 0.00936 0.00165
0.37247 0.00922 0.00000
0.43575 0.00772 0.00000
0.49333 0.00777 0.00000
0.54591 0.00778 0.00000
0.59699 0.01030 0.00000
0.64665 0.01548 0.00000
0.69307 0.02366 0.00000
0.73672 0.03672 0.00000
0.77742 0.05827 0.00000
0.81386 0.08598 0.00000
0.84622 0.11404 0.00000
0.87543 0.14404 0.02559
0.90301 0.17491 0.06960
0.92862 0.20559 0.10727
0.95344 0.23609 0.14392
0.97639 0.26496 0.17366
0.99544 0.29126 0.20028
1.00000 0.31337 0.22034
1.00000 0.33100 0.22946
1.00000 0.34131 0.21804
1.00000 0.34867 0.19680
1.00000 0.35652 0.17474
1.00000 0.36456 0.15187
0.00000 0.01030 0.00000
0.00898 0.01092 0.00000
0.02389 0.01356 0.00000
0.04067 0.01264 0.00003
0.06763 0.01312 0.00000
0.10496 0.01762 0.00078
0.16955 0.01823 0.00139
0.23826 0.02003 0.00245
0.30525 0.02136 0.00293
0.37430 0.02140 0.00000
0.43734 0.01997 0.00000
0.49491 0.01876 0.00000
0.54744 0.01997 0.00000
0.59866 0.02249 0.00000
0.64847 0.02729 0.00000
0.69460 0.03733 0.00000
0.73807 0.05034 0.00000
0.77864 0.06911 0.00000
0.81491 0.09553 0.00000
0.84718 0.12190 0.00000
0.87632 0.15068 0.02083
0.90388 0.18085 0.06576
0.92945 0.21101 0.10429
0.95424 0.24113 0.14151
0.97715 0.26961 0.17160
0.99614 0.29558 0.19843
1.00000 0.31741 0.21859
1.00000 0.33486 0.22788
1.00000 0.34509 0.21652
1.00000 0.35241 0.19532
1.00000 0.36020 0.17333
1.00000 0.36817 0.15047
0.00000 0.02089 0.00000
0.00623 0.02151 0.00020
0.02173 0.02352 0.00087
0.04278 0.02648 0.00109
0.07274 0.02845 0.00167
0.11206 0.03382 0.00181
0.17570 0.03295 0.00078
0.24416 0.03321 0.00175
0.31023 0.03363 0.00552
0.37691 0.03445 0.00029
0.43914 0.03315 0.00000
0.49654 0.03025 0.00000
0.54891 0.03347 0.00000
0.60036 0.03583 0.00000
0.65043 0.03990 0.00000
0.69619 0.05138 0.00000
0.73950 0.06303 0.00000
0.77997 0.07964 0.00000
0.81605 0.10531 0.00000
0.84824 0.13017 0.00000
0.87732 0.15779 0.01816
0.90486 0.18731 0.06306
0.93039 0.21700 0.10197
0.95514 0.24674 0.13952
0.97802 0.27482 0.16982
0.99692 0.30044 0.19676
1.00000 0.32196 0.21696
1.00000 0.33924 0.22637
1.00000 0.34939 0.21508
1.00000 0.35665 0.19393
1.00000 0.36440 0.17202
1.00000 0.37229 0.14919
0.00000 0.03872 0.00046
0.00098 0.04009 0.00115
0.01751 0.04352 0.00235
0.04342 0.04892 0.00275
0.08201 0.05576 0.00346
0.12302 0.05730 0.00346
0.18431 0.05931 0.00292
0.25237 0.05859 0.00220
0.31783 0.05482 0.00462
0.38150 0.05459 0.00000
0.44248 0.05279 0.00000
0.49974 0.04691 0.00000
0.55142 0.05257 0.00000
0.60298 0.05385 0.00000
0.65338 0.05561 0.00000
0.69837 0.06828 0.00000
0.74146 0.07867 0.00000
0.78183 0.09285 0.00000
0.81763 0.11817 0.00000
0.84975 0.14124 0.00000
0.87874 0.16744 0.01896
0.90626 0.19625 0.06237
0.93174 0.22535 0.10068
0.95642 0.25462 0.13808
0.97925 0.28219 0.16834
0.99805 0.30735 0.19520
1.00000 0.32845 0.21527
1.00000 0.34548 0.22480
1.00000 0.35554 0.21357
1.00000 0.36272 0.19250
1.00000 0.37040 0.17074
1.00000 0.37819 0.14798
0.00000 0.07066 0.00055
0.00000 0.07303 0.00123
0.00432 0.07672 0.00153
0.03576 0.08301 0.00255
0.08179 0.08935 0.00238
0.13103 0.09212 0.00407
0.18973 0.09536 0.00416
0.25841 0.09489 0.00296
0.32110 0.09055 0.00250
0.38436 0.08776 0.00000
0.44506 0.08359 0.00000
0.50408 0.07172 0.00258
0.55518 0.07677 0.00000
0.60684 0.07688 0.00000
0.65791 0.07496 0.00000
0.70145 0.08890 0.00000
0.74416 0.09775 0.00000
0.78443 0.10879 0.00000
0.81977 0.13418 0.00000
0.85181 0.15526 0.00000
0.88069 0.17982 0.02597
0.90818 0.20790 0.06593
0.93358 0.23635 0.10209
0.95816 0.26505 0.13845
0.98091 0.29200 0.16816
0.99956 0.31657 0.19456
1.00000 0.33713 0.21420
1.00000 0.35384 0.22373
1.00000 0.36375 0.21257
1.00000 0.37084 0.19165
1.00000 0.37843 0.17013
1.00000 0.38608 0.14753
0.00000 0.11441 0.00000
0.00000 0.11616 0.00000
0.00000 0.11957 0.00000
0.00454 0.12437 0.00062
0.06210 0.12881 0.00145
0.12232 0.13297 0.00033
0.18638 0.13737 0.00000
0.25594 0.14019 0.00000
0.31929 0.13481 0.00000
0.38152 0.13226 0.00000
0.44272 0.12680 0.00000
0.50470 0.11631 0.00000
0.55772 0.11481 0.00000
0.61059 0.11041 0.00000
0.66333 0.10269 0.00163
0.70522 0.11527 0.00000
0.74753 0.12288 0.00000
0.78798 0.12970 0.00000
0.82264 0.15440 0.00000
0.85460 0.17285 0.00818
0.88335 0.19519 0.03659
0.91079 0.22248 0.07252
0.93604 0.25023 0.10627
0.96045 0.27829 0.14116
0.98310 0.30454 0.16993
1.00000 0.32842 0.19551
1.00000 0.34828 0.21435
1.00000 0.36458 0.22378
1.00000 0.37432 0.21275
1.00000 0.38126 0.19211
1.00000 0.38873 0.17104
1.00000 0.39618 0.14879
0.00000 0.16348 0.00000
0.00000 0.16454 0.00000
0.00000 0.16683 0.00000
0.00000 0.16972 0.00000
0.01251 0.17311 0.00000
0.09682 0.17717 0.00000
0.16906 0.18148 0.00000
0.24518 0.18827 0.00000
0.31058 0.18689 0.00000
0.37231 0.18314 0.00000
0.43527 0.17648 0.00000
0.49853 0.17128 0.00000
0.55560 0.16544 0.00000
0.61045 0.15925 0.00000
0.66500 0.15239 0.00082
0.70838 0.15398 0.00000
0.75091 0.15666 0.00000
0.79177 0.15953 0.00280
0.82606 0.18001 0.00000
0.85813 0.19592 0.01128
0.88693 0.21521 0.04222
0.91428 0.24104 0.07656
0.93931 0.26755 0.10989
0.96344 0.29459 0.14438
0.98590 0.31997 0.17262
1.00000 0.34306 0.19755
1.00000 0.36211 0.21555
1.00000 0.37793 0.22497
1.00000 0.38748 0.21431
1.00000 0.39428 0.19431
1.00000 0.40158 0.17406
1.00000 0.40879 0.15254
0.00000 0.21942 0.00000
0.00000 0.22017 0.00000
0.00000 0.22182 0.00000
0.00000 0.22360 0.00000
0.00000 0.22574 0.00000
0.03723 0.22838 0.00000
0.13923 0.23145 0.00000
0.21971 0.23466 0.00000
0.29497 0.23828 0.00000
0.35977 0.23521 0.00000
0.42218 0.23174 0.00000
0.48762 0.22551 0.00000
0.54756 0.22188 0.00000
0.60437 0.21612 0.00000
0.66004 0.20955 0.00000
0.70799 0.20619 0.00000
0.75237 0.20472 0.00000
0.79449 0.20629 0.00609
0.82981 0.21463 0.00000
0.86214 0.22575 0.00524
0.89120 0.24052 0.03643
0.91862 0.26433 0.07144
0.94344 0.28953 0.10773
0.96729 0.31523 0.14438
0.98949 0.33924 0.17335
1.00000 0.36100 0.19843
1.00000 0.37883 0.21605
1.00000 0.39395 0.22595
1.00000 0.40326 0.21614
1.00000 0.40995 0.19744
1.00000 0.41714 0.17872
1.00000 0.42411 0.15854
0.00000 0.27354 0.00000
0.00000 0.27412 0.00000
0.00000 0.27508 0.00000
0.00000 0.27612 0.00000
0.00000 0.27738 0.00000
0.00000 0.27884 0.00000
0.09672 0.28089 0.00000
0.18757 0.28312 0.00000
0.26718 0.28523 0.00000
0.34192 0.28734 0.00000
0.40782 0.28434 0.00000
0.47179 0.28214 0.00000
0.53506 0.27883 0.00000
0.59404 0.27243 0.00000
0.65058 0.26856 0.00000
0.70228 0.26388 0.00000
0.74997 0.25939 0.00000
0.79454 0.26103 0.00000
0.83297 0.26281 0.00000
0.86654 0.26811 0.00313
0.89639 0.27695 0.03716
0.92407 0.29479 0.06167
0.94834 0.31641 0.09777
0.97185 0.33999 0.13756
0.99378 0.36268 0.16864
1.00000 0.38312 0.19488
1.00000 0.39947 0.21302
1.00000 0.41347 0.22433
1.00000 0.42211 0.21596
1.00000 0.42846 0.19940
1.00000 0.43540 0.18301
1.00000 0.44207 0.16496
0.00000 0.32126 0.01164
0.00000 0.32173 0.01061
0.00000 0.32257 0.00900
0.00000 0.32339 0.00605
0.00000 0.32452 0.00108
0.00000 0.32614 0.00000
0.03165 0.32821 0.00000
0.15240 0.33044 0.00000
0.23565 0.33257 0.00000
0.31381 0.33425 0.00000
0.38725 0.33498 0.00000
0.45779 0.33605 0.00000
0.52105 0.33409 0.00000
0.57941 0.33032 0.00000
0.63905 0.32466 0.00000
0.69249 0.32117 0.00000
0.74292 0.31727 0.00000
0.79108 0.31842 0.00000
0.83390 0.31768 0.00000
0.86980 0.32074 0.00000
0.90218 0.32767 0.03386
0.93141 0.33883 0.05772
0.95468 0.35356 0.08910
0.97753 0.37246 0.12862
0.99883 0.39165 0.16048
1.00000 0.40918 0.18601
1.00000 0.42352 0.20409
1.00000 0.43657 0.21741
1.00000 0.44468 0.21104
1.00000 0.45070 0.19769
1.00000 0.45712 0.18461
1.00000 0.46315 0.16932
0.00000 0.36819 0.04895
0.00000 0.36856 0.04788
0.00000 0.36917 0.04577
0.00000 0.36999 0.04157
0.00000 0.37069 0.03523
0.00000 0.37221 0.02137
0.00000 0.37424 0.00150
0.11381 0.37649 0.00000
0.20530 0.37866 0.00000
0.28337 0.38057 0.00000
0.35973 0.38192 0.00000
0.43562 0.38505 0.00000
0.50530 0.38667 0.00000
0.56668 0.38493 0.00000
0.62476 0.38328 0.00000
0.68140 0.37831 0.00000
0.73434 0.37498 0.00000
0.78555 0.37685 0.00000
0.83186 0.37769 0.00000
0.87071 0.37906 0.00000
0.90538 0.38236 0.01159
0.93747 0.39224 0.04982
0.96206 0.40286 0.08583
0.98463 0.41637 0.12425
1.00000 0.43121 0.15609
1.00000 0.44418 0.18021
1.00000 0.45386 0.19457
1.00000 0.46383 0.20690
1.00000 0.47026 0.20058
1.00000 0.47590 0.19051
1.00000 0.48211 0.18128
1.00000 0.48770 0.16921
0.00000 0.41559 0.08044
0.00000 0.41581 0.07953
0.00000 0.41614 0.07810
0.00000 0.41659 0.07483
0.00000 0.41716 0.06987
0.00000 0.41824 0.06097
0.00000 0.42050 0.04135
0.08483 0.42304 0.01485
0.18022 0.42598 0.00000
0.25779 0.42810 0.00000
0.33305 0.43066 0.00000
0.40860 0.43268 0.00000
0.48328 0.43682 0.00000
0.55139 0.43805 0.00000
0.61336 0.43879 0.00000
0.67010 0.43785 0.00000
0.72523 0.43647 0.00000
0.77954 0.43500 0.00000
0.82802 0.43809 0.00000
0.86958 0.43931 0.00000
0.90547 0.44285 0.00000
0.94081 0.44957 0.02283
0.96811 0.45687 0.07399
0.99177 0.46797 0.11979
1.00000 0.48097 0.15808
1.00000 0.49018 0.17878
1.00000 0.49461 0.19035
1.00000 0.50020 0.20274
1.00000 0.50302 0.19450
1.00000 0.50585 0.18344
1.00000 0.51007 0.17468
1.00000 0.51454 0.16405
0.00000 0.46496 0.10762
0.00000 0.46518 0.10679
0.00000 0.46550 0.10563
0.00000 0.46590 0.10302
0.00000 0.46636 0.09863
0.00000 0.46729 0.09188
0.00000 0.46922 0.08004
0.03760 0.47196 0.06091
0.16015 0.47519 0.03040
0.24067 0.47839 0.00000
0.31301 0.48109 0.00000
0.38654 0.48394 0.00000
0.45972 0.48601 0.00000
0.53115 0.48903 0.00000
0.59943 0.49277 0.00000
0.66039 0.49537 0.00000
0.71743 0.49574 0.00000
0.77130 0.49888 0.00000
0.82317 0.49799 0.00000
0.86700 0.49948 0.00000
0.90562 0.50362 0.00000
0.94184 0.50896 0.00000
0.97190 0.51555 0.04520
0.99741 0.52290 0.10742
1.00000 0.53295 0.15446
1.00000 0.54073 0.18234
1.00000 0.54347 0.19418
1.00000 0.54571 0.20024
1.00000 0.54485 0.19322
1.00000 0.54420 0.18420
1.00000 0.54488 0.17371
1.00000 0.54642 0.16356
0.00000 0.51241 0.13301
0.00000 0.51265 0.13225
0.00000 0.51296 0.13127
0.00000 0.51337 0.12920
0.00000 0.51380 0.12543
0.00000 0.51460 0.12022
0.00000 0.51623 0.11205
0.00000 0.51890 0.09860
0.14025 0.52206 0.07959
0.22301 0.52540 0.04762
0.29956 0.52968 0.00000
0.37028 0.53365 0.00000
0.44126 0.53733 0.00000
0.51056 0.53930 0.00000
0.58172 0.54496 0.00000
0.64878 0.55105 0.00000
0.70907 0.55418 0.00000
0.76510 0.55712 0.00000
0.81568 0.56086 0.00000
0.86198 0.56120 0.00000
0.90308 0.56175 0.00000
0.94092 0.56744 0.00000
0.97308 0.57229 0.00000
1.00000 0.57900 0.08067
1.00000 0.58736 0.13644
1.00000 0.59254 0.17831
1.00000 0.59253 0.19197
1.00000 0.59357 0.20285
1.00000 0.59244 0.19965
1.00000 0.59012 0.19016
1.00000 0.58706 0.17957
1.00000 0.58535 0.17119
0.00000 0.55696 0.16046
0.00000 0.55717 0.15980
0.00000 0.55747 0.15904
0.00000 0.55799 0.15757
0.00000 0.55876 0.15467
0.00000 0.55987 0.15062
0.00000 0.56170 0.14468
0.00000 0.56449 0.13549
0.12687 0.56815 0.12170
0.21745 0.57254 0.10166
0.28856 0.57747 0.06778
0.36175 0.58343 0.00000
0.42968 0.58865 0.00000
0.49797 0.59308 0.00000
0.56591 0.59724 0.00000
0.63377 0.60314 0.00000
0.69809 0.60962 0.00000
0.75679 0.61322 0.00000
0.80825 0.61650 0.00000
0.85493 0.61979 0.00000
0.89598 0.62253 0.00000
0.93715 0.62257 0.00000
0.97137 0.62642 0.00000
1.00000 0.63239 0.02340
1.00000 0.63810 0.11332
1.00000 0.64317 0.15747
1.00000 0.64284 0.17912
1.00000 0.64184 0.19866
1.00000 0.63821 0.19394
1.00000 0.63588 0.19004
1.00000 0.63277 0.18591
1.00000 0.62982 0.18034
0.00000 0.60226 0.19534
0.00000 0.60250 0.19483
0.00000 0.60285 0.19432
0.00000 0.60353 0.19352
0.00000 0.60468 0.19190
0.00000 0.60604 0.18850
0.00000 0.60791 0.18361
0.00000 0.61074 0.17615
0.13313 0.61476 0.16460
0.21802 0.61949 0.15042
0.29128 0.62518 0.13014
0.35759 0.63195 0.09235
0.42617 0.63902 0.02268
0.49068 0.64492 0.00000
0.55625 0.64996 0.00000
0.61984 0.65362 0.00000
0.68380 0.65906 0.00000
0.74595 0.66681 0.00000
0.79906 0.66897 0.00000
0.84750 0.67274 0.00000
0.88966 0.67520 0.00000
0.92886 0.67874 0.00000
0.96632 0.67925 0.00000
0.99864 0.68118 0.00000
1.00000 0.68586 0.06033
1.00000 0.68958 0.13375
1.00000 0.68795 0.15747
1.00000 0.68773 0.17393
1.00000 0.68464 0.18010
1.00000 0.68090 0.18063
1.00000 0.67603 0.17834
1.00000 0.67174 0.17646
0.00000 0.64720 0.23596
0.00000 0.64747 0.23554
0.00000 0.64783 0.23514
0.00000 0.64853 0.23460
0.00000 0.64978 0.23360
0.00000 0.65151 0.23107
0.00000 0.65353 0.22674
0.03654 0.65638 0.21998
0.15362 0.66035 0.20987
0.23444 0.66578 0.19599
0.30086 0.67186 0.18028
0.36301 0.67831 0.15816
0.42794 0.68640 0.11955
0.49122 0.69350 0.06243
0.55180 0.69939 0.00000
0.61283 0.70369 0.00000
0.67297 0.70737 0.00000
0.73424 0.71431 0.00000
0.78954 0.71909 0.00000
0.83875 0.72095 0.00000
0.88171 0.72354 0.00000
0.92142 0.72504 0.00000
0.95812 0.72887 0.00000
0.99207 0.73033 0.00000
1.00000 0.72970 0.00000
1.00000 0.73186 0.08076
1.00000 0.73050 0.11797
1.00000 0.72824 0.14814
1.00000 0.72503 0.14911
1.00000 0.72256 0.14698
1.00000 0.71799 0.15406
1.00000 0.71222 0.15729
0.00000 0.69114 0.27618
0.00000 0.69144 0.27572
0.00000 0.69184 0.27527
0.00000 0.69257 0.27466
0.00000 0.69385 0.27373
0.00000 0.69576 0.27190
0.01170 0.69797 0.26863
0.12134 0.70082 0.26350
0.19492 0.70473 0.25589
0.26298 0.71010 0.24521
0.32413 0.71627 0.23298
0.38446 0.72339 0.21733
0.43909 0.73004 0.19486
0.49998 0.73792 0.15927
0.55651 0.74459 0.10588
0.61214 0.74974 0.00000
0.66939 0.75413 0.00000
0.72517 0.75807 0.00000
0.77857 0.76197 0.00000
0.82808 0.76454 0.00000
0.87211 0.76595 0.00000
0.91191 0.76837 0.00000
0.95012 0.76981 0.00000
0.98415 0.77223 0.00000
1.00000 0.77513 0.00000
1.00000 0.77270 0.00598
1.00000 0.76842 0.05067
1.00000 0.76693 0.08633
1.00000 0.76274 0.10720
1.00000 0.75858 0.10832
1.00000 0.75541 0.10706
1.00000 0.75140 0.10768
0.00000 0.73185 0.32177
0.00000 0.73218 0.32140
0.00000 0.73260 0.32104
0.00920 0.73334 0.32062
0.05523 0.73460 0.32008
0.10616 0.73654 0.31910
0.15563 0.73896 0.31712
0.20308 0.74185 0.31389
0.25336 0.74565 0.30874
0.30560 0.75048 0.30137
0.36219 0.75671 0.29185
0.41350 0.76303 0.28131
0.46738 0.77011 0.26644
0.51617 0.77653 0.24223
0.56907 0.78357 0.20348
0.61889 0.78948 0.15058
0.66959 0.79376 0.06606
0.72093 0.79731 0.00000
0.76951 0.79961 0.00000
0.81656 0.80139 0.00000
0.86104 0.80366 0.00000
0.90203 0.80547 0.00000
0.93934 0.80917 0.00000
0.97529 0.80891 0.00000
1.00000 0.81041 0.00000
1.00000 0.81383 0.00000
1.00000 0.80840 0.00000
1.00000 0.80193 0.00065
1.00000 0.79796 0.00300
1.00000 0.79444 0.01336
1.00000 0.78989 0.03981
1.00000 0.78577 0.02850
0.16315 0.76855 0.37031
0.16787 0.76887 0.37009
0.17326 0.76926 0.36989
0.18173 0.76992 0.36967
0.19514 0.77106 0.36940
0.21589 0.77284 0.36873
0.24429 0.77514 0.36715
0.27590 0.77781 0.36466
0.31269 0.78123 0.36079
0.35450 0.78553 0.35502
0.40110 0.79083 0.34752
0.44892 0.79687 0.33935
0.49582 0.80338 0.32955
0.54123 0.80985 0.31358
0.58625 0.81623 0.28680
0.63243 0.82227 0.24700
0.67665 0.82700 0.19796
0.72175 0.83040 0.13216
0.76610 0.83271 0.00000
0.80797 0.83408 0.00000
0.84999 0.83579 0.00000
0.89103 0.83814 0.00000
0.92875 0.84134 0.00000
0.96419 0.84380 0.00000
0.99749 0.84327 0.00000
1.00000 0.84342 0.00000
1.00000 0.84450 0.00000
1.00000 0.84070 0.00000
1.00000 0.83181 0.00000
1.00000 0.82634 0.00000
1.00000 0.82384 0.00000
1.00000 0.81976 0.00000
0.25054 0.80223 0.41434
0.25375 0.80253 0.41421
0.25744 0.80288 0.41412
0.26319 0.80345 0.41407
0.27250 0.80442 0.41398
0.28738 0.80593 0.41355
0.30885 0.80785 0.41228
0.33451 0.81000 0.41001
0.36422 0.81263 0.40684
0.39911 0.81597 0.40211
0.43805 0.82008 0.39563
0.48290 0.82561 0.38875
0.52509 0.83170 0.38285
0.56972 0.83893 0.37474
0.60842 0.84468 0.35742
0.64953 0.85019 0.32890
0.69007 0.85490 0.29135
0.72945 0.85859 0.24741
0.76787 0.86089 0.18708
0.80535 0.86271 0.08193
0.84240 0.86410 0.00000
0.88042 0.86601 0.00000
0.91841 0.86835 0.00000
0.95384 0.87178 0.00000
0.98740 0.87406 0.00000
1.00000 0.87356 0.00000
1.00000 0.87126 0.00000
1.00000 0.87107 0.00000
1.00000 0.86724 0.00000
1.00000 0.85921 0.00000
1.00000 0.85337 0.00000
1.00000 0.85124 0.00000
0.31701 0.83225 0.45495
0.31970 0.83256 0.45486
0.32279 0.83292 0.45480
0.32753 0.83348 0.45477
0.33490 0.83432 0.45468
0.34633 0.83550 0.45422
0.36329 0.83696 0.45300
0.38516 0.83861 0.45081
0.40992 0.84054 0.44790
0.43939 0.84300 0.44375
0.47354 0.84618 0.43807
0.51211 0.85052 0.43174
0.55360 0.85632 0.42724
0.59297 0.86283 0.42328
0.63348 0.86965 0.41488
0.66702 0.87372 0.39513
0.70435 0.87802 0.36798
0.74019 0.88171 0.33467
0.77385 0.88432 0.29213
0.80678 0.88641 0.23192
0.83990 0.88859 0.13861
0.87373 0.89002 0.00000
0.90881 0.89222 0.00000
0.94436 0.89470 0.00000
0.97757 0.89864 0.00000
1.00000 0.90237 0.00000
1.00000 0.89868 0.00000
1.00000 0.89502 0.00000
1.00000 0.89293 0.00000
1.00000 0.89101 0.00000
1.00000 0.88526 0.00000
1.00000 0.87956 0.00000
0.36958 0.85765 0.49021
0.37193 0.85792 0.49008
0.37461 0.85824 0.48996
0.37866 0.85871 0.48981
0.38476 0.85936 0.48957
0.39393 0.86021 0.48902
0.40758 0.86123 0.48777
0.42630 0.86247 0.48563
0.44799 0.86397 0.48292
0.47365 0.86591 0.47942
0.50373 0.86846 0.47475
0.53743 0.87186 0.46917
0.57648 0.87685 0.46451
0.61370 0.88253 0.46171
0.65110 0.88888 0.45809
0.68560 0.89389 0.44717
0.71687 0.89717 0.42795
0.75035 0.90069 0.40418
0.78166 0.90367 0.37349
0.81127 0.90612 0.33138
0.84093 0.90867 0.27360
0.87139 0.91125 0.19174
0.90273 0.91293 0.05276
0.93527 0.91546 0.00000
0.96803 0.91827 0.00000
0.99565 0.92215 0.00000
1.00000 0.92325 0.00000
1.00000 0.92010 0.00000
1.00000 0.91611 0.00000
1.00000 0.91314 0.00000
1.00000 0.91293 0.00000
1.00000 0.90936 0.00000
0.41402 0.87947 0.52154
0.41615 0.87972 0.52140
0.41857 0.88002 0.52126
0.42214 0.88043 0.52105
0.42736 0.88097 0.52070
0.43493 0.88159 0.52000
0.44592 0.88222 0.51854
0.46151 0.88296 0.51621
0.48085 0.88402 0.51344
0.50320 0.88547 0.51034
0.52984 0.88750 0.50655
0.56067 0.89036 0.50200
0.59485 0.89434 0.49753
0.63208 0.89955 0.49477
0.66576 0.90468 0.49184
0.70091 0.91040 0.48732
0.72999 0.91375 0.47467
0.75957 0.91677 0.45825
0.78949 0.92000 0.43775
0.81751 0.92298 0.40917
0.84454 0.92581 0.36942
0.87191 0.92880 0.31622
0.90011 0.93159 0.24508
0.92916 0.93321 0.15732
0.95866 0.93604 0.10442
0.98607 0.93850 0.06111
1.00000 0.94121 0.00000
1.00000 0.94267 0.00000
1.00000 0.93930 0.00000
1.00000 0.93519 0.04252
1.00000 0.93266 0.00000
1.00000 0.93183 0.00000
0.44492 0.89459 0.54419
0.44691 0.89483 0.54402
0.44917 0.89510 0.54383
0.45248 0.89547 0.54355
0.45723 0.89594 0.54314
0.46405 0.89650 0.54244
0.47380 0.89708 0.54118
0.48762 0.89771 0.53915
0.50557 0.89862 0.53665
0.52603 0.89992 0.53406
0.55041 0.90180 0.53119
0.57870 0.90447 0.52787
0.60998 0.90803 0.52430
0.64535 0.91283 0.52160
0.67914 0.91783 0.51957
0.71095 0.92284 0.51674
0.74313 0.92787 0.51176
0.76881 0.93059 0.49985
0.79676 0.93389 0.48749
0.82395 0.93733 0.47040
0.84954 0.94059 0.44476
0.87449 0.94375 0.40821
0.89986 0.94675 0.35910
0.92583 0.94935 0.29790
0.95237 0.95114 0.23346
0.97753 0.95354 0.20309
0.99818 0.95544 0.17653
1.00000 0.95788 0.16124
1.00000 0.95909 0.15141
1.00000 0.95547 0.16589
1.00000 0.95166 0.17052
1.00000 0.94825 0.12033
0.45952 0.90145 0.55464
0.46143 0.90165 0.55445
0.46360 0.90188 0.55424
0.46676 0.90221 0.55395
0.47128 0.90264 0.55354
0.47776 0.90320 0.55295
0.48709 0.90390 0.55205
0.50048 0.90485 0.55073
0.51846 0.90624 0.54916
0.53920 0.90808 0.54765
0.56284 0.91047 0.54622
0.59006 0.91357 0.54472
0.62056 0.91746 0.54291
0.65298 0.92201 0.54101
0.68806 0.92742 0.54023
0.71922 0.93249 0.53912
0.75010 0.93763 0.53709
0.77852 0.94198 0.53208
0.80305 0.94506 0.52323
0.82909 0.94854 0.51409
0.85407 0.95232 0.50015
0.87793 0.95597 0.47720
0.90092 0.95883 0.44141
0.92425 0.96146 0.39581
0.94818 0.96406 0.34668
0.97126 0.96568 0.29854
0.99078 0.96784 0.27976
1.00000 0.97001 0.26875
1.00000 0.97189 0.27007
1.00000 0.97194 0.27129
1.00000 0.96782 0.25855
1.00000 0.96443 0.25095
0.46508 0.90403 0.55849
0.46695 0.90422 0.55828
0.46909 0.90444 0.55805
0.47220 0.90476 0.55775
0.47666 0.90521 0.55738
0.48311 0.90586 0.55696
0.49248 0.90680 0.55650
0.50605 0.90820 0.55604
0.52452 0.91020 0.55562
0.54638 0.91273 0.55533
0.56999 0.91563 0.55516
0.59683 0.91913 0.55515
0.62641 0.92324 0.55492
0.65767 0.92789 0.55429
0.69151 0.93329 0.55403
0.72410 0.93862 0.55385
0.75334 0.94353 0.55252
0.78321 0.94868 0.55078
0.80769 0.95201 0.54386
0.83125 0.95522 0.53736
0.85609 0.95950 0.53236
0.87946 0.96359 0.52011
0.90133 0.96674 0.49594
0.92291 0.96963 0.46344
0.94476 0.97264 0.42703
0.96602 0.97540 0.39068
0.98523 0.97745 0.35742
0.99984 0.98008 0.34998
1.00000 0.98126 0.34448
1.00000 0.98173 0.34562
1.00000 0.98117 0.34525
1.00000 0.97778 0.32752
0.46930 0.90545 0.56117
0.47119 0.90565 0.56096
0.47334 0.90586 0.56073
0.47646 0.90619 0.56042
0.48088 0.90664 0.56006
0.48719 0.90731 0.55968
0.49625 0.90827 0.55932
0.50924 0.90969 0.55901
0.52708 0.91172 0.55881
0.54904 0.91433 0.55872
0.57258 0.91729 0.55875
0.59871 0.92079 0.55913
0.62725 0.92486 0.55962
0.65786 0.92946 0.55975
0.68911 0.93430 0.55919
0.72250 0.93961 0.55869
0.75229 0.94450 0.55699
0.78026 0.94908 0.55346
0.80780 0.95352 0.54888
0.83082 0.95746 0.54393
0.85476 0.96214 0.54379
0.87822 0.96679 0.54087
0.90001 0.97062 0.52801
0.92082 0.97398 0.50596
0.94137 0.97753 0.48060
0.96155 0.98114 0.45392
0.98053 0.98459 0.42958
0.99596 0.98698 0.40764
1.00000 0.98781 0.40040
1.00000 0.98773 0.39550
1.00000 0.98793 0.39744
1.00000 0.98795 0.40125
0.47084 0.90553 0.56165
0.47275 0.90571 0.56143
0.47492 0.90592 0.56119
0.47805 0.90623 0.56087
