cube lut/reala ace_DisplayP3.cube
# DisplayP3
# github.com/abpy/FujifilmCameraProfiles
LUT_3D_SIZE 5
DOMAIN_MIN 0.000000 0.000000 0.000000
DOMAIN_MAX 0.903226 0.903226 0.903226
0.00000 0.00000 0.00000
0.25823 0.02618 0.01269
0.64431 0.12454 0.03289
0.87016 0.27253 0.18169
0.94591 0.36708 0.19281
0.00000 0.22779 0.01828
0.21866 0.23152 0.02696
0.65379 0.22254 0.05444
0.88144 0.33804 0.13434
0.95496 0.42528 0.14523
0.02174 0.55945 0.24353
0.15025 0.55573 0.22278
0.56241 0.58880 0.12693
0.92040 0.60828 0.19253
0.98116 0.59071 0.18322
0.37717 0.80587 0.50288
0.43749 0.82225 0.50643
0.59511 0.84325 0.48257
0.87284 0.87594 0.24956
1.00000 0.85727 0.24954
0.40277 0.86635 0.57866
0.46074 0.87568 0.58548
0.58622 0.89606 0.59199
0.84248 0.94993 0.58359
1.00000 0.98460 0.43721
0.00381 0.00290 0.29558
0.29441 0.05277 0.31875
0.65339 0.12180 0.32057
0.87842 0.27824 0.39252
0.94699 0.36376 0.36246
0.00000 0.22162 0.20352
0.25921 0.26046 0.25978
0.65180 0.26802 0.29449
0.89481 0.35471 0.38181
0.95626 0.41665 0.34529
0.05033 0.56070 0.27842
0.18079 0.56677 0.25342
0.59277 0.61041 0.21421
0.93399 0.63970 0.28465
0.99140 0.61920 0.33005
0.39325 0.81229 0.52309
0.44935 0.82509 0.51410
0.62279 0.85324 0.49181
0.87708 0.89100 0.28584
1.00000 0.88337 0.27170
0.41691 0.86948 0.59482
0.47315 0.87838 0.59698
0.59397 0.89747 0.59187
0.84939 0.95195 0.58437
1.00000 0.98889 0.47748
0.05478 0.01283 0.63295
0.26678 0.08123 0.64327
0.65943 0.28197 0.71085
0.87457 0.42284 0.75297
0.93625 0.46575 0.72256
0.00000 0.23198 0.61648
0.29869 0.29409 0.65178
0.68942 0.39845 0.70049
0.90390 0.50937 0.74935
0.96416 0.55054 0.73862
0.01105 0.58344 0.55947
0.20317 0.60198 0.58540
0.66465 0.66609 0.66550
0.94681 0.68467 0.70622
1.00000 0.70967 0.72199
0.42104 0.81945 0.64941
0.46304 0.82997 0.65694
0.64300 0.86036 0.66970
0.88467 0.89208 0.63341
1.00000 0.88587 0.63864
0.46006 0.87896 0.66775
0.50705 0.88759 0.67418
0.63857 0.91102 0.69256
0.85841 0.96133 0.71985
0.99230 0.98942 0.66534
0.17219 0.09519 0.71439
0.32880 0.15990 0.74294
0.67030 0.34481 0.80092
0.87167 0.50474 0.84797
0.90984 0.56223 0.86285
0.18274 0.29656 0.79120
0.38164 0.35159 0.81077
0.70811 0.48522 0.84984
0.89073 0.60060 0.87956
0.93484 0.64297 0.88323
0.22176 0.61617 0.81421
0.36123 0.63462 0.84555
0.69467 0.69695 0.90438
0.92100 0.74519 0.91467
0.98244 0.77526 0.90300
0.45108 0.81216 0.79103
0.48791 0.81991 0.80215
0.65483 0.85949 0.86035
0.88800 0.88902 0.88851
1.00000 0.88938 0.88867
0.53383 0.89127 0.80254
0.56651 0.89784 0.81040
0.68071 0.92480 0.83796
0.85945 0.96785 0.87201
0.98892 0.99144 0.84883
0.21224 0.16510 0.74412
0.35206 0.21006 0.75773
0.66071 0.36682 0.80901
0.85807 0.50463 0.84607
0.91750 0.58732 0.87265
0.20982 0.32995 0.79890
0.38738 0.36899 0.81804
0.69557 0.49022 0.85193
0.87872 0.59123 0.87558
0.93799 0.66974 0.89974
0.38461 0.66355 0.86567
0.51857 0.69196 0.89569
0.74820 0.74569 0.94236
0.91488 0.79043 0.95285
0.97172 0.81620 0.95381
0.50365 0.81202 0.86559
0.55194 0.82469 0.88677
0.69902 0.86317 0.94815
0.89040 0.89118 0.98884
0.98942 0.90113 0.98152
0.58646 0.89747 0.87835
0.61401 0.90386 0.88753
0.72983 0.93635 0.92355
0.86000 0.97110 0.96842
0.98365 0.98363 0.98369
