cube lut/reala ace_sRGB.cube
# sRGB
# github.com/abpy/FujifilmCameraProfiles
LUT_3D_SIZE 8
DOMAIN_MIN 0.000000 0.000000 0.000000
DOMAIN_MAX 0.903226 0.903226 0.903226
0.00000 0.00000 0.00000
0.06658 0.00186 0.00000
0.30231 0.00936 0.00165
0.54591 0.00778 0.00000
0.73672 0.03672 0.00000
0.87543 0.14404 0.02559
0.97639 0.26496 0.17366
1.00000 0.34131 0.21804
0.00000 0.07066 0.00055
0.08179 0.08935 0.00238
0.32110 0.09055 0.00250
0.55518 0.07677 0.00000
0.74416 0.09775 0.00000
0.88069 0.17982 0.02597
0.98091 0.29200 0.16816
1.00000 0.36375 0.21257
0.00000 0.27354 0.00000
0.00000 0.27738 0.00000
0.26718 0.28523 0.00000
0.53506 0.27883 0.00000
0.74997 0.25939 0.00000
0.89639 0.27695 0.03716
0.99378 0.36268 0.16864
1.00000 0.42211 0.21596
0.00000 0.46496 0.10762
0.00000 0.46636 0.09863
0.16015 0.47519 0.03040
0.45972 0.48601 0.00000
0.71743 0.49574 0.00000
0.90562 0.50362 0.00000
1.00000 0.53295 0.15446
1.00000 0.54485 0.19322
0.00000 0.64720 0.23596
0.00000 0.64978 0.23360
0.15362 0.66035 0.20987
0.42794 0.68640 0.11955
0.67297 0.70737 0.00000
0.88171 0.72354 0.00000
1.00000 0.72970 0.00000
1.00000 0.72503 0.14911
0.25054 0.80223 0.41434
0.27250 0.80442 0.41398
0.36422 0.81263 0.40684
0.52509 0.83170 0.38285
0.69007 0.85490 0.29135
0.84240 0.86410 0.00000
0.98740 0.87406 0.00000
1.00000 0.86724 0.00000
0.44492 0.89459 0.54419
0.45723 0.89594 0.54314
0.50557 0.89862 0.53665
0.60998 0.90803 0.52430
0.74313 0.92787 0.51176
0.84954 0.94059 0.44476
0.95237 0.95114 0.23346
1.00000 0.95909 0.15141
0.47084 0.90553 0.56165
0.48243 0.90667 0.56049
0.52657 0.91138 0.55911
0.62512 0.92425 0.56028
0.74841 0.94345 0.55894
0.85130 0.96199 0.54387
0.93716 0.97909 0.51095
1.00000 0.99079 0.43524
0.00300 0.00125 0.09169
0.10489 0.01872 0.11774
0.32064 0.02017 0.12987
0.54283 0.01140 0.14509
0.74040 0.00063 0.14733
0.87937 0.12872 0.18903
0.97914 0.26104 0.26962
1.00000 0.33825 0.29611
0.00000 0.09550 0.08562
0.11275 0.11352 0.11300
0.32480 0.11040 0.12048
0.54836 0.10790 0.13531
0.74645 0.09665 0.14842
0.88563 0.17013 0.19257
0.98409 0.28999 0.27053
1.00000 0.36136 0.29481
0.00000 0.28156 0.04322
0.00000 0.28515 0.04769
0.28088 0.29290 0.06427
0.53085 0.29505 0.09106
0.74815 0.28201 0.11001
0.90612 0.29237 0.15314
0.99887 0.37001 0.26182
1.00000 0.42620 0.29660
0.00000 0.46561 0.11634
0.00000 0.46777 0.10826
0.17862 0.47801 0.05332
0.47023 0.49204 0.00000
0.72446 0.50902 0.00817
0.91239 0.51913 0.07518
1.00000 0.54727 0.22084
1.00000 0.55678 0.26277
0.00000 0.65000 0.23924
0.00000 0.65307 0.23575
0.18799 0.66550 0.21497
0.44151 0.69205 0.13763
0.68244 0.71222 0.00000
0.88473 0.73013 0.00000
1.00000 0.73569 0.11698
1.00000 0.73148 0.20519
0.26108 0.80335 0.41615
0.28658 0.80568 0.41490
0.37930 0.81409 0.41110
0.53482 0.83464 0.39438
0.69473 0.85651 0.30898
0.84356 0.86814 0.00000
0.98661 0.87924 0.00000
1.00000 0.87014 0.10827
0.44838 0.89409 0.54581
0.46154 0.89552 0.54402
0.51390 0.89918 0.53944
0.61810 0.90998 0.53126
0.74571 0.92867 0.52407
0.84992 0.94204 0.46556
0.95128 0.95525 0.29535
1.00000 0.96260 0.24808
0.47658 0.90613 0.56539
0.48805 0.90726 0.56392
0.53435 0.91238 0.56299
0.63127 0.92543 0.56663
0.75186 0.94420 0.56784
0.85185 0.96270 0.55712
0.93618 0.97985 0.53175
0.99903 0.99144 0.46415
0.00415 0.00227 0.35199
0.09114 0.00892 0.35271
0.33551 0.03386 0.37259
0.55461 0.04024 0.36876
0.74511 0.06246 0.37782
0.88946 0.17699 0.42469
0.98550 0.29529 0.47526
1.00000 0.35217 0.46785
0.00000 0.09963 0.30523
0.11930 0.11762 0.32041
0.33600 0.14496 0.34569
0.55077 0.14871 0.35597
0.74726 0.16934 0.37982
0.90041 0.23262 0.42241
0.99332 0.33641 0.48247
1.00000 0.38621 0.47731
0.00000 0.27760 0.26305
0.00000 0.28955 0.27633
0.30922 0.31078 0.31003
0.54235 0.31106 0.32069
0.75841 0.31955 0.35269
0.92379 0.35595 0.40122
1.00000 0.42573 0.46669
1.00000 0.46515 0.48006
0.00000 0.47793 0.25007
0.00000 0.48280 0.25152
0.19066 0.49742 0.25076
0.50129 0.51429 0.27329
0.74628 0.53448 0.30912
0.92936 0.55139 0.35758
1.00000 0.58559 0.43313
1.00000 0.59654 0.44811
0.00000 0.66490 0.32287
0.00000 0.66903 0.32474
0.21973 0.68390 0.31892
0.47030 0.70720 0.28841
0.70518 0.72597 0.27142
0.89369 0.74148 0.30268
1.00000 0.74573 0.35964
1.00000 0.74348 0.38937
0.27836 0.80772 0.46622
0.31447 0.81029 0.46787
0.40839 0.81926 0.46863
0.55188 0.83893 0.45963
0.70415 0.85789 0.39823
0.84966 0.87102 0.31374
0.98597 0.87889 0.31200
1.00000 0.87063 0.34443
0.45383 0.89198 0.57144
0.47338 0.89383 0.57101
0.53019 0.89942 0.57184
0.63270 0.91217 0.57077
0.74854 0.92874 0.56929
0.84975 0.94368 0.53209
0.94947 0.95840 0.43229
1.00000 0.96200 0.41832
0.48600 0.90880 0.59420
0.50326 0.91045 0.59286
0.55601 0.91665 0.59337
0.64843 0.92945 0.60116
0.75895 0.94669 0.60563
0.85277 0.96498 0.60424
0.93335 0.98141 0.59299
0.99613 0.99145 0.53520
0.01069 0.00306 0.58499
0.07612 0.00306 0.57872
0.31365 0.03772 0.59435
0.55833 0.12800 0.60717
0.74994 0.20049 0.61807
0.88880 0.28951 0.64344
0.98231 0.38795 0.68337
1.00000 0.44974 0.68717
0.00000 0.07396 0.53826
0.11482 0.10068 0.55251
0.33930 0.15149 0.57564
0.56667 0.21094 0.59001
0.76214 0.25980 0.61031
0.90145 0.34164 0.64457
0.99430 0.43028 0.68806
1.00000 0.48905 0.69370
0.00000 0.26984 0.49812
0.01817 0.28397 0.51163
0.32136 0.31845 0.54167
0.57197 0.35183 0.57829
0.78039 0.37795 0.60115
0.92562 0.43418 0.63514
1.00000 0.50855 0.68098
1.00000 0.55596 0.69020
0.00000 0.48187 0.46313
0.00000 0.49257 0.47496
0.22079 0.51836 0.50401
0.54725 0.54924 0.54851
0.77912 0.56263 0.57557
0.94050 0.58205 0.60690
1.00000 0.62105 0.65137
1.00000 0.64574 0.66599
0.00000 0.68568 0.51004
0.00000 0.69202 0.51391
0.26451 0.71006 0.52186
0.50664 0.72734 0.52589
0.73247 0.74225 0.53678
0.90719 0.74718 0.55773
1.00000 0.75190 0.59681
1.00000 0.75975 0.62600
0.29585 0.81531 0.58696
0.33242 0.81804 0.58848
0.42528 0.82708 0.59130
0.56228 0.84247 0.58969
0.71431 0.85893 0.56777
0.85691 0.86889 0.54321
0.98548 0.87166 0.54829
1.00000 0.86728 0.56508
0.45899 0.89283 0.65284
0.48173 0.89497 0.65459
0.54312 0.90129 0.65909
0.64081 0.91375 0.66106
0.74797 0.92774 0.65866
0.84980 0.94384 0.64295
0.94721 0.95297 0.59298
1.00000 0.95283 0.58703
0.50913 0.91533 0.66940
0.52957 0.91759 0.67136
0.58207 0.92407 0.67673
0.66671 0.93596 0.68410
0.76614 0.95242 0.69186
0.85380 0.96931 0.69510
0.92818 0.98212 0.69465
0.99230 0.98883 0.63798
0.10046 0.02370 0.68395
0.15261 0.03529 0.69010
0.32142 0.09994 0.71006
0.55154 0.20632 0.75361
0.74426 0.31920 0.78422
0.87238 0.41038 0.80477
0.96005 0.47700 0.82282
0.99668 0.50860 0.81000
0.09088 0.09115 0.69237
0.17098 0.11449 0.70150
0.35091 0.17289 0.72236
0.57297 0.26585 0.75945
0.75954 0.37293 0.78359
0.88487 0.45198 0.80246
0.97020 0.51267 0.82221
1.00000 0.54717 0.81519
0.00000 0.31770 0.71732
0.15264 0.33273 0.72806
0.37328 0.36777 0.74864
0.59799 0.42285 0.77100
0.78252 0.47446 0.78840
0.90821 0.53012 0.80067
0.98991 0.57892 0.81982
1.00000 0.61544 0.81846
0.00000 0.50049 0.69182
0.00000 0.51005 0.70489
0.29447 0.53410 0.73262
0.57275 0.57321 0.76557
0.78945 0.60559 0.79174
0.93102 0.62838 0.79787
1.00000 0.66036 0.80836
1.00000 0.68686 0.80884
0.00000 0.68807 0.66824
0.10077 0.69409 0.67683
0.30736 0.71012 0.70103
0.52843 0.73179 0.72988
0.75262 0.75428 0.75363
0.91262 0.75502 0.76475
1.00000 0.76224 0.77667
1.00000 0.77298 0.78451
0.33215 0.81670 0.70358
0.36606 0.82069 0.70709
0.44995 0.83113 0.71628
0.57359 0.84622 0.72810
0.71856 0.86076 0.72860
0.86328 0.86700 0.72628
0.98424 0.86646 0.72832
1.00000 0.86420 0.74295
0.48254 0.89619 0.74384
0.50349 0.89836 0.74585
0.55868 0.90465 0.75072
0.64736 0.91573 0.75676
0.74788 0.92987 0.76201
0.84652 0.94236 0.75163
0.94364 0.94660 0.72787
1.00000 0.94545 0.72505
0.53499 0.92080 0.75375
0.55338 0.92329 0.75591
0.60045 0.93007 0.76138
0.67816 0.94230 0.77038
0.77120 0.95883 0.78198
0.85383 0.97324 0.78933
0.92491 0.98150 0.77869
0.98969 0.98790 0.74167
0.17670 0.07467 0.73559
0.21750 0.08807 0.74466
0.36011 0.14790 0.77167
0.57096 0.25203 0.80812
0.74796 0.35836 0.83711
0.87033 0.45827 0.86307
0.95153 0.52865 0.87674
0.97767 0.57125 0.88338
0.19292 0.14690 0.76591
0.24229 0.16181 0.77248
0.38917 0.21503 0.79160
0.59320 0.31214 0.82450
0.75948 0.40678 0.85020
0.87864 0.50388 0.87353
0.95747 0.56768 0.88458
0.98545 0.60223 0.88803
0.18337 0.35531 0.83004
0.27026 0.37478 0.83834
0.43987 0.41618 0.85384
0.62142 0.47035 0.86867
0.78181 0.53124 0.88270
0.89581 0.59024 0.89067
0.96811 0.63814 0.89944
1.00000 0.66415 0.89394
0.11997 0.55045 0.83636
0.22663 0.55777 0.84678
0.40385 0.57835 0.86625
0.60995 0.60980 0.88573
0.78317 0.64758 0.89938
0.90897 0.67768 0.90237
0.98701 0.70534 0.90475
1.00000 0.72964 0.89745
0.12675 0.68971 0.80212
0.21098 0.69476 0.81309
0.36085 0.70821 0.83774
0.55417 0.73233 0.86772
0.75291 0.75895 0.89017
0.90045 0.77224 0.89966
0.99991 0.78235 0.89806
1.00000 0.79576 0.89319
0.36869 0.80865 0.78982
0.39955 0.81295 0.79596
0.46909 0.82410 0.81467
0.57787 0.84223 0.84329
0.72061 0.85979 0.86302
0.86632 0.86765 0.86714
0.98004 0.86873 0.87066
1.00000 0.86992 0.87122
0.50777 0.89388 0.81464
0.52786 0.89661 0.81770
0.57818 0.90395 0.82587
0.65774 0.91688 0.83999
0.74748 0.93214 0.85480
0.83893 0.94240 0.84828
0.94279 0.94343 0.84375
1.00000 0.94373 0.84049
0.56720 0.92667 0.82228
0.58486 0.92956 0.82503
0.62787 0.93665 0.83137
0.69692 0.94872 0.84111
0.77856 0.96348 0.85280
0.85078 0.97381 0.86047
0.92257 0.98211 0.85217
0.98846 0.99146 0.83029
0.19136 0.10783 0.75157
0.23448 0.11811 0.75788
0.37369 0.16993 0.77953
0.57733 0.26550 0.81225
0.74957 0.36338 0.83734
0.86893 0.45603 0.86092
0.95181 0.54152 0.88373
0.97854 0.60636 0.90090
0.19992 0.17657 0.77920
0.25353 0.18713 0.78321
0.39909 0.23276 0.79957
0.59632 0.31922 0.82781
0.76285 0.41278 0.85169
0.87610 0.49702 0.87348
0.95634 0.57866 0.89539
0.98453 0.63995 0.91039
0.19511 0.36303 0.83921
0.27943 0.37857 0.84642
0.44689 0.41909 0.86158
0.62811 0.47226 0.87401
0.78972 0.55278 0.89617
0.89039 0.59704 0.90633
0.96562 0.65895 0.92071
0.99254 0.69868 0.92803
0.30931 0.58936 0.88827
0.36767 0.59631 0.89548
0.49856 0.62106 0.91339
0.65160 0.64740 0.93025
0.79439 0.68206 0.94293
0.90085 0.71185 0.94538
0.97516 0.73517 0.94339
1.00000 0.76768 0.94646
0.29774 0.70401 0.88671
0.34611 0.70866 0.89555
0.45560 0.72138 0.91597
0.61415 0.74702 0.94006
0.77100 0.77204 0.95873
0.89061 0.78934 0.96409
0.97831 0.80582 0.96025
1.00000 0.82076 0.95454
0.40754 0.80584 0.87139
0.43475 0.81034 0.87937
0.50082 0.82185 0.89899
0.60469 0.83991 0.92753
0.73333 0.85884 0.95274
0.86511 0.87011 0.95973
0.96597 0.87434 0.96168
1.00000 0.87809 0.95282
0.54054 0.89171 0.87590
0.55984 0.89489 0.88036
0.60466 0.90306 0.89238
0.66948 0.91624 0.91316
0.74952 0.93000 0.93533
0.84219 0.93832 0.94178
0.93944 0.94009 0.93982
1.00000 0.94000 0.93587
0.59887 0.92967 0.87913
0.61441 0.93245 0.88221
0.65279 0.93957 0.88983
0.71290 0.95112 0.90153
0.78263 0.96383 0.91417
0.84819 0.97410 0.92555
0.91757 0.98580 0.92117
0.98293 0.99022 0.91412
0.21234 0.14649 0.76844
0.25345 0.15492 0.77193
0.38241 0.19808 0.78697
0.57044 0.27892 0.81568
0.74093 0.37307 0.84049
0.85755 0.44925 0.85885
0.94638 0.53750 0.88057
0.97782 0.60033 0.89732
0.21140 0.20768 0.78967
0.26498 0.21869 0.79378
0.40347 0.25794 0.80806
0.58746 0.33119 0.83155
0.75488 0.42316 0.85582
0.86694 0.49325 0.87216
0.95160 0.57101 0.89031
0.98320 0.63448 0.90782
0.20887 0.37502 0.84264
0.28649 0.38800 0.84933
0.44372 0.42279 0.86287
0.62287 0.47536 0.87766
0.77860 0.54584 0.89345
0.88640 0.60269 0.90559
0.96127 0.65350 0.91514
0.99332 0.70838 0.93145
0.34627 0.59978 0.88876
0.40485 0.60924 0.89654
0.52696 0.63420 0.91410
0.67066 0.66309 0.93141
0.79514 0.69098 0.94187
0.90043 0.73402 0.95075
0.96899 0.74950 0.94765
1.00000 0.77904 0.95434
0.43317 0.73594 0.91185
0.46960 0.74068 0.91892
0.54912 0.75135 0.93479
0.67459 0.77576 0.95937
0.79457 0.79375 0.97483
0.89332 0.80960 0.97931
0.96832 0.82507 0.97762
1.00000 0.83523 0.97185
0.47428 0.81622 0.90997
0.49781 0.82049 0.91709
0.55597 0.83137 0.93464
0.65113 0.84743 0.96030
0.76760 0.86385 0.98360
0.87258 0.87280 0.99440
0.95659 0.87893 0.99360
1.00000 0.88584 0.98596
0.57346 0.89159 0.91692
0.58923 0.89493 0.92209
0.62752 0.90308 0.93484
0.68751 0.91480 0.95448
0.76351 0.92645 0.97787
0.84804 0.93508 0.99518
0.93653 0.93649 0.99392
1.00000 0.93553 0.99303
0.63761 0.93511 0.91901
0.65197 0.93820 0.92248
0.68676 0.94586 0.93109
0.73716 0.95636 0.94416
0.78923 0.96625 0.95928
0.84859 0.97581 0.97452
0.91784 0.98195 0.97828
0.98362 0.98364 0.98378
