cube lut/reala ace_DisplayP3.cube
# DisplayP3
# github.com/abpy/FujifilmCameraProfiles
LUT_3D_SIZE 32
0.00000 0.00000 0.00000
0.01207 0.00000 0.00037
0.02500 0.00007 0.00000
0.04179 0.00067 0.00000
0.07304 0.00207 0.00077
0.12381 0.00668 0.00306
0.18865 0.01460 0.00708
0.25823 0.02618 0.01269
0.32737 0.04125 0.01900
0.39117 0.05593 0.02485
0.44862 0.07006 0.02641
0.50070 0.08272 0.02953
0.55102 0.09592 0.03209
0.59928 0.11005 0.03154
0.64431 0.12454 0.03289
0.68684 0.13933 0.04592
0.72546 0.15683 0.06512
0.75972 0.17726 0.07953
0.79025 0.19907 0.10189
0.81859 0.22258 0.12724
0.84496 0.24723 0.15338
0.87016 0.27253 0.18169
0.89337 0.29745 0.20758
0.91269 0.32005 0.23036
0.92747 0.33858 0.24623
0.93666 0.35108 0.24822
0.94100 0.35738 0.23355
0.94363 0.36206 0.21329
0.94591 0.36708 0.19281
0.94812 0.37291 0.17465
0.95097 0.38201 0.16998
0.95665 0.40241 0.20343
0.00000 0.01044 0.00000
0.00877 0.01047 0.00000
0.02367 0.01267 0.00000
0.04074 0.01151 0.00000
0.07206 0.01381 0.00000
0.12149 0.02040 0.00066
0.18852 0.02904 0.00389
0.25889 0.04136 0.00774
0.32797 0.05518 0.01243
0.39215 0.06803 0.01751
0.44980 0.08030 0.01876
0.50204 0.09217 0.02110
0.55246 0.10475 0.02298
0.60076 0.11819 0.02178
0.64565 0.13216 0.02218
0.68802 0.14662 0.03393
0.72654 0.16376 0.05429
0.76070 0.18365 0.06916
0.79118 0.20493 0.09283
0.81950 0.22801 0.11937
0.84586 0.25229 0.14647
0.87105 0.27728 0.17570
0.89426 0.30191 0.20233
0.91355 0.32424 0.22572
0.92831 0.34257 0.24207
0.93745 0.35497 0.24440
0.94172 0.36121 0.22972
0.94427 0.36582 0.20932
0.94648 0.37077 0.18867
0.94864 0.37648 0.17028
0.95143 0.38539 0.16565
0.95706 0.40557 0.20024
0.00000 0.02194 0.00000
0.00443 0.02045 0.00014
0.02111 0.02272 0.00070
0.04220 0.02498 0.00085
0.07427 0.02853 0.00000
0.12176 0.03409 0.00009
0.18972 0.04150 0.00476
0.25907 0.05318 0.00823
0.32739 0.06577 0.01168
0.39219 0.07779 0.01592
0.45022 0.08914 0.01624
0.50288 0.10096 0.01701
0.55357 0.11333 0.01771
0.60210 0.12632 0.01552
0.64691 0.14001 0.01447
0.68915 0.15433 0.02389
0.72762 0.17123 0.04317
0.76172 0.19062 0.05817
0.79216 0.21140 0.08313
0.82049 0.23407 0.11090
0.84685 0.25798 0.13896
0.87203 0.28266 0.16916
0.89525 0.30697 0.19657
0.91452 0.32903 0.22059
0.92924 0.34713 0.23747
0.93835 0.35943 0.24017
0.94254 0.36559 0.22548
0.94500 0.37014 0.20492
0.94714 0.37500 0.18404
0.94923 0.38058 0.16537
0.95195 0.38926 0.16073
0.95752 0.40919 0.19660
0.00000 0.04370 0.00000
0.00000 0.03753 0.00085
0.01557 0.04015 0.00178
0.04201 0.04652 0.00287
0.08014 0.05367 0.00356
0.12393 0.05704 0.00359
0.19311 0.06105 0.00510
0.26126 0.06947 0.00739
0.32777 0.07858 0.01164
0.39236 0.08855 0.01899
0.45011 0.09887 0.01959
0.50324 0.11081 0.01865
0.55444 0.12309 0.01800
0.60348 0.13581 0.01439
0.64825 0.14959 0.01089
0.69040 0.16410 0.01647
0.72889 0.18094 0.03156
0.76296 0.19989 0.04503
0.79343 0.22015 0.07107
0.82180 0.24238 0.10007
0.84818 0.26589 0.12915
0.87337 0.29021 0.16048
0.89662 0.31415 0.18887
0.91588 0.33584 0.21367
0.93056 0.35364 0.23120
0.93963 0.36583 0.23442
0.94370 0.37190 0.21970
0.94605 0.37635 0.19887
0.94809 0.38109 0.17764
0.95008 0.38648 0.15851
0.95271 0.39484 0.15378
0.95818 0.41438 0.19143
0.00000 0.07850 0.00031
0.00000 0.06979 0.00288
0.00555 0.07103 0.00372
0.03223 0.07736 0.00518
0.07862 0.08498 0.00679
0.12803 0.08813 0.00772
0.19493 0.09280 0.01001
0.26241 0.09814 0.01061
0.32798 0.10102 0.01294
0.39364 0.10474 0.02098
0.45075 0.11200 0.02268
0.50387 0.12290 0.02365
0.55532 0.13410 0.02572
0.60488 0.14607 0.02309
0.64947 0.16017 0.01669
0.69156 0.17508 0.01718
0.73017 0.19200 0.02668
0.76429 0.21078 0.03491
0.79485 0.23068 0.05971
0.82335 0.25262 0.08886
0.84981 0.27583 0.11838
0.87503 0.29985 0.15057
0.89835 0.32344 0.17987
0.91760 0.34474 0.20541
0.93225 0.36221 0.22360
0.94130 0.37428 0.22744
0.94524 0.38027 0.21265
0.94744 0.38461 0.19143
0.94935 0.38921 0.16968
0.95122 0.39436 0.14982
0.95371 0.40228 0.14478
0.95906 0.42129 0.18468
0.00000 0.12290 0.00132
0.00000 0.11490 0.00417
0.00000 0.11178 0.00555
0.01385 0.11663 0.00681
0.05893 0.12245 0.00833
0.11912 0.12830 0.01027
0.18660 0.13388 0.01292
0.25863 0.13841 0.01715
0.32369 0.13658 0.02008
0.39047 0.13491 0.02743
0.45011 0.13689 0.02725
0.50491 0.14202 0.02672
0.55704 0.14948 0.03242
0.60709 0.15906 0.03634
0.65095 0.17285 0.03003
0.69274 0.18765 0.02808
0.73148 0.20422 0.03364
0.76566 0.22282 0.03582
0.79637 0.24240 0.05487
0.82505 0.26418 0.08120
0.85164 0.28724 0.10935
0.87691 0.31113 0.14132
0.90036 0.33452 0.17098
0.91965 0.35554 0.19687
0.93428 0.37271 0.21547
0.94334 0.38473 0.21991
0.94715 0.39069 0.20502
0.94917 0.39493 0.18326
0.95093 0.39938 0.16077
0.95265 0.40426 0.13984
0.95498 0.41166 0.13408
0.96016 0.42994 0.17649
0.00000 0.17359 0.00508
0.00000 0.16701 0.00628
0.00000 0.16219 0.00830
0.00000 0.16251 0.00969
0.02775 0.16649 0.01069
0.09492 0.17136 0.01235
0.16600 0.17654 0.01512
0.24766 0.18581 0.02359
0.31356 0.18428 0.02665
0.37798 0.17868 0.03985
0.44342 0.17762 0.03548
0.50278 0.17627 0.03841
0.55772 0.17678 0.04509
0.60943 0.18045 0.04860
0.65284 0.19135 0.04014
0.69438 0.20426 0.03934
0.73316 0.21907 0.04680
0.76732 0.23684 0.04679
0.79813 0.25572 0.05977
0.82697 0.27713 0.08099
0.85370 0.29997 0.10553
0.87900 0.32372 0.13542
0.90260 0.34703 0.16433
0.92195 0.36786 0.18972
0.93658 0.38481 0.20814
0.94568 0.39689 0.21299
0.94938 0.40292 0.19791
0.95121 0.40714 0.17546
0.95281 0.41149 0.15205
0.95437 0.41612 0.12968
0.95651 0.42293 0.12250
0.96147 0.44029 0.16723
0.00000 0.22779 0.01828
0.00000 0.22387 0.01667
0.00000 0.22019 0.01643
0.00000 0.21795 0.01668
0.00000 0.22017 0.01779
0.05470 0.22276 0.01846
0.13646 0.22628 0.02060
0.21866 0.23152 0.02696
0.29823 0.23608 0.03494
0.36247 0.23084 0.04466
0.43034 0.22685 0.04529
0.49394 0.22370 0.05290
0.55216 0.22019 0.06165
0.60766 0.21898 0.06418
0.65379 0.22254 0.05444
0.69598 0.22912 0.04883
0.73512 0.24004 0.05549
0.76950 0.25533 0.05573
0.80044 0.27222 0.06654
0.82942 0.29242 0.08536
0.85624 0.31463 0.10713
0.88144 0.33804 0.13434
0.90518 0.36122 0.16174
0.92457 0.38178 0.18577
0.93914 0.39841 0.20322
0.94832 0.41055 0.20818
0.95190 0.41672 0.19285
0.95354 0.42097 0.16966
0.95496 0.42528 0.14523
0.95635 0.42971 0.12116
0.95829 0.43593 0.11162
0.96298 0.45218 0.15763
0.00000 0.27973 0.04867
0.00000 0.27740 0.04568
0.00000 0.27503 0.04338
0.00000 0.27284 0.04120
0.00000 0.27311 0.04047
0.01318 0.27437 0.03917
0.10318 0.27600 0.03594
0.18542 0.27874 0.03357
0.26731 0.28236 0.03771
0.34487 0.28418 0.04839
0.41202 0.28044 0.05717
0.47920 0.27731 0.06392
0.54080 0.27300 0.07512
0.59913 0.26955 0.07516
0.65056 0.26760 0.07068
0.69585 0.26826 0.06872
0.73671 0.27307 0.07217
0.77195 0.28188 0.06513
0.80329 0.29451 0.06917
0.83261 0.31219 0.08671
0.85958 0.33271 0.10834
0.88454 0.35491 0.13480
0.90831 0.37766 0.16193
0.92766 0.39782 0.18508
0.94208 0.41397 0.20145
0.95132 0.42600 0.20658
0.95475 0.43221 0.19132
0.95616 0.43640 0.16766
0.95739 0.44063 0.14249
0.95859 0.44486 0.11683
0.96031 0.45047 0.10394
0.96467 0.46541 0.14888
0.00000 0.32877 0.08433
0.00000 0.32699 0.08232
0.00000 0.32498 0.08077
0.00000 0.32252 0.07935
0.00000 0.32120 0.07832
0.01067 0.32207 0.07594
0.08441 0.32357 0.06975
0.15654 0.32611 0.05875
0.23333 0.32863 0.04934
0.31416 0.33142 0.05274
0.39006 0.33174 0.06400
0.46197 0.33233 0.07128
0.52482 0.32809 0.08127
0.58661 0.32341 0.08315
0.64179 0.31990 0.08436
0.69133 0.31732 0.08809
0.73601 0.31877 0.09503
0.77414 0.32207 0.08627
0.80684 0.32774 0.08115
0.83664 0.33951 0.08879
0.86382 0.35619 0.10607
0.88852 0.37608 0.13191
0.91225 0.39773 0.16047
0.93141 0.41677 0.18437
0.94549 0.43192 0.20074
0.95473 0.44360 0.20703
0.95802 0.44981 0.19309
0.95916 0.45385 0.17017
0.96017 0.45787 0.14535
0.96114 0.46176 0.11910
0.96260 0.46665 0.10257
0.96655 0.47996 0.14265
0.00000 0.37666 0.11746
0.00000 0.37526 0.11586
0.00000 0.37362 0.11455
0.00000 0.37137 0.11330
0.00000 0.36930 0.11207
0.02454 0.36908 0.11028
0.07876 0.37008 0.10519
0.14114 0.37223 0.09470
0.20878 0.37570 0.08000
0.28190 0.37725 0.06441
0.35902 0.37834 0.06790
0.43961 0.38322 0.07696
0.50813 0.38224 0.08562
0.57015 0.37949 0.09161
0.62961 0.37425 0.09520
0.68165 0.37021 0.10327
0.73262 0.37119 0.11314
0.77450 0.37185 0.10506
0.81019 0.37368 0.10393
0.84180 0.37978 0.10625
0.86971 0.39006 0.11271
0.89371 0.40424 0.12977
0.91707 0.42286 0.15608
0.93596 0.44000 0.18046
0.94951 0.45352 0.19761
0.95858 0.46410 0.20609
0.96167 0.46981 0.19499
0.96255 0.47354 0.17474
0.96335 0.47730 0.15236
0.96409 0.48082 0.12767
0.96527 0.48492 0.10900
0.96869 0.49620 0.14049
0.00000 0.42415 0.14871
0.00000 0.42315 0.14714
0.00000 0.42192 0.14569
0.00000 0.42002 0.14408
0.00863 0.41762 0.14232
0.04224 0.41574 0.14034
0.08142 0.41558 0.13689
0.13208 0.41728 0.13000
0.19429 0.42015 0.11688
0.26091 0.42432 0.10069
0.33102 0.42617 0.08118
0.40736 0.42869 0.08204
0.48700 0.43395 0.08947
0.55386 0.43324 0.09875
0.61537 0.43153 0.10451
0.67074 0.42635 0.11450
0.72543 0.42633 0.12084
0.77254 0.42752 0.11921
0.81191 0.42784 0.12577
0.84623 0.42987 0.12999
0.87672 0.43645 0.13426
0.90092 0.44460 0.14157
0.92370 0.45775 0.15877
0.94182 0.47015 0.17789
0.95426 0.47993 0.19222
0.96293 0.48849 0.20176
0.96576 0.49331 0.19402
0.96635 0.49624 0.17772
0.96692 0.49925 0.15934
0.96743 0.50215 0.13830
0.96835 0.50549 0.12038
0.97120 0.51457 0.14245
0.00000 0.47090 0.17934
0.00000 0.47039 0.17770
0.00000 0.46974 0.17608
0.00000 0.46869 0.17416
0.03173 0.46720 0.17207
0.06537 0.46545 0.16980
0.09104 0.46447 0.16724
0.12984 0.46501 0.16224
0.18589 0.46780 0.15354
0.24890 0.47163 0.14006
0.31456 0.47572 0.12002
0.38371 0.47902 0.09879
0.45847 0.48162 0.09549
0.53368 0.48464 0.10211
0.60186 0.48745 0.11272
0.65967 0.48508 0.12084
0.71720 0.48562 0.12754
0.76856 0.48502 0.12908
0.81186 0.48584 0.14107
0.84887 0.48711 0.15144
0.88253 0.49030 0.15832
0.90876 0.49468 0.16266
0.93225 0.50416 0.17493
0.95003 0.51180 0.18785
0.96073 0.51565 0.19405
0.96824 0.51935 0.19929
0.97039 0.52120 0.19159
0.97057 0.52257 0.17801
0.97094 0.52456 0.16379
0.97121 0.52647 0.14719
0.97188 0.52874 0.13199
0.97413 0.53533 0.14643
0.00000 0.51590 0.21043
0.00000 0.51566 0.20861
0.00000 0.51533 0.20670
0.02551 0.51476 0.20425
0.05974 0.51386 0.20145
0.08707 0.51268 0.19854
0.10727 0.51162 0.19592
0.13466 0.51158 0.19217
0.17976 0.51316 0.18606
0.24006 0.51700 0.17664
0.30262 0.52151 0.16253
0.36828 0.52610 0.13985
0.43706 0.53061 0.11989
0.50838 0.53275 0.11110
0.58311 0.53933 0.11552
0.64887 0.54306 0.12893
0.70888 0.54393 0.13508
0.76236 0.54593 0.13917
0.81041 0.54475 0.15092
0.85108 0.54712 0.16519
0.88645 0.54894 0.17483
0.91565 0.55099 0.18235
0.94084 0.55652 0.19459
0.95960 0.56180 0.20859
0.96938 0.56215 0.21053
0.97532 0.56057 0.20891
0.97638 0.55760 0.19757
0.97563 0.55493 0.18248
0.97545 0.55384 0.16835
0.97538 0.55393 0.15399
0.97586 0.55511 0.14170
0.97756 0.55920 0.15030
0.02174 0.55945 0.24353
0.03875 0.55939 0.24162
0.05586 0.55925 0.23951
0.07501 0.55892 0.23666
0.09507 0.55830 0.23316
0.11486 0.55729 0.22929
0.13242 0.55614 0.22575
0.15025 0.55573 0.22278
0.18389 0.55700 0.21824
0.23550 0.56079 0.21193
0.29653 0.56590 0.20168
0.35883 0.57191 0.18624
0.42514 0.57867 0.16402
0.49230 0.58420 0.14252
0.56241 0.58880 0.12693
0.63362 0.59616 0.12893
0.69890 0.60110 0.14098
0.75529 0.60304 0.14892
0.80522 0.60505 0.15856
0.84932 0.60535 0.16980
0.88852 0.60682 0.17998
0.92040 0.60828 0.19253
0.94792 0.61169 0.20953
0.96885 0.61528 0.23006
0.97871 0.61328 0.23342
0.98358 0.60919 0.23003
0.98408 0.60336 0.21749
0.98224 0.59654 0.20039
0.98116 0.59071 0.18322
0.98034 0.58670 0.16654
0.98030 0.58493 0.15274
0.98139 0.58600 0.15419
0.09828 0.60194 0.27944
0.10655 0.60208 0.27764
0.11521 0.60219 0.27562
0.12647 0.60222 0.27282
0.13978 0.60208 0.26926
0.15441 0.60167 0.26515
0.16921 0.60104 0.26105
0.18274 0.60068 0.25788
0.20382 0.60176 0.25509
0.24375 0.60468 0.25017
0.29884 0.61127 0.24339
0.35806 0.61741 0.23085
0.41968 0.62539 0.21316
0.48497 0.63389 0.19121
0.54997 0.64047 0.16526
0.61669 0.64557 0.14533
0.68367 0.65215 0.14464
0.74618 0.65810 0.15540
0.79833 0.65915 0.16419
0.84465 0.66237 0.17384
0.88567 0.66222 0.18355
0.92184 0.66206 0.19595
0.95203 0.66448 0.21589
0.97577 0.66697 0.24296
0.98746 0.66531 0.25347
0.99160 0.65926 0.25242
0.99222 0.65214 0.24161
0.99006 0.64443 0.22743
0.98830 0.63552 0.21050
0.98661 0.62717 0.19169
0.98575 0.62121 0.17411
0.98593 0.61765 0.16473
0.15738 0.64305 0.31762
0.16302 0.64342 0.31606
0.16916 0.64379 0.31429
0.17747 0.64423 0.31179
0.18778 0.64462 0.30856
0.19977 0.64486 0.30473
0.21291 0.64485 0.30073
0.22573 0.64472 0.29741
0.23935 0.64526 0.29523
0.26642 0.64795 0.29238
0.30996 0.65293 0.28591
0.36455 0.66083 0.27598
0.42142 0.66932 0.26083
0.48241 0.67891 0.24061
0.54462 0.68809 0.21924
0.60697 0.69459 0.18785
0.66831 0.69868 0.16566
0.73375 0.70666 0.16168
0.78888 0.70949 0.17000
0.83809 0.71102 0.17835
0.87980 0.71252 0.18816
0.91858 0.71294 0.19842
0.95226 0.71239 0.21654
0.97933 0.71363 0.24647
0.99389 0.71222 0.26322
0.99820 0.70608 0.26627
0.99975 0.69957 0.26174
0.99784 0.69206 0.25170
0.99588 0.68233 0.23775
0.99382 0.67237 0.22217
0.99231 0.66372 0.20472
0.99156 0.65592 0.18715
0.21073 0.68211 0.35728
0.21530 0.68271 0.35604
0.22034 0.68334 0.35462
0.22723 0.68418 0.35256
0.23587 0.68514 0.34978
0.24599 0.68610 0.34628
0.25719 0.68693 0.34221
0.26864 0.68756 0.33818
0.27949 0.68820 0.33515
0.29719 0.69056 0.33325
0.33085 0.69490 0.32909
0.37827 0.70207 0.32152
0.43290 0.71119 0.31035
0.48816 0.72014 0.29437
0.54701 0.72992 0.27270
0.60408 0.73858 0.24574
0.66258 0.74447 0.21050
0.72185 0.74966 0.18900
0.77768 0.75332 0.17896
0.82897 0.75372 0.18332
0.87247 0.75466 0.19146
0.91291 0.75529 0.20022
0.94785 0.75725 0.21404
0.97942 0.75415 0.24284
0.99785 0.75333 0.26370
1.00000 0.74704 0.26942
1.00000 0.74082 0.27017
1.00000 0.73419 0.26615
1.00000 0.72648 0.25809
1.00000 0.71615 0.24545
0.99908 0.70689 0.23178
0.99799 0.69799 0.21529
0.26035 0.71840 0.39734
0.26455 0.71919 0.39654
0.26921 0.72005 0.39559
0.27566 0.72121 0.39420
0.28384 0.72262 0.39227
0.29352 0.72416 0.38974
0.30437 0.72568 0.38660
0.31582 0.72703 0.38310
0.32679 0.72823 0.38001
0.33924 0.73017 0.37815
0.36418 0.73459 0.37677
0.40308 0.74059 0.37229
0.45283 0.74924 0.36535
0.50493 0.75806 0.35298
0.55675 0.76644 0.33532
0.60959 0.77548 0.30779
0.66081 0.78276 0.27269
0.71433 0.78771 0.23411
0.76734 0.79150 0.21215
0.81684 0.79092 0.19085
0.86306 0.79078 0.19423
0.90484 0.79122 0.20167
0.94180 0.79242 0.21196
0.97426 0.79289 0.23141
0.99901 0.78956 0.25638
1.00000 0.78288 0.26293
1.00000 0.77736 0.26854
1.00000 0.76994 0.26764
1.00000 0.76309 0.26604
1.00000 0.75535 0.25826
1.00000 0.74716 0.24964
1.00000 0.73813 0.23658
0.30533 0.75145 0.43602
0.30945 0.75240 0.43566
0.31405 0.75345 0.43522
0.32046 0.75488 0.43456
0.32868 0.75667 0.43359
0.33853 0.75868 0.43224
0.34973 0.76075 0.43042
0.36184 0.76264 0.42817
0.37403 0.76423 0.42584
0.38570 0.76583 0.42419
0.40309 0.76925 0.42371
0.43346 0.77446 0.42141
0.47437 0.78094 0.41585
0.52268 0.78906 0.40677
0.57148 0.79713 0.39293
0.61841 0.80485 0.37140
0.66620 0.81351 0.33937
0.71220 0.81901 0.29848
0.75967 0.82298 0.25672
0.80606 0.82359 0.22448
0.85152 0.82293 0.20081
0.89407 0.82262 0.20264
0.93303 0.82285 0.21250
0.96771 0.82330 0.22463
0.99553 0.82384 0.24289
1.00000 0.81776 0.25333
1.00000 0.80985 0.25927
1.00000 0.80310 0.26065
1.00000 0.79587 0.26091
1.00000 0.78843 0.26013
1.00000 0.78158 0.25462
1.00000 0.77518 0.24940
0.34457 0.78080 0.47163
0.34871 0.78189 0.47167
0.35336 0.78311 0.47169
0.35987 0.78481 0.47169
0.36827 0.78695 0.47160
0.37841 0.78945 0.47134
0.39003 0.79212 0.47076
0.40269 0.79472 0.46974
0.41571 0.79696 0.46828
0.42806 0.79875 0.46681
0.44119 0.80081 0.46591
0.46341 0.80453 0.46494
0.49647 0.80891 0.46030
0.53798 0.81459 0.45246
0.58449 0.82200 0.44157
0.63036 0.82969 0.42687
0.67414 0.83761 0.40284
0.71780 0.84526 0.36953
0.75910 0.84939 0.32546
0.79999 0.85210 0.27655
0.84165 0.85170 0.23640
0.88242 0.85109 0.21032
0.92140 0.85077 0.21099
0.95813 0.84963 0.22258
0.98945 0.85057 0.23418
1.00000 0.84863 0.24424
1.00000 0.84375 0.25031
1.00000 0.83426 0.25474
1.00000 0.82692 0.25267
1.00000 0.81944 0.25621
1.00000 0.81235 0.25263
1.00000 0.80637 0.25015
0.37717 0.80587 0.50288
0.38138 0.80708 0.50326
0.38613 0.80843 0.50367
0.39282 0.81034 0.50424
0.40149 0.81279 0.50491
0.41202 0.81571 0.50561
0.42415 0.81894 0.50619
0.43749 0.82225 0.50643
0.45141 0.82531 0.50615
0.46494 0.82787 0.50548
0.47762 0.83003 0.50484
0.49346 0.83242 0.50374
0.51954 0.83532 0.50021
0.55384 0.83857 0.49273
0.59511 0.84325 0.48257
0.64020 0.85090 0.47161
0.68265 0.85799 0.45572
0.72381 0.86559 0.43183
0.76411 0.87198 0.39959
0.79939 0.87482 0.35059
0.83555 0.87696 0.29649
0.87284 0.87594 0.24956
0.90979 0.87573 0.21990
0.94643 0.87523 0.22008
0.98092 0.87331 0.23157
0.99932 0.87320 0.23847
1.00000 0.87116 0.24492
1.00000 0.86575 0.24861
1.00000 0.85727 0.24954
1.00000 0.84937 0.24993
1.00000 0.84197 0.25035
1.00000 0.83550 0.24801
0.40212 0.82617 0.52870
0.40643 0.82744 0.52935
0.41130 0.82888 0.53007
0.41820 0.83093 0.53110
0.42718 0.83359 0.53240
0.43817 0.83682 0.53393
0.45094 0.84049 0.53553
0.46508 0.84437 0.53697
0.47996 0.84810 0.53790
0.49459 0.85124 0.53807
0.50777 0.85350 0.53756
0.52058 0.85518 0.53645
0.53960 0.85696 0.53358
0.56823 0.85924 0.52760
0.60393 0.86224 0.51817
0.64603 0.86775 0.50803
0.68888 0.87544 0.49770
0.72725 0.88140 0.48082
0.76630 0.88883 0.45834
0.80195 0.89365 0.42592
0.83369 0.89645 0.37528
0.86678 0.89831 0.31841
0.90092 0.89711 0.26291
0.93545 0.89806 0.23108
0.96983 0.89726 0.23054
0.99401 0.89436 0.23708
1.00000 0.89313 0.24145
1.00000 0.89029 0.24526
1.00000 0.88481 0.24710
1.00000 0.87838 0.24795
1.00000 0.86984 0.24842
1.00000 0.86253 0.24935
0.41842 0.84136 0.54829
0.42277 0.84263 0.54909
0.42772 0.84409 0.55001
0.43473 0.84617 0.55131
0.44394 0.84890 0.55303
0.45529 0.85228 0.55513
0.46864 0.85623 0.55751
0.48367 0.86058 0.56001
0.49985 0.86506 0.56231
0.51627 0.86921 0.56401
0.53156 0.87252 0.56480
0.54487 0.87475 0.56464
0.55901 0.87592 0.56237
0.58122 0.87689 0.55704
0.61230 0.87910 0.54962
0.64992 0.88275 0.54008
0.69196 0.88948 0.53130
0.73146 0.89635 0.52043
0.76688 0.90199 0.50376
0.80307 0.90878 0.48275
0.83493 0.91274 0.44977
0.86445 0.91590 0.40021
0.89523 0.91737 0.33986
0.92689 0.91696 0.27885
0.95890 0.91841 0.24622
0.98641 0.91718 0.24135
1.00000 0.91230 0.24234
1.00000 0.91212 0.24414
1.00000 0.90807 0.24495
1.00000 0.90422 0.24652
1.00000 0.89784 0.24736
1.00000 0.88983 0.24853
0.42590 0.85162 0.56158
0.43019 0.85282 0.56240
0.43507 0.85418 0.56335
0.44201 0.85614 0.56470
0.45115 0.85873 0.56649
0.46248 0.86196 0.56871
0.47591 0.86579 0.57132
0.49121 0.87013 0.57418
0.50801 0.87478 0.57709
0.52563 0.87944 0.57972
0.54289 0.88362 0.58170
0.55825 0.88680 0.58271
0.57220 0.88883 0.58230
0.59021 0.88983 0.57893
0.61735 0.89157 0.57335
0.65200 0.89517 0.56655
0.69190 0.90074 0.55924
0.73265 0.90843 0.55214
0.76918 0.91470 0.54117
0.80246 0.92045 0.52608
0.83571 0.92669 0.50646
0.86457 0.93018 0.47343
0.89205 0.93348 0.42438
0.92085 0.93495 0.36102
0.95014 0.93470 0.29747
0.97790 0.93641 0.26553
0.99759 0.93446 0.25665
1.00000 0.93004 0.25228
1.00000 0.92938 0.24998
1.00000 0.92653 0.24920
1.00000 0.92311 0.24875
1.00000 0.91846 0.25082
0.42598 0.85797 0.56971
0.43013 0.85901 0.57046
0.43484 0.86021 0.57131
0.44155 0.86192 0.57253
0.45038 0.86419 0.57414
0.46135 0.86703 0.57612
0.47436 0.87040 0.57843
0.48924 0.87424 0.58096
0.50569 0.87840 0.58354
0.52322 0.88266 0.58590
0.54099 0.88668 0.58777
0.55772 0.89005 0.58893
0.57269 0.89254 0.58933
0.58933 0.89457 0.58845
0.61453 0.89732 0.58599
0.64823 0.90209 0.58292
0.68757 0.90872 0.57953
0.72969 0.91693 0.57617
0.76883 0.92517 0.57098
0.80261 0.93099 0.56081
0.83455 0.93721 0.54854
0.86466 0.94258 0.52971
0.89096 0.94597 0.49697
0.91691 0.94924 0.44669
0.94384 0.95053 0.38175
0.97055 0.95080 0.32130
0.99154 0.95236 0.29765
1.00000 0.95035 0.28638
1.00000 0.94342 0.27353
1.00000 0.94301 0.26568
1.00000 0.94274 0.26535
1.00000 0.93897 0.26124
0.42095 0.86179 0.57442
0.42495 0.86267 0.57506
0.42949 0.86368 0.57579
0.43595 0.86513 0.57683
0.44445 0.86705 0.57819
0.45501 0.86944 0.57986
0.46755 0.87228 0.58177
0.48191 0.87553 0.58384
0.49786 0.87907 0.58590
0.51503 0.88276 0.58775
0.53282 0.88638 0.58915
0.55034 0.88965 0.59002
0.56657 0.89240 0.59046
0.58289 0.89497 0.59071
0.60625 0.89877 0.59107
0.63992 0.90481 0.59143
0.67920 0.91259 0.59162
0.72174 0.92166 0.59191
0.76317 0.93070 0.58989
0.79966 0.93822 0.58457
0.83148 0.94413 0.57612
0.86110 0.94982 0.56425
0.88936 0.95540 0.54794
0.91392 0.95881 0.51467
0.93847 0.96224 0.46572
0.96370 0.96393 0.40752
0.98520 0.96450 0.35877
1.00000 0.96622 0.34282
1.00000 0.96325 0.33107
1.00000 0.95698 0.30756
1.00000 0.95669 0.30518
1.00000 0.95542 0.29916
0.41277 0.86430 0.57710
0.41664 0.86503 0.57765
0.42104 0.86586 0.57827
0.42730 0.86706 0.57916
0.43555 0.86865 0.58031
0.44581 0.87063 0.58171
0.45801 0.87301 0.58333
0.47205 0.87574 0.58506
0.48773 0.87876 0.58680
0.50481 0.88200 0.58838
0.52288 0.88532 0.58965
0.54133 0.88858 0.59053
0.55918 0.89162 0.59117
0.57623 0.89446 0.59185
0.59640 0.89792 0.59262
0.62678 0.90338 0.59357
0.66505 0.91076 0.59422
0.70649 0.91945 0.59486
0.74855 0.92865 0.59477
0.78822 0.93774 0.59202
0.82280 0.94507 0.58615
0.85287 0.95128 0.57868
0.88238 0.95834 0.57067
0.90908 0.96395 0.55459
0.93315 0.96845 0.52585
0.95660 0.97272 0.48639
0.97866 0.97490 0.43899
0.99636 0.97636 0.40307
1.00000 0.97664 0.38952
1.00000 0.97370 0.37836
1.00000 0.96883 0.35894
1.00000 0.96872 0.35530
0.40277 0.86635 0.57866
0.40654 0.86694 0.57913
0.41083 0.86762 0.57966
0.41693 0.86858 0.58042
