cube lut/reala ace_DisplayP3.cube
# DisplayP3
# github.com/abpy/FujifilmCameraProfiles
LUT_3D_SIZE 8
DOMAIN_MIN 0.000000 0.000000 0.000000
DOMAIN_MAX 0.903226 0.903226 0.903226
0.00000 0.00000 0.00000
0.07304 0.00207 0.00077
0.32737 0.04125 0.01900
0.55102 0.09592 0.03209
0.72546 0.15683 0.06512
0.84496 0.24723 0.15338
0.92747 0.33858 0.24623
0.94591 0.36708 0.19281
0.00000 0.07850 0.00031
0.07862 0.08498 0.00679
0.32798 0.10102 0.01294
0.55532 0.13410 0.02572
0.73017 0.19200 0.02668
0.84981 0.27583 0.11838
0.93225 0.36221 0.22360
0.94935 0.38921 0.16968
0.00000 0.27973 0.04867
0.00000 0.27311 0.04047
0.26731 0.28236 0.03771
0.54080 0.27300 0.07512
0.73671 0.27307 0.07217
0.85958 0.33271 0.10834
0.94208 0.41397 0.20145
0.95739 0.44063 0.14249
0.00000 0.47090 0.17934
0.03173 0.46720 0.17207
0.18589 0.46780 0.15354
0.45847 0.48162 0.09549
0.71720 0.48562 0.12754
0.88253 0.49030 0.15832
0.96073 0.51565 0.19405
0.97094 0.52456 0.16379
0.15738 0.64305 0.31762
0.18778 0.64462 0.30856
0.23935 0.64526 0.29523
0.42142 0.66932 0.26083
0.66831 0.69868 0.16566
0.87980 0.71252 0.18816
0.99389 0.71222 0.26322
0.99588 0.68233 0.23775
0.34457 0.78080 0.47163
0.36827 0.78695 0.47160
0.41571 0.79696 0.46828
0.49647 0.80891 0.46030
0.67414 0.83761 0.40284
0.84165 0.85170 0.23640
0.98945 0.85057 0.23418
1.00000 0.82692 0.25267
0.42590 0.85162 0.56158
0.45115 0.85873 0.56649
0.50801 0.87478 0.57709
0.57220 0.88883 0.58230
0.69190 0.90074 0.55924
0.83571 0.92669 0.50646
0.95014 0.93470 0.29747
1.00000 0.92938 0.24998
0.40277 0.86635 0.57866
0.42499 0.86987 0.58141
0.47623 0.87823 0.58698
0.54944 0.89007 0.59075
0.64797 0.90720 0.59342
0.80944 0.94238 0.58916
0.92604 0.97043 0.55659
1.00000 0.98460 0.43721
0.00307 0.00199 0.09535
0.11451 0.02137 0.12411
0.33756 0.04870 0.13899
0.55254 0.09100 0.15649
0.73046 0.14587 0.18349
0.84817 0.24390 0.24277
0.93020 0.33899 0.31360
0.94634 0.36515 0.26146
0.00000 0.08823 0.07705
0.11288 0.11349 0.11304
0.33039 0.12012 0.12775
0.55454 0.13625 0.14618
0.73513 0.17615 0.16825
0.85279 0.26879 0.22157
0.93472 0.36034 0.29568
0.94976 0.38625 0.24494
0.00000 0.27667 0.08094
0.00000 0.28146 0.07222
0.28006 0.29042 0.08384
0.53796 0.29041 0.10920
0.74414 0.28249 0.14434
0.86530 0.33169 0.20876
0.94456 0.41154 0.27961
0.95790 0.43672 0.22844
0.00000 0.46892 0.18870
0.05306 0.46605 0.17316
0.20598 0.47072 0.14987
0.46701 0.48669 0.09685
0.72133 0.50109 0.13897
0.89003 0.50659 0.19011
0.96564 0.52582 0.25885
0.97302 0.52782 0.23495
0.16427 0.64490 0.32466
0.19551 0.64659 0.31262
0.24847 0.64916 0.29796
0.43534 0.67472 0.25970
0.67626 0.70462 0.16299
0.88152 0.71978 0.19029
0.99625 0.72197 0.27440
0.99899 0.69396 0.27626
0.35094 0.78369 0.47890
0.37436 0.78951 0.47711
0.42137 0.79844 0.46940
0.50607 0.81158 0.46002
0.68299 0.84318 0.40791
0.84393 0.85717 0.24076
0.98856 0.86020 0.23303
1.00000 0.83707 0.25176
0.43228 0.85405 0.56851
0.45715 0.86095 0.57240
0.51309 0.87624 0.57996
0.57518 0.88934 0.58234
0.69969 0.90417 0.56125
0.84015 0.93030 0.51499
0.95123 0.93880 0.31172
1.00000 0.93521 0.26099
0.40784 0.86753 0.58453
0.42980 0.87099 0.58665
0.48061 0.87917 0.59043
0.55327 0.89074 0.59135
0.65263 0.90809 0.59305
0.81255 0.94315 0.58854
0.92690 0.97100 0.55796
1.00000 0.98626 0.44815
0.00398 0.00213 0.35992
0.10037 0.01182 0.36149
0.35064 0.06486 0.38221
0.56668 0.10787 0.37565
0.73898 0.16391 0.39540
0.85617 0.26293 0.43541
0.93439 0.35168 0.47116
0.94731 0.36481 0.40737
0.00285 0.09194 0.30513
0.11976 0.11812 0.32321
0.34283 0.15324 0.35157
0.55799 0.17452 0.36577
0.74362 0.21187 0.39345
0.86322 0.29456 0.43867
0.93866 0.36913 0.46262
0.95067 0.38274 0.39877
0.00000 0.26719 0.24900
0.00000 0.28250 0.26883
0.30949 0.31073 0.31008
0.54598 0.31356 0.32685
0.75558 0.33049 0.36518
0.88618 0.37950 0.41762
0.95276 0.43716 0.46597
0.96126 0.43993 0.40127
0.00000 0.46954 0.26393
0.00000 0.47559 0.25890
0.21469 0.48831 0.25803
0.49857 0.50987 0.27565
0.74430 0.53309 0.31748
0.91034 0.54800 0.36282
0.97998 0.56805 0.42263
0.98157 0.54824 0.38782
0.17547 0.65073 0.36143
0.20237 0.65364 0.34817
0.27523 0.66283 0.33800
0.46510 0.69278 0.31357
0.70044 0.71949 0.27796
0.89135 0.73670 0.30777
1.00000 0.73861 0.36365
1.00000 0.71484 0.35245
0.36368 0.78862 0.50074
0.38519 0.79353 0.49557
0.43051 0.80062 0.48140
0.53222 0.81715 0.47484
0.69785 0.85059 0.43822
0.84900 0.86868 0.30079
0.98756 0.87964 0.30553
1.00000 0.85394 0.29709
0.44650 0.85838 0.58615
0.47001 0.86462 0.58771
0.52270 0.87781 0.58863
0.58390 0.88983 0.58173
0.71860 0.91179 0.57507
0.84604 0.93619 0.54560
0.95214 0.95241 0.39165
1.00000 0.95477 0.34679
0.42116 0.87036 0.59985
0.44236 0.87370 0.60060
0.49184 0.88154 0.60071
0.56379 0.89256 0.59514
0.66582 0.91084 0.59469
0.81938 0.94499 0.59491
0.92723 0.97267 0.57749
0.99995 0.98997 0.49453
0.01193 0.00237 0.57993
0.08580 0.00672 0.57476
0.33063 0.08496 0.59353
0.56714 0.18675 0.61547
0.73912 0.26862 0.63277
0.85790 0.35499 0.65837
0.92645 0.42505 0.68303
0.94298 0.41595 0.62558
0.00000 0.06979 0.53946
0.11013 0.09788 0.55479
0.34536 0.16202 0.58080
0.57528 0.24142 0.59917
0.74998 0.30194 0.62377
0.86819 0.38211 0.65817
0.93425 0.44973 0.68444
0.94979 0.44432 0.63392
0.00000 0.26195 0.48853
0.04138 0.27716 0.50556
0.32284 0.32063 0.54357
0.57716 0.36435 0.58364
0.77278 0.40407 0.61036
0.89510 0.46997 0.65333
0.96072 0.52827 0.68789
0.97280 0.53420 0.66012
0.00000 0.47233 0.45031
0.00000 0.47849 0.45902
0.22778 0.50944 0.49374
0.54761 0.54918 0.54856
0.77670 0.56638 0.58003
0.92173 0.59125 0.61948
0.99000 0.62520 0.66100
0.99422 0.62898 0.64232
0.19977 0.66890 0.50307
0.22648 0.67531 0.50591
0.30805 0.68928 0.51672
0.50205 0.71869 0.52326
0.73119 0.74004 0.53257
0.90459 0.74725 0.55954
1.00000 0.75250 0.60214
1.00000 0.74849 0.60386
0.37900 0.79496 0.57888
0.39706 0.79979 0.57976
0.43817 0.80781 0.58327
0.55124 0.82507 0.58884
0.70891 0.85178 0.56973
0.85760 0.86933 0.52995
0.98558 0.87320 0.53278
1.00000 0.85916 0.53443
0.46521 0.86263 0.63227
0.48539 0.86782 0.63438
0.52940 0.87815 0.63999
0.59947 0.89030 0.64411
0.72966 0.91445 0.64958
0.84679 0.93800 0.63540
0.95014 0.95642 0.56576
1.00000 0.95802 0.53868
0.44430 0.87536 0.63524
0.46361 0.87860 0.63580
0.50830 0.88626 0.63711
0.57440 0.89760 0.63921
0.69153 0.91884 0.64587
0.82780 0.94996 0.65806
0.92457 0.97597 0.66227
0.99511 0.99149 0.60130
0.11051 0.03781 0.66794
0.16628 0.05895 0.67649
0.34047 0.13989 0.70608
0.56526 0.26164 0.75336
0.73847 0.37386 0.78655
0.84680 0.45044 0.80839
0.90761 0.48806 0.80938
0.92705 0.49898 0.78323
0.10199 0.10165 0.67896
0.17811 0.12732 0.69062
0.36177 0.19752 0.71762
0.57990 0.30294 0.75781
0.75000 0.40902 0.78606
0.85630 0.47837 0.80653
0.91725 0.51331 0.81223
0.93666 0.52351 0.78598
0.00000 0.30566 0.70364
0.16899 0.33282 0.71820
0.38177 0.37666 0.74479
0.60750 0.44333 0.77085
0.77630 0.50237 0.78769
0.88351 0.55586 0.80540
0.94652 0.59496 0.81845
0.96048 0.60509 0.79849
0.00000 0.49078 0.66801
0.00000 0.49925 0.68350
0.29206 0.52644 0.72201
0.57487 0.57552 0.76344
0.78757 0.61562 0.79050
0.91091 0.64068 0.79947
0.97446 0.67404 0.81181
0.99001 0.69100 0.80132
0.22787 0.67486 0.65136
0.24944 0.67810 0.65692
0.33747 0.69296 0.67797
0.52293 0.72329 0.72079
0.75291 0.75422 0.75366
0.90993 0.75552 0.76713
0.99737 0.76531 0.78448
1.00000 0.77261 0.78155
0.40375 0.79817 0.69042
0.41849 0.80182 0.69366
0.45735 0.80962 0.70220
0.56871 0.83173 0.71989
0.71474 0.85453 0.72838
0.86344 0.86690 0.72335
0.98346 0.86714 0.72783
1.00000 0.86129 0.73853
0.49252 0.86928 0.72059
0.50932 0.87420 0.72499
0.54613 0.88398 0.73436
0.61490 0.89577 0.74537
0.73327 0.91639 0.75520
0.84553 0.93806 0.75324
0.94511 0.94790 0.72100
1.00000 0.94537 0.71298
0.48010 0.88304 0.70927
0.49705 0.88624 0.71298
0.53671 0.89364 0.72289
0.59863 0.90496 0.73475
0.71152 0.92859 0.75269
0.83520 0.95861 0.77182
0.92054 0.97758 0.77354
0.99009 0.98783 0.72649
0.16911 0.08721 0.71073
0.21539 0.10390 0.72034
0.37172 0.17691 0.74868
0.58284 0.29366 0.78779
0.74344 0.39858 0.81719
0.85054 0.48547 0.84356
0.90260 0.53716 0.85889
0.91066 0.55082 0.85399
0.18405 0.15630 0.74110
0.23537 0.17165 0.74693
0.39387 0.23428 0.76736
0.59998 0.34066 0.80266
0.75303 0.43657 0.82975
0.85700 0.51782 0.85316
0.91222 0.56669 0.86623
0.92029 0.58051 0.86026
0.18284 0.34925 0.80309
0.26632 0.37153 0.81364
0.44250 0.42134 0.83267
0.63043 0.48839 0.85267
0.77554 0.54591 0.86708
0.87918 0.61272 0.87890
0.93565 0.64183 0.88329
0.94563 0.65880 0.87757
0.17802 0.53881 0.80693
0.26064 0.55242 0.82039
0.40834 0.57398 0.84861
0.61631 0.61630 0.87597
0.78651 0.66219 0.89230
0.89715 0.68942 0.89430
0.95959 0.72073 0.89914
0.97298 0.73198 0.88606
0.25575 0.67563 0.76633
0.28444 0.67967 0.77631
0.37642 0.69359 0.80865
0.55113 0.72336 0.85472
0.75467 0.75960 0.88719
0.89781 0.77616 0.89783
0.98174 0.79004 0.89893
0.99670 0.79860 0.88445
0.41620 0.78991 0.76844
0.42776 0.79201 0.77194
0.47549 0.80167 0.78483
0.57784 0.82541 0.82018
0.71604 0.85365 0.85825
0.86656 0.86760 0.86713
0.97828 0.86943 0.87244
1.00000 0.86909 0.87002
0.52111 0.87181 0.79542
0.53315 0.87525 0.79879
0.56035 0.88108 0.80582
0.63149 0.89480 0.82063
0.74018 0.91894 0.84399
0.84007 0.93861 0.85178
0.94308 0.94368 0.84231
1.00000 0.94232 0.84111
0.52367 0.88991 0.78682
0.53711 0.89262 0.78996
0.56815 0.89890 0.79747
0.62547 0.91175 0.81130
0.73069 0.93697 0.83248
0.83805 0.96320 0.85221
0.91822 0.97773 0.85307
0.98944 0.99046 0.82676
0.18386 0.12017 0.72515
0.23189 0.13293 0.73129
0.38297 0.19703 0.75524
0.58576 0.30280 0.79088
0.73778 0.39402 0.81395
0.84819 0.48358 0.83985
0.90732 0.55407 0.86093
0.91211 0.57877 0.87160
0.18969 0.18528 0.75147
0.24554 0.19684 0.75511
0.40067 0.24917 0.77307
0.60063 0.34653 0.80486
0.74939 0.43193 0.82673
0.85515 0.51344 0.84991
0.91488 0.58304 0.87106
0.92042 0.61005 0.88226
0.19081 0.35896 0.80644
0.26914 0.37498 0.81465
0.44091 0.41929 0.83429
0.62815 0.48033 0.84910
0.78038 0.55505 0.87027
0.87481 0.61035 0.88435
0.93294 0.66309 0.90094
0.94227 0.68817 0.90802
0.28586 0.57290 0.84824
0.36480 0.59011 0.86287
0.49159 0.61447 0.88589
0.65600 0.65181 0.91118
0.79847 0.69435 0.92758
0.89289 0.71791 0.92788
0.95242 0.74877 0.93174
0.96545 0.76765 0.93142
0.32714 0.69058 0.84553
0.36633 0.69673 0.85674
0.45572 0.71029 0.88377
0.61012 0.74053 0.92105
0.77472 0.77457 0.94850
0.89056 0.79665 0.95590
0.96581 0.81286 0.95042
0.98180 0.82513 0.94475
0.43353 0.78257 0.83128
0.45024 0.78643 0.83763
0.50156 0.79904 0.85864
0.60018 0.82411 0.89980
0.73130 0.85259 0.94215
0.86646 0.87021 0.95675
0.96328 0.87598 0.95851
0.99936 0.88117 0.94857
0.53797 0.86810 0.84860
0.54671 0.87020 0.85165
0.57849 0.87748 0.86161
0.65423 0.89437 0.88377
0.74570 0.91837 0.91887
0.84037 0.93490 0.94064
0.93957 0.94007 0.93979
1.00000 0.93918 0.93590
0.55938 0.89423 0.84331
0.56950 0.89639 0.84611
0.59479 0.90202 0.85363
0.65292 0.91626 0.87004
0.74880 0.94143 0.89479
0.84031 0.96405 0.91566
0.91495 0.98081 0.92216
0.98476 0.99048 0.91299
0.21224 0.16510 0.74412
0.25744 0.17551 0.74728
0.39434 0.22837 0.76394
0.57714 0.31717 0.79563
0.73019 0.40938 0.81936
0.83352 0.47847 0.83861
0.89927 0.53564 0.85436
0.91750 0.58732 0.87265
0.20972 0.22032 0.76409
0.26564 0.23402 0.76839
0.41006 0.28112 0.78451
0.59100 0.36239 0.81035
0.74254 0.44939 0.83300
0.84216 0.51194 0.84984
0.90832 0.56937 0.86548
0.92486 0.61614 0.88207
0.21529 0.37714 0.81212
0.28424 0.39083 0.82209
0.44344 0.42941 0.83759
0.62334 0.48930 0.85465
0.77139 0.56142 0.87286
0.86590 0.60790 0.88338
0.93073 0.65697 0.89555
0.94392 0.69380 0.90795
0.32867 0.58428 0.85225
0.39263 0.59760 0.86388
0.51965 0.62705 0.88791
0.67323 0.66680 0.91232
0.79619 0.70023 0.92461
0.89258 0.73840 0.93164
0.95176 0.75780 0.93101
0.96593 0.78872 0.94342
0.40984 0.71444 0.86730
0.45964 0.72612 0.88101
0.55176 0.74559 0.90658
0.67426 0.77283 0.93935
0.79864 0.79870 0.96188
0.89328 0.81745 0.96717
0.96076 0.83055 0.96283
0.97664 0.83987 0.96231
0.48297 0.79418 0.86429
0.50264 0.79910 0.87286
0.55446 0.81224 0.89535
0.64417 0.83490 0.93156
0.76513 0.85989 0.96824
0.87384 0.87369 0.98572
0.95447 0.88225 0.98469
0.98733 0.88974 0.97838
0.55960 0.86448 0.87772
0.57253 0.86731 0.88204
0.60993 0.87650 0.89549
0.67652 0.89515 0.92269
0.75935 0.91640 0.95647
0.84720 0.93167 0.98700
0.93625 0.93616 0.99064
0.99290 0.93617 0.98855
0.58646 0.89747 0.87835
0.59475 0.89939 0.88124
0.62393 0.90633 0.89079
0.68664 0.92347 0.91008
0.77423 0.94928 0.93789
0.84281 0.96736 0.96282
0.91471 0.97937 0.97728
0.98365 0.98363 0.98369
