cube lut/reala ace_sRGB.cube
# sRGB
# github.com/abpy/FujifilmCameraProfiles
LUT_3D_SIZE 5
DOMAIN_MIN 0.000000 0.000000 0.000000
DOMAIN_MAX 0.903226 0.903226 0.903226
0.00000 0.00000 0.00000
0.23504 0.00756 0.00210
0.64665 0.01548 0.00000
0.90301 0.17491 0.06960
1.00000 0.34131 0.21804
0.00000 0.21942 0.00000
0.21971 0.23466 0.00000
0.66004 0.20955 0.00000
0.91862 0.26433 0.07144
1.00000 0.40326 0.21614
0.00000 0.55696 0.16046
0.00000 0.56449 0.13549
0.56591 0.59724 0.00000
0.93715 0.62257 0.00000
1.00000 0.63821 0.19394
0.31701 0.83225 0.45495
0.38516 0.83861 0.45081
0.63348 0.86965 0.41488
0.87373 0.89002 0.00000
1.00000 0.89293 0.00000
0.47084 0.90553 0.56165
0.50960 0.90950 0.55935
0.68503 0.93326 0.56088
0.87441 0.96705 0.54698
1.00000 0.99079 0.43524
0.00329 0.00278 0.28498
0.28000 0.03076 0.30886
0.65322 0.02844 0.31127
0.91382 0.18427 0.37412
1.00000 0.34212 0.41492
0.00000 0.23080 0.21579
0.25894 0.26051 0.25972
0.65240 0.25899 0.28536
0.93961 0.30862 0.35450
1.00000 0.42590 0.42841
0.00000 0.56849 0.23114
0.04559 0.58211 0.22534
0.59848 0.61788 0.19524
0.94983 0.64902 0.27371
1.00000 0.66400 0.36583
0.33235 0.83350 0.47906
0.41463 0.84064 0.48030
0.64491 0.87183 0.46290
0.87668 0.89743 0.27294
1.00000 0.89760 0.25762
0.48256 0.90768 0.58286
0.53091 0.91276 0.57961
0.69811 0.93611 0.58811
0.87439 0.96907 0.59382
0.99697 0.99168 0.51344
0.04226 0.00588 0.64777
0.24614 0.04207 0.64807
0.65608 0.22201 0.70272
0.90462 0.37788 0.74289
1.00000 0.47922 0.75433
0.00000 0.24416 0.62109
0.29289 0.28833 0.65009
0.68786 0.37043 0.69708
0.93554 0.47423 0.73722
1.00000 0.57045 0.76407
0.00000 0.59495 0.57507
0.14551 0.61856 0.60456
0.66432 0.66614 0.66546
0.96218 0.68055 0.69893
1.00000 0.71600 0.73281
0.36044 0.84037 0.66242
0.44361 0.84905 0.66754
0.65179 0.87237 0.66968
0.88372 0.89131 0.64239
1.00000 0.88817 0.65406
0.52131 0.91776 0.71339
0.57507 0.92479 0.71918
0.71964 0.94684 0.73283
0.87280 0.97470 0.74578
0.99061 0.98776 0.69170
0.18337 0.08366 0.74141
0.31997 0.13432 0.76732
0.67009 0.30820 0.82408
0.89446 0.48143 0.86966
0.97655 0.58299 0.89139
0.19513 0.29833 0.82226
0.38742 0.34951 0.83917
0.70953 0.47377 0.87458
0.91210 0.58890 0.89667
0.99534 0.65808 0.90337
0.13988 0.62710 0.84694
0.34555 0.64358 0.87205
0.68958 0.69345 0.91204
0.92987 0.73613 0.92161
1.00000 0.76963 0.91421
0.41779 0.83238 0.81430
0.48705 0.84350 0.83168
0.65705 0.87278 0.87735
0.88776 0.88906 0.88852
1.00000 0.88923 0.88971
0.57465 0.92739 0.83715
0.62124 0.93529 0.84468
0.74137 0.95699 0.86265
0.86745 0.97585 0.87712
0.98726 0.99194 0.85144
0.21234 0.14649 0.76844
0.34154 0.18279 0.78159
0.66164 0.32909 0.83025
0.88150 0.47038 0.86397
0.97782 0.60033 0.89732
0.20525 0.32341 0.82785
0.38599 0.35956 0.84304
0.69811 0.46880 0.87304
0.90212 0.58235 0.89800
0.99079 0.68834 0.92496
0.41201 0.68265 0.90601
0.52006 0.69852 0.92404
0.74334 0.74085 0.95800
0.91913 0.78275 0.96817
1.00000 0.80784 0.96340
0.49686 0.83592 0.91062
0.55268 0.84722 0.92905
0.70727 0.87311 0.97194
0.88937 0.89054 0.99640
1.00000 0.89785 0.98868
0.63761 0.93511 0.91901
0.67608 0.94349 0.92842
0.76293 0.96124 0.95143
0.86528 0.97772 0.97696
0.98362 0.98364 0.98378
