cube lut/velvia_sRGB.cube
# sRGB
# github.com/abpy/FujifilmCameraProfiles
LUT_3D_SIZE 8
DOMAIN_MIN 0.000000 0.000000 0.000000
DOMAIN_MAX 0.903226 0.903226 0.903226
0.00000 0.00000 0.00000
0.03636 0.00000 0.00000
0.28405 0.00000 0.00000
0.63764 0.00000 0.00000
0.90512 0.00000 0.00000
1.00000 0.04297 0.00000
1.00000 0.06485 0.00000
1.00000 0.08031 0.00000
0.00000 0.03247 0.00000
0.02764 0.03989 0.00000
0.29400 0.04311 0.00000
0.64651 0.03669 0.00000
0.90665 0.05335 0.00000
1.00000 0.09841 0.00000
1.00000 0.12661 0.00000
1.00000 0.14716 0.00000
0.00000 0.28399 0.00000
0.00000 0.29029 0.00000
0.23052 0.29608 0.00000
0.62196 0.28564 0.00000
0.87809 0.25916 0.00000
1.00000 0.22510 0.00000
1.00000 0.23594 0.00000
1.00000 0.25670 0.00000
0.00000 0.57660 0.00000
0.00000 0.57612 0.00000
0.00000 0.56139 0.00000
0.47774 0.54653 0.00000
0.77422 0.53588 0.00000
1.00000 0.51244 0.00000
1.00000 0.47188 0.00000
1.00000 0.44274 0.00000
0.00000 0.76516 0.00000
0.00000 0.76442 0.00000
0.00000 0.75310 0.00000
0.20019 0.72942 0.00000
0.64775 0.71170 0.00000
0.90685 0.69916 0.00000
1.00000 0.66834 0.00000
1.00000 0.64386 0.00000
0.00000 0.92824 0.00000
0.00000 0.93006 0.00000
0.00000 0.92230 0.00000
0.00000 0.89517 0.00000
0.45784 0.87322 0.00000
0.78266 0.84893 0.00000
1.00000 0.84114 0.00000
1.00000 0.82037 0.00000
0.00000 1.00000 0.00000
0.00000 1.00000 0.00000
0.00000 1.00000 0.00000
0.00000 1.00000 0.00000
0.00000 0.99811 0.00000
0.62554 0.98432 0.00000
0.92321 0.97790 0.00000
1.00000 0.97215 0.00000
0.00000 1.00000 0.00000
0.00000 1.00000 0.00000
0.00000 1.00000 0.00000
0.00000 1.00000 0.00000
0.00000 1.00000 0.00000
0.51503 1.00000 0.00000
0.84178 1.00000 0.00000
0.99783 1.00000 0.00000
0.00000 0.00000 0.05462
0.05159 0.00200 0.05877
0.31154 0.00000 0.07239
0.64370 0.00000 0.08990
0.90540 0.00000 0.08892
1.00000 0.00000 0.01980
1.00000 0.00434 0.00000
1.00000 0.04118 0.00000
0.00000 0.04325 0.04537
0.05146 0.05193 0.05172
0.31955 0.05500 0.05495
0.65130 0.04819 0.06553
0.89946 0.03594 0.08668
1.00000 0.04771 0.07044
1.00000 0.09199 0.00667
1.00000 0.12614 0.00000
0.00000 0.29583 0.00000
0.00000 0.29973 0.00000
0.25816 0.29991 0.00000
0.60905 0.29867 0.00000
0.85645 0.28278 0.00000
1.00000 0.24999 0.00000
1.00000 0.23235 0.05385
1.00000 0.25230 0.03208
0.00000 0.57069 0.00000
0.00000 0.56670 0.00000
0.00000 0.55436 0.00000
0.48482 0.53909 0.00000
0.76364 0.53572 0.00000
0.99552 0.51598 0.00000
1.00000 0.48204 0.00000
1.00000 0.45454 0.00000
0.00000 0.75673 0.00000
0.00000 0.75475 0.00000
0.00000 0.74042 0.00000
0.23685 0.72363 0.00000
0.64383 0.70936 0.00000
0.89495 0.70301 0.00000
1.00000 0.67585 0.00000
1.00000 0.65517 0.00000
0.00000 0.92173 0.00000
0.00000 0.92289 0.00000
0.00000 0.91197 0.00000
0.00000 0.89212 0.00000
0.46366 0.87107 0.00000
0.77648 0.85171 0.00000
1.00000 0.84833 0.00000
1.00000 0.82777 0.00000
0.00000 1.00000 0.00000
0.00000 1.00000 0.00000
0.00000 1.00000 0.00000
0.00000 1.00000 0.00000
0.00000 0.99473 0.00000
0.62840 0.98436 0.00000
0.91668 0.98239 0.00000
1.00000 0.97589 0.00000
0.00000 1.00000 0.00000
0.00000 1.00000 0.00000
0.00000 1.00000 0.00000
0.00000 1.00000 0.00000
0.00000 1.00000 0.00000
0.52203 1.00000 0.00000
0.84280 1.00000 0.00000
0.99781 1.00000 0.00000
0.00143 0.00000 0.38732
0.09094 0.00000 0.40183
0.38641 0.00000 0.42702
0.67073 0.00000 0.43338
0.89610 0.00000 0.43319
1.00000 0.00000 0.44255
1.00000 0.00000 0.43183
1.00000 0.00000 0.39224
0.00000 0.06817 0.37060
0.11008 0.07553 0.38020
0.37737 0.07494 0.39002
0.65809 0.08323 0.40236
0.86952 0.10134 0.41858
1.00000 0.11684 0.41931
1.00000 0.11510 0.42054
1.00000 0.11883 0.39922
0.00000 0.31246 0.31756
0.00000 0.31065 0.31785
0.30683 0.30743 0.30690
0.61017 0.29984 0.30275
0.83156 0.30293 0.32232
1.00000 0.30642 0.33349
1.00000 0.28585 0.33224
1.00000 0.28401 0.33979
0.00000 0.56274 0.22351
0.00000 0.55753 0.21761
0.00000 0.54461 0.20470
0.49799 0.53008 0.21522
0.75234 0.52619 0.21628
0.96854 0.51580 0.23485
1.00000 0.50353 0.24525
1.00000 0.48193 0.22783
0.00000 0.74131 0.19021
0.00000 0.73693 0.18602
0.00000 0.72308 0.17683
0.31217 0.70714 0.16648
0.64758 0.69761 0.18214
0.88487 0.69244 0.18244
1.00000 0.67781 0.17494
1.00000 0.66674 0.18336
0.00000 0.90766 0.13436
0.00000 0.90337 0.13409
0.00000 0.89021 0.12300
0.00000 0.87657 0.11939
0.48957 0.85925 0.07969
0.77395 0.85067 0.09505
1.00000 0.84784 0.11833
1.00000 0.83319 0.12888
0.00000 1.00000 0.09625
0.00000 1.00000 0.08090
0.00000 0.99960 0.04820
0.00000 0.99494 0.00000
0.19801 0.98663 0.00000
0.64334 0.98228 0.00000
0.90978 0.98178 0.00000
1.00000 0.97402 0.01213
0.00000 1.00000 0.19432
0.00000 1.00000 0.17872
0.00000 1.00000 0.15182
0.00000 1.00000 0.12203
0.00000 1.00000 0.10365
0.54736 1.00000 0.05291
0.84911 1.00000 0.09690
0.99789 1.00000 0.08615
0.03447 0.00379 0.75408
0.13837 0.00656 0.77994
0.41620 0.01157 0.82674
0.69323 0.01805 0.83320
0.89799 0.02206 0.80483
1.00000 0.04126 0.76931
1.00000 0.10173 0.74238
1.00000 0.17589 0.71843
0.06211 0.07012 0.75924
0.19104 0.07862 0.77242
0.43574 0.09865 0.77227
0.66795 0.13711 0.74861
0.86498 0.15823 0.73499
1.00000 0.18387 0.71758
1.00000 0.21458 0.71070
1.00000 0.25565 0.69358
0.00000 0.32263 0.68001
0.00000 0.32149 0.67215
0.37716 0.32208 0.64929
0.61875 0.32474 0.62913
0.82376 0.32418 0.62708
1.00000 0.33423 0.62059
1.00000 0.35705 0.62470
1.00000 0.37673 0.62563
0.00000 0.55147 0.56730
0.00000 0.54697 0.55743
0.14598 0.53586 0.53833
0.52761 0.52722 0.52656
0.75534 0.52095 0.51384
0.96229 0.51324 0.51909
1.00000 0.51345 0.51742
1.00000 0.51707 0.52416
0.00000 0.72748 0.49360
0.00000 0.72216 0.48574
0.00000 0.70877 0.46894
0.37529 0.69683 0.44920
0.66212 0.68781 0.44439
0.88575 0.68188 0.43945
1.00000 0.67310 0.44761
1.00000 0.67148 0.46447
0.00000 0.89205 0.43041
0.00000 0.88698 0.42480
0.00000 0.87462 0.41060
0.00000 0.85917 0.39528
0.52437 0.84883 0.38033
0.78438 0.84064 0.38129
1.00000 0.83741 0.38294
1.00000 0.83139 0.38968
0.00000 1.00000 0.38912
0.00000 0.99998 0.38316
0.00000 0.99498 0.36670
0.00000 0.98577 0.34273
0.30427 0.98254 0.33005
0.66775 0.97708 0.32874
0.91645 0.96795 0.32031
1.00000 0.96445 0.34869
0.00000 1.00000 0.42401
0.00000 1.00000 0.41917
0.00000 1.00000 0.40480
0.00000 1.00000 0.38059
0.07592 1.00000 0.36671
0.59302 1.00000 0.35086
0.86486 1.00000 0.36813
0.99544 1.00000 0.35436
0.09465 0.00000 0.89616
0.21196 0.00000 0.94663
0.46468 0.00000 1.00000
0.70953 0.00000 1.00000
0.90305 0.03027 1.00000
1.00000 0.09685 0.97711
1.00000 0.11950 0.97042
1.00000 0.19242 0.91132
0.13607 0.03990 0.99752
0.26213 0.03246 1.00000
0.48714 0.03503 1.00000
0.70096 0.10255 1.00000
0.87350 0.18687 0.96269
1.00000 0.22152 0.92824
1.00000 0.23865 0.92516
1.00000 0.27888 0.88636
0.09379 0.35034 0.92958
0.25569 0.35321 0.91967
0.46053 0.35815 0.90064
0.64813 0.36411 0.87912
0.82715 0.36159 0.87544
1.00000 0.37417 0.84921
1.00000 0.38641 0.83085
1.00000 0.41454 0.82636
0.00000 0.54352 0.82306
0.00000 0.54019 0.81598
0.33081 0.53507 0.80297
0.57205 0.53286 0.78695
0.76663 0.52893 0.76965
0.96599 0.52585 0.76391
1.00000 0.52238 0.76147
1.00000 0.53779 0.75115
0.00000 0.71204 0.73383
0.00000 0.70770 0.72665
0.00000 0.69984 0.71113
0.44756 0.69118 0.69580
0.68431 0.68406 0.68365
0.89830 0.67707 0.67993
1.00000 0.67187 0.67993
1.00000 0.67378 0.68035
0.00000 0.87734 0.65579
0.00000 0.87269 0.64950
0.00000 0.86240 0.63684
0.15451 0.85086 0.62356
0.55386 0.84395 0.61251
0.80308 0.83321 0.60320
1.00000 0.83003 0.60687
1.00000 0.82765 0.61697
0.00000 0.99397 0.59690
0.00000 0.99222 0.59118
0.00000 0.98715 0.57872
0.00000 0.98145 0.56406
0.37562 0.97965 0.56004
0.70080 0.96553 0.55816
0.93201 0.95790 0.55476
1.00000 0.95972 0.57193
0.00000 1.00000 0.62111
0.00000 1.00000 0.61654
0.00000 1.00000 0.60423
0.00000 1.00000 0.58846
0.25880 1.00000 0.57991
0.63507 1.00000 0.57707
0.87838 0.99962 0.57735
0.99228 1.00000 0.56721
0.20446 0.00000 0.98282
0.30587 0.00000 1.00000
0.50992 0.00000 1.00000
0.72284 0.00000 1.00000
0.90740 0.02239 1.00000
1.00000 0.10338 1.00000
1.00000 0.16107 1.00000
1.00000 0.23214 1.00000
0.23975 0.05314 1.00000
0.34053 0.04496 1.00000
0.52733 0.03938 1.00000
0.71999 0.09077 1.00000
0.89358 0.14996 1.00000
1.00000 0.22928 1.00000
1.00000 0.27307 1.00000
1.00000 0.30427 1.00000
0.26838 0.33497 1.00000
0.36188 0.34189 1.00000
0.52232 0.35237 1.00000
0.68059 0.36222 1.00000
0.84785 0.37352 1.00000
1.00000 0.39964 0.98934
1.00000 0.42310 1.00000
1.00000 0.44174 0.97493
0.16142 0.55140 0.99920
0.27683 0.55090 0.99631
0.44583 0.55132 0.98931
0.61978 0.55074 0.98960
0.78990 0.54614 0.96232
0.97848 0.54175 0.95781
1.00000 0.54613 0.95694
1.00000 0.56541 0.93221
0.00000 0.70159 0.95605
0.00000 0.69899 0.95185
0.26718 0.69394 0.94112
0.51944 0.68943 0.92463
0.71786 0.68764 0.91253
0.91809 0.68048 0.92077
1.00000 0.67882 0.89307
1.00000 0.68647 0.88786
0.00000 0.86396 0.88321
0.00000 0.85998 0.87868
0.00000 0.85311 0.87150
0.31616 0.84663 0.86705
0.60103 0.84045 0.85884
0.83234 0.83190 0.83230
1.00000 0.82842 0.83594
1.00000 0.83173 0.83849
0.00000 0.98956 0.83590
0.00000 0.98821 0.83096
0.00000 0.98420 0.81976
0.00000 0.97993 0.80416
0.45795 0.96842 0.79974
0.73513 0.95797 0.78338
0.94257 0.95472 0.77980
1.00000 0.95758 0.78144
0.00000 1.00000 0.82545
0.00000 1.00000 0.81906
0.00000 1.00000 0.80675
0.00000 1.00000 0.79379
0.35620 1.00000 0.78542
0.67072 0.99968 0.78100
0.88230 1.00000 0.76876
0.98656 1.00000 0.75747
0.31616 0.00000 1.00000
0.39670 0.00000 1.00000
0.55794 0.00000 1.00000
0.73561 0.00000 1.00000
0.91193 0.00088 1.00000
1.00000 0.08788 1.00000
1.00000 0.17491 1.00000
1.00000 0.29738 1.00000
0.34384 0.07412 1.00000
0.42340 0.06464 1.00000
0.56994 0.06386 1.00000
0.73495 0.08025 1.00000
0.90528 0.12166 1.00000
1.00000 0.19300 1.00000
1.00000 0.26889 1.00000
1.00000 0.36262 1.00000
0.36373 0.31525 1.00000
0.43416 0.31696 1.00000
0.56727 0.32407 1.00000
0.71201 0.32750 1.00000
0.87003 0.37052 1.00000
1.00000 0.38138 1.00000
1.00000 0.43436 1.00000
1.00000 0.47507 1.00000
0.37614 0.55817 1.00000
0.42913 0.55863 1.00000
0.53951 0.56770 1.00000
0.67345 0.56553 1.00000
0.82008 0.56849 1.00000
0.98957 0.56814 1.00000
1.00000 0.57182 1.00000
1.00000 0.60355 1.00000
0.20088 0.69751 1.00000
0.29201 0.69674 1.00000
0.43778 0.69551 1.00000
0.59575 0.69944 1.00000
0.76269 0.69911 1.00000
0.93936 0.69301 1.00000
1.00000 0.69888 1.00000
1.00000 0.71223 0.99952
0.00000 0.85335 1.00000
0.00000 0.85136 1.00000
0.16260 0.84728 1.00000
0.45451 0.84268 1.00000
0.66650 0.83917 1.00000
0.86720 0.83620 0.98706
1.00000 0.83200 0.98457
1.00000 0.83843 0.97919
0.00000 0.98513 0.99277
0.00000 0.98377 0.99145
0.00000 0.97950 0.98701
0.19949 0.97026 0.97684
0.54262 0.96078 0.96904
0.77446 0.95545 0.95378
0.95140 0.95156 0.95120
1.00000 0.94747 0.94278
0.00000 1.00000 0.97142
0.00000 1.00000 0.96801
0.00000 1.00000 0.96032
0.00000 1.00000 0.95044
0.44525 0.99949 0.94241
0.70105 0.99939 0.93016
0.88470 1.00000 0.91862
0.98643 0.99874 0.91072
0.42248 0.01366 1.00000
0.48046 0.00963 1.00000
0.60635 0.00000 1.00000
0.75766 0.00657 1.00000
0.92773 0.02307 1.00000
1.00000 0.07967 1.00000
1.00000 0.14985 1.00000
1.00000 0.29373 1.00000
0.44136 0.08746 1.00000
0.49711 0.08484 1.00000
0.61552 0.08197 1.00000
0.75915 0.10400 1.00000
0.92430 0.11948 1.00000
1.00000 0.15840 1.00000
1.00000 0.23270 1.00000
1.00000 0.35758 1.00000
0.44770 0.31090 1.00000
0.50169 0.31004 1.00000
0.61176 0.31358 1.00000
0.74679 0.31712 1.00000
0.90157 0.34007 1.00000
1.00000 0.36339 1.00000
1.00000 0.40653 1.00000
1.00000 0.49072 1.00000
0.46398 0.55054 1.00000
0.50874 0.55420 1.00000
0.60304 0.56401 1.00000
0.72586 0.56912 1.00000
0.86346 0.56758 1.00000
1.00000 0.59312 1.00000
1.00000 0.58743 1.00000
1.00000 0.62124 1.00000
0.42636 0.72032 1.00000
0.46596 0.72049 1.00000
0.54947 0.71966 1.00000
0.67685 0.72636 1.00000
0.82279 0.72527 1.00000
0.96655 0.72754 1.00000
1.00000 0.73154 1.00000
1.00000 0.73383 1.00000
0.17501 0.85613 1.00000
0.26486 0.85510 1.00000
0.40690 0.85296 1.00000
0.56880 0.85008 1.00000
0.73964 0.85065 1.00000
0.90335 0.84899 1.00000
1.00000 0.84021 1.00000
1.00000 0.84148 1.00000
0.00000 0.97155 1.00000
0.00000 0.96993 1.00000
0.09430 0.96599 1.00000
0.42254 0.96011 1.00000
0.63348 0.95533 1.00000
0.81629 0.95320 1.00000
0.96094 0.94276 1.00000
1.00000 0.93335 1.00000
0.00000 1.00000 1.00000
0.00000 1.00000 1.00000
0.00000 1.00000 0.99984
0.27309 1.00000 0.99830
0.53591 1.00000 0.99440
0.73227 1.00000 0.99039
0.89302 0.99793 0.98807
0.99255 0.99258 0.99253
