cube lut/velvia_sRGB.cube
# sRGB
# github.com/abpy/FujifilmCameraProfiles
LUT_3D_SIZE 32
0.00000 0.00000 0.00000
0.00191 0.00000 0.00000
0.00265 0.00000 0.00000
0.01386 0.00000 0.00000
0.03636 0.00000 0.00000
0.06968 0.00000 0.00000
0.12526 0.00000 0.00000
0.19844 0.00000 0.00000
0.28405 0.00000 0.00000
0.38239 0.00000 0.00000
0.47528 0.00000 0.00000
0.55915 0.00000 0.00000
0.63764 0.00000 0.00000
0.71011 0.00000 0.00000
0.77847 0.00038 0.00000
0.84485 0.00000 0.00000
0.90512 0.00000 0.00000
0.95995 0.00810 0.00000
1.00000 0.02048 0.00000
1.00000 0.03092 0.00000
1.00000 0.04297 0.00000
1.00000 0.05320 0.00000
1.00000 0.05931 0.00000
1.00000 0.06301 0.00000
1.00000 0.06485 0.00000
1.00000 0.06409 0.00000
1.00000 0.06213 0.00000
1.00000 0.06580 0.00000
1.00000 0.08031 0.00000
1.00000 0.09882 0.00000
1.00000 0.12089 0.00000
1.00000 0.14330 0.00000
0.00000 0.00046 0.00000
0.00018 0.00023 0.00000
0.00186 0.00049 0.00000
0.01051 0.00108 0.00000
0.03150 0.00151 0.00000
0.06336 0.00249 0.00000
0.11950 0.00147 0.00000
0.19418 0.00155 0.00000
0.28119 0.00090 0.00000
0.38161 0.00000 0.00000
0.47544 0.00000 0.00000
0.55950 0.00135 0.00000
0.63837 0.00115 0.00000
0.71084 0.00350 0.00000
0.77919 0.00793 0.00000
0.84551 0.00697 0.00000
0.90551 0.00854 0.00000
0.96003 0.01786 0.00000
1.00000 0.03360 0.00000
1.00000 0.04439 0.00000
1.00000 0.05548 0.00000
1.00000 0.06530 0.00000
1.00000 0.07152 0.00000
1.00000 0.07584 0.00000
1.00000 0.07805 0.00000
1.00000 0.07812 0.00000
1.00000 0.07729 0.00000
1.00000 0.08120 0.00000
1.00000 0.09434 0.00000
1.00000 0.11114 0.00000
1.00000 0.13161 0.00000
1.00000 0.15273 0.00000
0.00000 0.00136 0.00000
0.00000 0.00135 0.00022
0.00019 0.00282 0.00000
0.00953 0.00398 0.00000
0.02994 0.00555 0.00000
0.06231 0.00647 0.00000
0.11821 0.00554 0.00000
0.19487 0.00605 0.00000
0.28173 0.00466 0.00000
0.38262 0.00392 0.00000
0.47651 0.00323 0.00000
0.56022 0.00677 0.00000
0.63925 0.00802 0.00000
0.71160 0.01084 0.00000
0.77996 0.01517 0.00000
0.84612 0.01618 0.00000
0.90582 0.01874 0.00000
0.96004 0.02796 0.00000
1.00000 0.04763 0.00000
1.00000 0.05722 0.00000
1.00000 0.06735 0.00000
1.00000 0.07708 0.00000
1.00000 0.08356 0.00000
1.00000 0.08853 0.00000
1.00000 0.09112 0.00000
1.00000 0.09194 0.00000
1.00000 0.09208 0.00000
1.00000 0.09627 0.00000
1.00000 0.10843 0.00000
1.00000 0.12387 0.00000
1.00000 0.14296 0.00000
1.00000 0.16289 0.00000
0.00000 0.00922 0.00000
0.00000 0.00972 0.00000
0.00000 0.01242 0.00000
0.00687 0.01486 0.00000
0.03087 0.01724 0.00000
0.06648 0.01402 0.00000
0.11964 0.01435 0.00000
0.19816 0.01679 0.00000
0.28851 0.01344 0.00000
0.38710 0.01366 0.00000
0.48076 0.01327 0.00000
0.56341 0.01436 0.00000
0.64176 0.01801 0.00000
0.71346 0.02085 0.00000
0.78154 0.02420 0.00000
0.84698 0.02910 0.00000
0.90613 0.03306 0.00000
0.95994 0.04120 0.00000
1.00000 0.06431 0.00000
1.00000 0.07249 0.00000
1.00000 0.08175 0.00000
1.00000 0.09170 0.00000
1.00000 0.09862 0.00000
1.00000 0.10442 0.00000
1.00000 0.10746 0.00000
1.00000 0.10914 0.00000
1.00000 0.11036 0.00000
1.00000 0.11492 0.00000
1.00000 0.12625 0.00000
1.00000 0.14033 0.00000
1.00000 0.15795 0.00000
1.00000 0.17656 0.00000
0.00000 0.03247 0.00000
0.00000 0.03403 0.00000
0.00000 0.03535 0.00000
0.00019 0.03863 0.00000
0.02764 0.03989 0.00000
0.06618 0.03699 0.00000
0.12188 0.03867 0.00000
0.20340 0.04311 0.00000
0.29400 0.04311 0.00000
0.39275 0.03852 0.00000
0.48680 0.03683 0.00000
0.56984 0.02960 0.00000
0.64651 0.03669 0.00000
0.71728 0.03904 0.00000
0.78493 0.03825 0.00000
0.84863 0.04898 0.00000
0.90665 0.05335 0.00000
0.96007 0.05640 0.00000
1.00000 0.08360 0.00000
1.00000 0.09012 0.00000
1.00000 0.09841 0.00000
1.00000 0.10894 0.00000
1.00000 0.11641 0.00000
1.00000 0.12315 0.00000
1.00000 0.12661 0.00000
1.00000 0.12918 0.00000
1.00000 0.13148 0.00000
1.00000 0.13647 0.00000
1.00000 0.14716 0.00000
1.00000 0.16002 0.00000
1.00000 0.17627 0.00000
1.00000 0.19352 0.00000
0.00000 0.06591 0.00000
0.00000 0.06669 0.00000
0.00000 0.06929 0.00000
0.00000 0.06992 0.00000
0.00898 0.07501 0.00000
0.05810 0.07914 0.00000
0.12070 0.08368 0.00000
0.20261 0.08837 0.00000
0.29264 0.08849 0.00000
0.39587 0.08449 0.00000
0.49111 0.08195 0.00000
0.57573 0.07022 0.00000
0.65151 0.07421 0.00000
0.72164 0.07233 0.00000
0.78926 0.06211 0.00000
0.85067 0.07708 0.00000
0.90695 0.08157 0.00000
0.96064 0.07663 0.00000
1.00000 0.10759 0.00000
1.00000 0.11149 0.00000
1.00000 0.11787 0.00000
1.00000 0.12900 0.00000
1.00000 0.13700 0.00000
1.00000 0.14458 0.00000
1.00000 0.14833 0.00000
1.00000 0.15178 0.00000
1.00000 0.15513 0.00000
1.00000 0.16053 0.00000
1.00000 0.17079 0.00000
1.00000 0.18257 0.00000
1.00000 0.19760 0.00000
1.00000 0.21358 0.00000
0.00000 0.12240 0.00000
0.00000 0.12225 0.00000
0.00000 0.12507 0.00000
0.00000 0.12848 0.00000
0.00000 0.13079 0.00000
0.01530 0.13680 0.00000
0.10232 0.14139 0.00000
0.19434 0.14625 0.00000
0.28946 0.14739 0.00000
0.39167 0.14608 0.00000
0.48875 0.14287 0.00000
0.57689 0.13314 0.00000
0.65248 0.13117 0.00000
0.72175 0.12636 0.00000
0.78858 0.11187 0.00000
0.84940 0.12092 0.00000
0.90498 0.12185 0.00000
0.95943 0.10942 0.00000
1.00000 0.13854 0.00000
1.00000 0.14030 0.00000
1.00000 0.14328 0.00000
1.00000 0.15397 0.00000
1.00000 0.16160 0.00000
1.00000 0.16922 0.00000
1.00000 0.17261 0.00000
1.00000 0.17675 0.00000
1.00000 0.18109 0.00000
1.00000 0.18690 0.00000
1.00000 0.19694 0.00000
1.00000 0.20782 0.00000
1.00000 0.22183 0.00000
1.00000 0.23664 0.00000
0.00000 0.19694 0.00000
0.00000 0.19651 0.00000
0.00000 0.19821 0.00000
0.00000 0.20126 0.00000
0.00000 0.20538 0.00000
0.00000 0.20969 0.00000
0.02274 0.21329 0.00000
0.15668 0.21514 0.00000
0.27326 0.21878 0.00000
0.38088 0.21917 0.00000
0.47578 0.21825 0.00000
0.56924 0.20831 0.00000
0.64333 0.20487 0.00000
0.71184 0.19942 0.00000
0.77975 0.18751 0.00000
0.83923 0.18717 0.00000
0.89542 0.18372 0.00000
0.95002 0.16499 0.00000
0.99958 0.18166 0.00000
1.00000 0.17912 0.00000
1.00000 0.17626 0.00000
1.00000 0.18569 0.00000
1.00000 0.19290 0.00000
1.00000 0.19972 0.00000
1.00000 0.20134 0.00000
1.00000 0.20507 0.00000
1.00000 0.20967 0.00000
1.00000 0.21546 0.00000
1.00000 0.22531 0.00000
1.00000 0.23544 0.00000
1.00000 0.24868 0.00000
1.00000 0.26253 0.00000
0.00000 0.28399 0.00000
0.00000 0.28390 0.00000
0.00000 0.28521 0.00000
0.00000 0.28720 0.00000
0.00000 0.29029 0.00000
0.00000 0.29311 0.00000
0.00000 0.29496 0.00000
0.07044 0.29580 0.00000
0.23052 0.29608 0.00000
0.35310 0.29791 0.00000
0.45288 0.29527 0.00000
0.54322 0.29194 0.00000
0.62196 0.28564 0.00000
0.69275 0.27971 0.00000
0.75774 0.27186 0.00000
0.81984 0.26671 0.00000
0.87809 0.25916 0.00000
0.93296 0.24774 0.00000
0.98635 0.24549 0.00000
1.00000 0.23725 0.00000
1.00000 0.22510 0.00000
1.00000 0.22800 0.00000
1.00000 0.23159 0.00000
1.00000 0.23632 0.00000
1.00000 0.23594 0.00000
1.00000 0.23872 0.00000
1.00000 0.24291 0.00000
1.00000 0.24776 0.00000
1.00000 0.25670 0.00000
1.00000 0.26561 0.00000
1.00000 0.27795 0.00000
1.00000 0.29083 0.00000
0.00000 0.37089 0.00000
0.00000 0.37124 0.00000
0.00000 0.37233 0.00000
0.00000 0.37331 0.00000
0.00000 0.37520 0.00000
0.00000 0.37617 0.00000
0.00000 0.37644 0.00000
0.00000 0.37563 0.00000
0.14900 0.37447 0.00000
0.30097 0.37236 0.00000
0.41707 0.37110 0.00000
0.51262 0.36850 0.00000
0.59339 0.36313 0.00000
0.66450 0.35954 0.00000
0.73256 0.35172 0.00000
0.79510 0.34599 0.00000
0.85442 0.33945 0.00000
0.91080 0.33076 0.00000
0.96711 0.32006 0.00000
1.00000 0.31192 0.00000
1.00000 0.30051 0.00000
1.00000 0.29093 0.00000
1.00000 0.28541 0.00000
1.00000 0.28387 0.00000
1.00000 0.27919 0.00000
1.00000 0.27817 0.00000
1.00000 0.28065 0.00000
1.00000 0.28433 0.00000
1.00000 0.29235 0.00000
1.00000 0.29985 0.00000
1.00000 0.31084 0.00000
1.00000 0.32213 0.00000
0.00000 0.44869 0.00000
0.00000 0.44894 0.00000
0.00000 0.44947 0.00000
0.00000 0.44973 0.00000
0.00000 0.45081 0.00000
0.00000 0.45047 0.00000
0.00000 0.44899 0.00000
0.00000 0.44637 0.00000
0.00000 0.44344 0.00000
0.22798 0.44087 0.00000
0.36584 0.43758 0.00000
0.47174 0.43546 0.00000
0.56172 0.43309 0.00000
0.63597 0.42936 0.00000
0.70277 0.42508 0.00000
0.76797 0.41883 0.00000
0.82888 0.41325 0.00000
0.88604 0.40636 0.00000
0.94307 0.39618 0.00000
1.00000 0.38881 0.00000
1.00000 0.38145 0.00000
1.00000 0.36676 0.00000
1.00000 0.35540 0.00000
1.00000 0.34648 0.00000
1.00000 0.33791 0.00000
1.00000 0.33163 0.00000
1.00000 0.32835 0.00000
1.00000 0.32684 0.00000
1.00000 0.33169 0.00000
1.00000 0.33744 0.00000
1.00000 0.34720 0.00000
1.00000 0.35688 0.00000
0.00000 0.51644 0.00000
0.00000 0.51668 0.00000
0.00000 0.51705 0.00000
0.00000 0.51725 0.00000
0.00000 0.51717 0.00000
0.00000 0.51603 0.00000
0.00000 0.51222 0.00000
0.00000 0.50770 0.00000
0.00000 0.50358 0.00000
0.10968 0.50073 0.00000
0.30257 0.49778 0.00000
0.42398 0.49417 0.00000
0.52246 0.49299 0.00000
0.60465 0.49187 0.00000
0.67455 0.48830 0.00000
0.73894 0.48452 0.00000
0.80022 0.47916 0.00000
0.86136 0.47152 0.00000
0.91805 0.46336 0.00000
0.97717 0.45758 0.00000
1.00000 0.45181 0.00000
1.00000 0.44039 0.00000
1.00000 0.42626 0.00000
1.00000 0.41553 0.00000
1.00000 0.40720 0.00000
1.00000 0.39816 0.00000
1.00000 0.39051 0.00000
1.00000 0.38357 0.00000
1.00000 0.38194 0.00000
1.00000 0.38164 0.00000
1.00000 0.38686 0.00000
1.00000 0.39350 0.00000
0.00000 0.57660 0.00000
0.00000 0.57681 0.00000
0.00000 0.57705 0.00000
0.00000 0.57690 0.00000
0.00000 0.57612 0.00000
0.00000 0.57456 0.00000
0.00000 0.57106 0.00000
0.00000 0.56621 0.00000
0.00000 0.56139 0.00000
0.00000 0.55716 0.00000
0.22246 0.55386 0.00000
0.37057 0.54994 0.00000
0.47774 0.54653 0.00000
0.56794 0.54558 0.00000
0.64434 0.54382 0.00000
0.71205 0.54163 0.00000
0.77422 0.53588 0.00000
0.83149 0.53120 0.00000
0.89301 0.52160 0.00000
0.95231 0.51690 0.00000
1.00000 0.51244 0.00000
1.00000 0.50256 0.00000
1.00000 0.49230 0.00000
1.00000 0.48021 0.00000
1.00000 0.47188 0.00000
1.00000 0.46199 0.00000
1.00000 0.45626 0.00000
1.00000 0.44900 0.00000
1.00000 0.44274 0.00000
1.00000 0.43680 0.00000
1.00000 0.43470 0.00000
1.00000 0.43561 0.00000
0.00000 0.63058 0.00000
0.00000 0.63074 0.00000
0.00000 0.63087 0.00000
0.00000 0.63052 0.00000
0.00000 0.62907 0.00000
0.00000 0.62710 0.00000
0.00000 0.62402 0.00000
0.00000 0.61914 0.00000
0.00000 0.61427 0.00000
0.00000 0.60975 0.00000
0.06752 0.60467 0.00000
0.30582 0.60093 0.00000
0.43020 0.59677 0.00000
0.52714 0.59449 0.00000
0.60980 0.59236 0.00000
0.68209 0.59176 0.00000
0.74705 0.58675 0.00000
0.80695 0.58180 0.00000
0.86354 0.57674 0.00000
0.92460 0.57081 0.00000
0.98772 0.56406 0.00000
1.00000 0.55678 0.00000
1.00000 0.54691 0.00000
1.00000 0.53695 0.00000
1.00000 0.53001 0.00000
1.00000 0.51977 0.00000
1.00000 0.51083 0.00000
1.00000 0.50379 0.00000
1.00000 0.50181 0.00000
1.00000 0.49668 0.00000
1.00000 0.48913 0.00000
1.00000 0.48470 0.00000
0.00000 0.67848 0.00000
0.00000 0.67858 0.00000
0.00000 0.67861 0.00000
0.00000 0.67811 0.00000
0.00000 0.67633 0.00000
0.00000 0.67418 0.00000
0.00000 0.67145 0.00000
0.00000 0.66774 0.00000
0.00000 0.66273 0.00000
0.00000 0.65721 0.00000
0.00000 0.65277 0.00000
0.21713 0.64752 0.00000
0.37380 0.64415 0.00000
0.48300 0.64009 0.00000
0.57107 0.63728 0.00000
0.64755 0.63483 0.00000
0.71675 0.63260 0.00000
0.77966 0.62897 0.00000
0.83887 0.62359 0.00000
0.89799 0.61811 0.00000
0.95816 0.61537 0.00000
1.00000 0.60420 0.00000
1.00000 0.59577 0.00000
1.00000 0.58773 0.00000
1.00000 0.57917 0.00000
1.00000 0.57146 0.00000
1.00000 0.56420 0.00000
1.00000 0.55445 0.00000
1.00000 0.54872 0.00000
1.00000 0.54478 0.00000
1.00000 0.54125 0.00000
1.00000 0.53707 0.00000
0.00000 0.72262 0.00000
0.00000 0.72268 0.00000
0.00000 0.72269 0.00000
0.00000 0.72227 0.00000
0.00000 0.72064 0.00000
0.00000 0.71853 0.00000
0.00000 0.71609 0.00000
0.00000 0.71310 0.00000
0.00000 0.70848 0.00000
0.00000 0.70337 0.00000
0.00000 0.69709 0.00000
0.00000 0.69217 0.00000
0.30623 0.68774 0.00000
0.43149 0.68433 0.00000
0.52901 0.67975 0.00000
0.61097 0.67594 0.00000
0.68304 0.67351 0.00000
0.74944 0.67031 0.00000
0.81185 0.66795 0.00000
0.87239 0.66137 0.00000
0.93423 0.65686 0.00000
0.99317 0.65339 0.00000
1.00000 0.64255 0.00000
1.00000 0.63199 0.00000
1.00000 0.62767 0.00000
1.00000 0.61835 0.00000
1.00000 0.61115 0.00000
1.00000 0.60444 0.00000
1.00000 0.59766 0.00000
1.00000 0.58988 0.00000
1.00000 0.58548 0.00000
1.00000 0.58146 0.00000
0.00000 0.76516 0.00000
0.00000 0.76529 0.00000
0.00000 0.76542 0.00000
0.00000 0.76534 0.00000
0.00000 0.76442 0.00000
0.00000 0.76241 0.00000
0.00000 0.76012 0.00000
0.00000 0.75706 0.00000
0.00000 0.75310 0.00000
0.00000 0.74678 0.00000
0.00000 0.74040 0.00000
0.00000 0.73464 0.00000
0.20019 0.72942 0.00000
0.37166 0.72576 0.00000
0.48116 0.72124 0.00000
0.57099 0.71617 0.00000
0.64775 0.71170 0.00000
0.71668 0.70821 0.00000
0.78235 0.70589 0.00000
0.84547 0.70319 0.00000
0.90685 0.69916 0.00000
0.97081 0.69362 0.00000
1.00000 0.68802 0.00000
1.00000 0.67939 0.00000
1.00000 0.66834 0.00000
1.00000 0.66315 0.00000
1.00000 0.65773 0.00000
1.00000 0.64863 0.00000
1.00000 0.64386 0.00000
1.00000 0.63788 0.00000
1.00000 0.63128 0.00000
1.00000 0.62416 0.00000
0.00000 0.80595 0.00000
0.00000 0.80617 0.00000
0.00000 0.80644 0.00000
0.00000 0.80667 0.00000
0.00000 0.80640 0.00000
0.00000 0.80492 0.00000
0.00000 0.80258 0.00000
0.00000 0.79926 0.00000
0.00000 0.79473 0.00000
0.00000 0.78828 0.00000
0.00000 0.78184 0.00000
0.00000 0.77605 0.00000
0.00000 0.77130 0.00000
0.29238 0.76538 0.00000
0.42674 0.76178 0.00000
0.52604 0.75589 0.00000
0.60968 0.74988 0.00000
0.68302 0.74493 0.00000
0.75074 0.74188 0.00000
0.81583 0.74072 0.00000
0.88012 0.73892 0.00000
0.94237 0.73649 0.00000
1.00000 0.72779 0.00000
1.00000 0.72132 0.00000
1.00000 0.71665 0.00000
1.00000 0.70441 0.00000
1.00000 0.69853 0.00000
1.00000 0.69408 0.00000
1.00000 0.68801 0.00000
1.00000 0.68098 0.00000
1.00000 0.67715 0.00000
1.00000 0.67130 0.00000
0.00000 0.84583 0.00000
0.00000 0.84611 0.00000
0.00000 0.84646 0.00000
0.00000 0.84690 0.00000
0.00000 0.84712 0.00000
0.00000 0.84634 0.00000
0.00000 0.84418 0.00000
0.00000 0.84094 0.00000
0.00000 0.83607 0.00000
0.00000 0.82975 0.00000
0.00000 0.82204 0.00000
0.00000 0.81671 0.00000
0.00000 0.81232 0.00000
0.15039 0.80696 0.00000
0.36054 0.80092 0.00000
0.47494 0.79643 0.00000
0.56669 0.78959 0.00000
0.64593 0.78346 0.00000
0.71741 0.77856 0.00000
0.78409 0.77618 0.00000
0.85037 0.77590 0.00000
0.91560 0.77402 0.00000
0.97587 0.77210 0.00000
1.00000 0.76269 0.00000
1.00000 0.75569 0.00000
1.00000 0.75183 0.00000
1.00000 0.74268 0.00000
1.00000 0.73329 0.00000
1.00000 0.73104 0.00000
1.00000 0.72636 0.00000
1.00000 0.72057 0.00000
1.00000 0.71561 0.00000
0.00000 0.88618 0.00000
0.00000 0.88647 0.00000
0.00000 0.88684 0.00000
0.00000 0.88737 0.00000
0.00000 0.88791 0.00000
0.00000 0.88783 0.00000
0.00000 0.88608 0.00000
0.00000 0.88310 0.00000
0.00000 0.87846 0.00000
0.00000 0.87200 0.00000
0.00000 0.86421 0.00000
0.00000 0.85777 0.00000
0.00000 0.85361 0.00000
0.00000 0.84986 0.00000
0.25729 0.84372 0.00000
0.41385 0.83700 0.00000
0.51629 0.83174 0.00000
0.60260 0.82461 0.00000
0.67934 0.81811 0.00000
0.74986 0.81359 0.00000
0.81750 0.81139 0.00000
0.88581 0.81071 0.00000
0.94884 0.81043 0.00000
1.00000 0.80705 0.00000
1.00000 0.79816 0.00000
1.00000 0.79022 0.00000
1.00000 0.78808 0.00000
1.00000 0.78007 0.00000
1.00000 0.77203 0.00000
1.00000 0.76717 0.00000
1.00000 0.76556 0.00000
1.00000 0.76066 0.00000
0.00000 0.92824 0.00000
0.00000 0.92852 0.00000
0.00000 0.92887 0.00000
0.00000 0.92932 0.00000
0.00000 0.93006 0.00000
0.00000 0.93085 0.00000
0.00000 0.92984 0.00000
0.00000 0.92685 0.00000
0.00000 0.92230 0.00000
0.00000 0.91570 0.00000
0.00000 0.90759 0.00000
0.00000 0.89933 0.00000
0.00000 0.89517 0.00000
0.00000 0.89260 0.00000
0.00000 0.88778 0.00000
0.32700 0.88008 0.00000
0.45784 0.87322 0.00000
0.55276 0.86716 0.00000
0.63608 0.85979 0.00000
0.71152 0.85346 0.00000
0.78266 0.84893 0.00000
0.85233 0.84718 0.00000
0.92095 0.84626 0.00000
0.98023 0.84553 0.00000
1.00000 0.84114 0.00000
1.00000 0.83412 0.00000
1.00000 0.82678 0.00000
1.00000 0.82304 0.00000
1.00000 0.82037 0.00000
1.00000 0.81229 0.00000
1.00000 0.80622 0.00000
1.00000 0.80399 0.00000
0.00000 0.96768 0.00000
0.00000 0.96811 0.00000
0.00000 0.96861 0.00000
0.00000 0.96931 0.00000
0.00000 0.97006 0.00000
0.00000 0.97037 0.00000
0.00000 0.96909 0.00000
0.00000 0.96565 0.00000
0.00000 0.96104 0.00000
0.00000 0.95462 0.00000
0.00000 0.94663 0.00000
0.00000 0.93853 0.00000
0.00000 0.93295 0.00000
0.00000 0.93089 0.00000
0.00000 0.92843 0.00000
0.18581 0.92202 0.00000
0.38393 0.91415 0.00000
0.49864 0.90770 0.00000
0.58865 0.90150 0.00000
0.66985 0.89426 0.00000
0.74522 0.88835 0.00000
0.81786 0.88450 0.00000
0.88708 0.88242 0.00000
0.95336 0.88074 0.00000
1.00000 0.88007 0.00000
1.00000 0.87656 0.00000
1.00000 0.87142 0.00000
1.00000 0.86404 0.00000
1.00000 0.86071 0.00000
1.00000 0.85958 0.00000
1.00000 0.85417 0.00000
1.00000 0.84703 0.00000
0.00000 0.98872 0.00000
0.00000 0.98902 0.00000
0.00000 0.98935 0.00000
0.00000 0.98981 0.00000
0.00000 0.99029 0.00000
0.00000 0.99047 0.00000
0.00000 0.98967 0.00000
0.00000 0.98729 0.00000
0.00000 0.98404 0.00000
0.00000 0.97983 0.00000
0.00000 0.97470 0.00000
0.00000 0.96947 0.00000
0.00000 0.96502 0.00000
0.00000 0.96322 0.00000
0.00000 0.96257 0.00000
0.00000 0.95926 0.00000
0.28211 0.95208 0.00000
0.43620 0.94455 0.00000
0.53910 0.93902 0.00000
0.62498 0.93312 0.00000
0.70534 0.92621 0.00000
0.78072 0.92122 0.00000
0.85217 0.91743 0.00000
0.92027 0.91641 0.00000
0.98078 0.91556 0.00000
1.00000 0.91475 0.00000
1.00000 0.91323 0.00000
1.00000 0.90730 0.00000
1.00000 0.90118 0.00000
1.00000 0.89679 0.00000
1.00000 0.89816 0.00000
1.00000 0.89687 0.00000
0.00000 0.99653 0.00000
0.00000 0.99665 0.00000
0.00000 0.99680 0.00000
0.00000 0.99698 0.00000
0.00000 0.99719 0.00000
0.00000 0.99731 0.00000
0.00000 0.99713 0.00000
0.00000 0.99638 0.00000
0.00000 0.99517 0.00000
0.00000 0.99370 0.00000
0.00000 0.99202 0.00000
0.00000 0.99042 0.00000
0.00000 0.98921 0.00000
0.00000 0.98826 0.00000
0.00000 0.98780 0.00000
0.00000 0.98700 0.00000
0.13428 0.98175 0.00000
0.36189 0.97431 0.00000
0.48739 0.96870 0.00000
0.58066 0.96463 0.00000
0.66392 0.95947 0.00000
0.74334 0.95404 0.00000
0.81795 0.95090 0.00000
0.88912 0.94997 0.00000
0.95063 0.95002 0.00000
0.99651 0.94740 0.00000
1.00000 0.94633 0.00000
1.00000 0.94422 0.00000
1.00000 0.94086 0.00000
1.00000 0.93546 0.00000
1.00000 0.93188 0.00000
1.00000 0.93586 0.00000
0.00000 1.00000 0.00000
0.00000 1.00000 0.00000
0.00000 1.00000 0.00000
0.00000 1.00000 0.00000
0.00000 1.00000 0.00000
0.00000 1.00000 0.00000
0.00000 1.00000 0.00000
0.00000 1.00000 0.00000
0.00000 1.00000 0.00000
0.00000 1.00000 0.00000
0.00000 1.00000 0.00000
0.00000 1.00000 0.00000
0.00000 1.00000 0.00000
0.00000 1.00000 0.00000
0.00000 1.00000 0.00000
0.00000 1.00000 0.00000
0.00000 0.99811 0.00000
0.28246 0.99315 0.00000
0.43415 0.98867 0.00000
0.53905 0.98653 0.00000
0.62554 0.98432 0.00000
0.70690 0.98072 0.00000
0.78547 0.97815 0.00000
0.85892 0.97816 0.00000
0.92321 0.97790 0.00000
0.97188 0.97557 0.00000
1.00000 0.97164 0.00000
1.00000 0.97122 0.00000
1.00000 0.97215 0.00000
1.00000 0.96821 0.00000
1.00000 0.96380 0.00000
1.00000 0.96197 0.00000
0.00000 1.00000 0.00000
0.00000 1.00000 0.00000
0.00000 1.00000 0.00000
0.00000 1.00000 0.00000
0.00000 1.00000 0.00000
0.00000 1.00000 0.00000
0.00000 1.00000 0.00000
0.00000 1.00000 0.00000
0.00000 1.00000 0.00000
0.00000 1.00000 0.00000
0.00000 1.00000 0.00000
0.00000 1.00000 0.00000
0.00000 1.00000 0.00000
0.00000 1.00000 0.00000
0.00000 1.00000 0.00000
0.00000 1.00000 0.00000
0.00000 1.00000 0.00000
0.21829 0.99976 0.00000
0.38183 0.99875 0.00000
0.49996 0.99890 0.00000
0.59200 0.99927 0.00000
0.67364 0.99844 0.00000
0.75460 0.99657 0.00000
0.83144 0.99597 0.00000
0.89812 0.99649 0.00000
0.95112 0.99455 0.00000
0.98681 0.99076 0.00000
1.00000 0.98895 0.00000
1.00000 0.99051 0.00000
1.00000 0.99083 0.00000
1.00000 0.98634 0.00000
1.00000 0.98403 0.00000
0.00000 1.00000 0.00000
0.00000 1.00000 0.00000
0.00000 1.00000 0.00000
0.00000 1.00000 0.00000
0.00000 1.00000 0.00000
0.00000 1.00000 0.00000
0.00000 1.00000 0.00000
0.00000 1.00000 0.00000
0.00000 1.00000 0.00000
0.00000 1.00000 0.00000
0.00000 1.00000 0.00000
0.00000 1.00000 0.00000
0.00000 1.00000 0.00000
0.00000 1.00000 0.00000
0.00000 1.00000 0.00000
0.00000 1.00000 0.00000
0.00000 1.00000 0.00000
0.13484 1.00000 0.00000
0.34252 1.00000 0.00000
0.46327 1.00000 0.00000
0.56365 1.00000 0.00000
0.64941 1.00000 0.00000
0.73037 1.00000 0.00000
0.80797 1.00000 0.00000
0.87694 1.00000 0.00000
0.93305 1.00000 0.00000
0.97436 1.00000 0.00000
0.99921 1.00000 0.00000
1.00000 1.00000 0.00000
1.00000 1.00000 0.00000
1.00000 0.99961 0.00000
1.00000 0.99730 0.00000
0.00000 1.00000 0.00000
0.00000 1.00000 0.00000
0.00000 1.00000 0.00000
0.00000 1.00000 0.00000
0.00000 1.00000 0.00000
0.00000 1.00000 0.00000
0.00000 1.00000 0.00000
0.00000 1.00000 0.00000
0.00000 1.00000 0.00000
0.00000 1.00000 0.00000
0.00000 1.00000 0.00000
0.00000 1.00000 0.00000
0.00000 1.00000 0.00000
0.00000 1.00000 0.00000
0.00000 1.00000 0.00000
0.00000 1.00000 0.00000
0.00000 1.00000 0.00000
0.00000 1.00000 0.00000
0.31250 1.00000 0.00000
0.43467 1.00000 0.00000
0.53846 1.00000 0.00000
0.63096 1.00000 0.00000
0.71327 1.00000 0.00000
0.78896 1.00000 0.00000
0.85849 1.00000 0.00000
0.91774 1.00000 0.00000
0.96348 1.00000 0.00000
0.99237 1.00000 0.00000
1.00000 1.00000 0.00000
1.00000 1.00000 0.00000
1.00000 1.00000 0.00000
0.99846 1.00000 0.00000
0.00000 1.00000 0.00000
0.00000 1.00000 0.00000
0.00000 1.00000 0.00000
0.00000 1.00000 0.00000
