cube lut/velvia_DisplayP3.cube
# DisplayP3
# github.com/abpy/FujifilmCameraProfiles
LUT_3D_SIZE 8
DOMAIN_MIN 0.000000 0.000000 0.000000
DOMAIN_MAX 0.903226 0.903226 0.903226
0.00000 0.00000 0.00000
0.04741 0.00000 0.00000
0.33621 0.03390 0.00000
0.66137 0.12469 0.00000
0.90629 0.18932 0.00000
1.00000 0.22470 0.00000
1.00000 0.20913 0.00000
1.00000 0.20759 0.00000
0.00000 0.05136 0.00000
0.02709 0.03777 0.00000
0.32049 0.06861 0.00623
0.65753 0.14583 0.01179
0.90226 0.21218 0.00000
1.00000 0.25222 0.00000
1.00000 0.24369 0.00000
1.00000 0.24526 0.00000
0.00000 0.31583 0.00310
0.00000 0.28316 0.01750
0.23413 0.28944 0.03051
0.63329 0.28286 0.09161
0.88341 0.27771 0.08805
1.00000 0.30795 0.00000
1.00000 0.31133 0.00000
1.00000 0.31958 0.00000
0.00000 0.58898 0.08309
0.00000 0.58226 0.08647
0.00000 0.56918 0.09034
0.48734 0.54779 0.11731
0.79159 0.52822 0.14641
1.00000 0.49290 0.16611
1.00000 0.43644 0.00000
1.00000 0.42401 0.00000
0.00000 0.77145 0.14800
0.00000 0.77213 0.13780
0.00000 0.76792 0.12949
0.17665 0.73177 0.13455
0.66897 0.70067 0.15811
0.94257 0.67315 0.18877
1.00000 0.63220 0.19279
1.00000 0.59249 0.14711
0.00000 0.90660 0.19826
0.00000 0.91309 0.18779
0.00000 0.92461 0.16831
0.00000 0.91229 0.15962
0.47234 0.85701 0.16841
0.81378 0.82394 0.19364
1.00000 0.79185 0.21560
1.00000 0.75111 0.21081
0.00000 0.96013 0.23296
0.00000 0.96524 0.22382
0.00000 0.97536 0.20146
0.00000 0.98036 0.17569
0.00000 0.98173 0.17820
0.64561 0.96357 0.20126
0.95784 0.93864 0.22802
1.00000 0.91094 0.23075
0.00000 0.97113 0.26457
0.00000 0.97306 0.25667
0.00000 0.97696 0.23548
0.00000 0.97994 0.19463
0.00000 0.98028 0.17259
0.43859 0.98643 0.19030
0.81715 0.99468 0.22212
1.00000 0.98993 0.24454
0.00000 0.00000 0.05960
0.06263 0.00452 0.06317
0.35718 0.04197 0.08962
0.66656 0.11993 0.13038
0.90916 0.18072 0.15430
1.00000 0.21803 0.10600
1.00000 0.20323 0.00000
1.00000 0.20561 0.00000
0.00000 0.04398 0.04506
0.05155 0.05192 0.05174
0.34225 0.08043 0.07441
0.66194 0.13743 0.11497
0.90194 0.19544 0.14153
1.00000 0.23948 0.07597
1.00000 0.23500 0.00000
1.00000 0.24191 0.00000
0.00000 0.30731 0.05054
0.00000 0.29832 0.01796
0.26147 0.29791 0.02994
0.62119 0.29805 0.08609
0.86941 0.28775 0.13193
1.00000 0.29749 0.13871
1.00000 0.30102 0.00000
1.00000 0.31492 0.00000
0.00000 0.58180 0.12251
0.00000 0.57427 0.09148
0.00000 0.55953 0.08385
0.49259 0.54214 0.10909
0.77709 0.53560 0.13669
1.00000 0.50880 0.17911
1.00000 0.44902 0.15700
1.00000 0.42861 0.00000
0.00000 0.76855 0.18289
0.00000 0.76714 0.15799
0.00000 0.75947 0.12898
0.22004 0.72992 0.13397
0.66177 0.70930 0.15259
0.92757 0.69191 0.18645
1.00000 0.65124 0.19752
1.00000 0.60819 0.18655
0.00000 0.90936 0.22785
0.00000 0.91563 0.21117
0.00000 0.92523 0.17289
0.00000 0.91376 0.15465
0.47279 0.86960 0.16892
0.80360 0.83818 0.19020
1.00000 0.81313 0.21593
1.00000 0.77272 0.21322
0.00000 0.96200 0.25915
0.00000 0.96689 0.24693
0.00000 0.97619 0.21451
0.00000 0.98036 0.17605
0.00000 0.98344 0.17476
0.64217 0.97235 0.20174
0.94877 0.95448 0.22689
1.00000 0.93188 0.23167
0.00000 0.97183 0.28941
0.00000 0.97367 0.27987
0.00000 0.97733 0.25342
0.00000 0.97997 0.20175
0.00000 0.98028 0.17366
0.44492 0.98610 0.19066
0.81524 0.99508 0.22137
1.00000 0.99768 0.24651
0.00162 0.00000 0.40769
0.10270 0.00000 0.42253
0.42203 0.06787 0.45092
0.68965 0.13440 0.43888
0.90658 0.16921 0.44784
1.00000 0.19946 0.43169
1.00000 0.17965 0.39729
1.00000 0.18533 0.25937
0.00000 0.06548 0.38428
0.10940 0.07912 0.39215
0.39242 0.10404 0.40228
0.66311 0.15341 0.42046
0.87537 0.19832 0.43430
1.00000 0.22568 0.43016
1.00000 0.20728 0.38586
1.00000 0.21903 0.25406
0.00000 0.31790 0.32076
0.00000 0.31419 0.31770
0.30693 0.30742 0.30699
0.61253 0.30726 0.31353
0.83176 0.32002 0.34075
1.00000 0.32557 0.35562
1.00000 0.29964 0.36109
1.00000 0.30259 0.28701
0.00000 0.56571 0.26957
0.00000 0.56380 0.23652
0.00000 0.54591 0.22133
0.50195 0.52996 0.23084
0.75759 0.52934 0.24426
0.98746 0.51935 0.25959
1.00000 0.48083 0.24961
1.00000 0.44368 0.25061
0.00000 0.75197 0.28451
0.00000 0.74644 0.25063
0.00000 0.73513 0.21655
0.29964 0.71208 0.20940
0.65530 0.70064 0.22415
0.90102 0.69914 0.23751
1.00000 0.67623 0.23807
1.00000 0.64059 0.21052
0.00000 0.90829 0.30316
0.00000 0.91186 0.27909
0.00000 0.91104 0.22427
0.00000 0.89120 0.19797
0.48880 0.87118 0.21067
0.78913 0.84983 0.21286
1.00000 0.84547 0.24603
1.00000 0.80923 0.23050
0.00000 0.96422 0.32265
0.00000 0.96863 0.30592
0.00000 0.97678 0.26081
0.00000 0.98069 0.19737
0.00217 0.98388 0.19830
0.64472 0.97787 0.22449
0.93184 0.97756 0.23181
1.00000 0.96564 0.24478
0.00000 0.97281 0.34897
0.00000 0.97450 0.33687
0.00000 0.97777 0.30296
0.00000 0.98008 0.23647
0.00000 0.98043 0.19959
0.46545 0.98582 0.21444
0.81563 0.99615 0.24157
0.99982 1.00000 0.25896
0.03002 0.00000 0.75767
0.15341 0.01194 0.79278
0.43870 0.07913 0.84609
0.70496 0.13819 0.85227
0.91616 0.17928 0.82166
1.00000 0.22655 0.77332
1.00000 0.22291 0.75546
1.00000 0.21468 0.65412
0.04633 0.06584 0.76589
0.18266 0.08128 0.78569
0.44121 0.12159 0.79425
0.67087 0.18302 0.76661
0.87610 0.21740 0.76665
1.00000 0.25633 0.74962
1.00000 0.25382 0.73520
1.00000 0.25621 0.65333
0.00000 0.32833 0.68096
0.04233 0.32609 0.67327
0.37402 0.32665 0.64924
0.61744 0.33418 0.63837
0.82084 0.34788 0.64119
1.00000 0.37070 0.64489
1.00000 0.37447 0.65728
1.00000 0.37632 0.61589
0.00000 0.56093 0.57817
0.00000 0.55218 0.56924
0.15689 0.53715 0.54138
0.52754 0.52723 0.52666
0.75538 0.52419 0.51716
0.96811 0.52275 0.53014
1.00000 0.51639 0.53372
1.00000 0.51144 0.51905
0.00000 0.73691 0.51711
0.00000 0.73310 0.50387
0.00000 0.71775 0.48032
0.36885 0.69625 0.45161
0.66527 0.68764 0.44747
0.89336 0.68365 0.44663
1.00000 0.67545 0.45495
1.00000 0.66534 0.45373
0.00000 0.89596 0.47376
0.00000 0.89759 0.45973
0.00000 0.89451 0.43633
0.00000 0.86772 0.41068
0.53021 0.85007 0.39328
0.79195 0.84197 0.39657
1.00000 0.83759 0.40252
1.00000 0.81948 0.39981
0.00000 0.96270 0.45239
0.00000 0.96713 0.43958
0.00000 0.97677 0.41357
0.00000 0.98171 0.38394
0.27183 0.97349 0.35651
0.66891 0.97367 0.35440
0.92304 0.97421 0.35208
1.00000 0.96903 0.35919
0.00000 0.97285 0.46078
0.00000 0.97452 0.45042
0.00000 0.97786 0.42649
0.00000 0.97998 0.40153
0.00000 0.98120 0.35338
0.52129 0.98950 0.34567
0.82972 0.99690 0.35569
0.99840 1.00000 0.35062
0.10354 0.00000 0.87995
0.22765 0.00097 0.93022
0.47771 0.07166 0.98257
0.70969 0.13329 0.98806
0.90829 0.18434 0.99469
1.00000 0.22209 0.98688
1.00000 0.22827 0.95359
1.00000 0.27879 0.89004
0.11585 0.04830 0.96167
0.24988 0.05755 0.97672
0.48292 0.10270 0.98354
0.69518 0.16947 0.97534
0.88005 0.23419 0.96083
1.00000 0.26731 0.95371
1.00000 0.26022 0.93774
1.00000 0.31214 0.86905
0.04689 0.34671 0.93057
0.23939 0.35547 0.91552
0.45349 0.36566 0.89690
0.64349 0.37452 0.87843
0.82505 0.38290 0.87120
1.00000 0.40026 0.86501
1.00000 0.40574 0.86116
1.00000 0.42468 0.81506
0.00000 0.55108 0.82769
0.00000 0.54413 0.81993
0.32047 0.53580 0.80239
0.56897 0.53549 0.78772
0.76623 0.53362 0.77461
0.97242 0.53182 0.77949
1.00000 0.53932 0.75845
1.00000 0.55542 0.74867
0.00000 0.72720 0.75079
0.00000 0.71946 0.74286
0.00000 0.70319 0.72047
0.43985 0.69088 0.69532
0.68427 0.68407 0.68373
0.90149 0.68016 0.67856
1.00000 0.67365 0.68790
1.00000 0.67875 0.68580
0.00000 0.87911 0.68557
0.00000 0.88077 0.67610
0.00000 0.87826 0.65821
0.12313 0.85489 0.62893
0.56119 0.84284 0.61410
0.80656 0.83263 0.60521
0.99870 0.83019 0.61157
1.00000 0.82288 0.61829
0.00000 0.95404 0.64560
0.00000 0.95933 0.63552
0.00000 0.97266 0.61208
0.00000 0.97545 0.58284
0.36677 0.97015 0.55963
0.69745 0.96627 0.55891
0.93332 0.95868 0.55505
1.00000 0.96191 0.56614
0.00000 0.97175 0.64052
0.00000 0.97375 0.63561
0.00000 0.97776 0.62257
0.00000 0.97997 0.59954
0.00000 0.98236 0.56715
0.57958 0.99103 0.55540
0.85297 0.99470 0.55782
0.99541 1.00000 0.54516
0.20531 0.00333 0.95531
0.31269 0.01972 0.97481
0.51294 0.08080 0.97990
0.71481 0.13472 0.98249
0.90690 0.18372 0.98827
1.00000 0.22081 0.99390
1.00000 0.24736 1.00000
1.00000 0.30661 0.98462
0.21754 0.07421 0.97551
0.32564 0.07813 0.97972
0.51652 0.10851 0.97983
0.70791 0.16555 0.98329
0.89163 0.22373 0.98977
1.00000 0.26948 0.99294
1.00000 0.29056 1.00000
1.00000 0.34808 0.97721
0.22163 0.33336 0.97993
0.33088 0.34132 0.98082
0.50489 0.35503 0.98392
0.67044 0.37110 0.98690
0.84482 0.38190 0.98503
1.00000 0.43022 0.97994
1.00000 0.42725 0.97663
1.00000 0.46268 0.96445
0.12845 0.55027 0.98034
0.26460 0.55344 0.97688
0.43460 0.55279 0.97281
0.61513 0.55629 0.97143
0.78837 0.55673 0.95088
0.97561 0.55334 0.95131
1.00000 0.56482 0.94824
1.00000 0.58097 0.93249
0.00000 0.70972 0.95988
0.00000 0.70422 0.95453
0.24614 0.69526 0.94172
0.51148 0.68935 0.92278
0.71557 0.68958 0.90999
0.91641 0.68540 0.91825
1.00000 0.68529 0.89925
1.00000 0.69476 0.88850
0.00000 0.86682 0.91318
0.00000 0.86913 0.90438
0.00000 0.86359 0.88286
0.31079 0.84755 0.86484
0.60257 0.83945 0.86060
0.83226 0.83192 0.83230
1.00000 0.82856 0.83801
1.00000 0.82887 0.83265
0.00000 0.94871 0.85637
0.00000 0.95564 0.85130
0.00000 0.97074 0.84094
0.00000 0.97318 0.81551
0.44695 0.96880 0.79147
0.72809 0.95527 0.78272
0.94431 0.95436 0.77595
1.00000 0.95521 0.78088
0.00000 0.97368 0.84731
0.00000 0.97660 0.84565
0.00000 0.98130 0.83799
0.00000 0.98115 0.81287
0.20499 0.98420 0.77581
0.61740 0.99012 0.76439
0.86619 0.99544 0.75782
0.99116 1.00000 0.74315
0.31246 0.03328 0.97584
0.39405 0.05219 0.98011
0.55235 0.09540 0.98023
0.72492 0.14061 0.98259
0.90710 0.19021 0.98540
1.00000 0.22007 0.98798
1.00000 0.26792 0.98854
1.00000 0.31924 0.99679
0.32272 0.10212 0.97904
0.40399 0.10542 0.97999
0.55383 0.12997 0.98033
0.72002 0.16543 0.98250
0.89819 0.20885 0.98525
1.00000 0.25520 0.98817
1.00000 0.30707 0.98896
1.00000 0.36734 0.99919
0.32164 0.32408 0.97984
0.39966 0.32527 0.98017
0.54210 0.33286 0.98126
0.69401 0.33689 0.98315
0.86522 0.37152 0.98603
1.00000 0.40825 0.98956
1.00000 0.44031 0.99534
1.00000 0.49161 1.00000
0.32467 0.55288 0.98219
0.40775 0.56018 0.98322
0.52357 0.56596 0.98456
0.66552 0.57083 0.98763
0.81810 0.57923 0.99116
0.98257 0.57532 0.99755
1.00000 0.59103 0.99803
1.00000 0.62025 0.99703
0.15452 0.70187 0.98544
0.26620 0.70079 0.98600
0.42068 0.69762 0.98691
0.58920 0.70087 0.99002
0.76023 0.70385 0.99082
0.93366 0.70296 1.00000
1.00000 0.70966 0.99249
1.00000 0.72369 0.98725
0.00000 0.86000 0.98847
0.00000 0.85840 0.98862
0.13168 0.85266 0.98848
0.44972 0.84427 0.98884
0.66312 0.83914 0.99795
0.86481 0.83804 0.98046
1.00000 0.83414 0.97951
1.00000 0.84140 0.97137
0.00000 0.95126 0.98877
0.00000 0.96144 0.98889
0.00000 0.97282 0.98754
0.15916 0.97192 0.98200
0.53088 0.95909 0.96730
0.76659 0.95248 0.95565
0.95144 0.95155 0.95120
1.00000 0.94660 0.94406
0.00000 0.96373 0.98490
0.00000 0.96730 0.98659
0.00000 0.97579 0.98538
0.00000 0.98441 0.96635
0.34992 0.98807 0.94266
0.65600 0.98817 0.93078
0.87254 0.99819 0.91559
0.98852 0.99915 0.90624
0.40823 0.08342 0.97900
0.46797 0.09483 0.97952
0.59256 0.11051 0.98069
0.74249 0.15370 0.98267
0.91807 0.20536 0.98555
1.00000 0.24468 0.98841
1.00000 0.25674 0.98841
1.00000 0.32648 0.98942
0.41564 0.12861 0.97923
0.47328 0.13840 0.97968
0.59439 0.15141 0.98079
0.74015 0.18449 0.98274
0.91350 0.23145 0.98553
1.00000 0.27205 0.98842
1.00000 0.29268 0.98862
1.00000 0.37302 0.98954
0.40816 0.32928 0.98016
0.46665 0.32856 0.98054
0.58402 0.33033 0.98166
0.72425 0.33691 0.98344
0.88970 0.36681 0.98589
1.00000 0.38624 0.98879
1.00000 0.41601 0.98944
1.00000 0.50111 0.99007
0.41556 0.54948 0.98272
0.47182 0.55526 0.98320
0.57727 0.56720 0.98415
0.71082 0.57774 0.98572
0.85398 0.58041 0.98746
0.99671 0.59863 0.99158
1.00000 0.59694 0.99138
1.00000 0.65546 0.99413
0.37764 0.71889 0.98536
0.44209 0.72430 0.98574
0.54183 0.72911 0.98619
0.66635 0.73278 0.98787
0.81557 0.73719 0.99066
0.95493 0.74261 0.99435
1.00000 0.73608 0.99727
1.00000 0.74810 0.99638
0.13952 0.86433 0.98734
0.24558 0.86232 0.98761
0.39784 0.85774 0.98832
0.55874 0.85296 0.98907
0.73066 0.85253 0.99435
0.89726 0.85348 0.99491
1.00000 0.84398 1.00000
1.00000 0.84816 0.99926
0.00000 0.96832 0.99027
0.00000 0.96886 0.99072
0.00000 0.96621 0.99207
0.39917 0.95898 0.99434
0.61759 0.95154 0.99594
0.80897 0.95121 0.99851
0.95776 0.94295 0.99876
1.00000 0.93318 0.99866
0.00000 0.96802 0.98926
0.00000 0.97272 0.98949
0.00000 0.97899 0.99017
0.00000 0.98554 0.99110
0.47759 0.98669 0.99122
0.70256 0.99502 0.98801
0.88184 0.99667 0.98696
0.99258 0.99257 0.99246
