cube lut/velvia_DisplayP3.cube
# DisplayP3
# github.com/abpy/FujifilmCameraProfiles
LUT_3D_SIZE 5
DOMAIN_MIN 0.000000 0.000000 0.000000
DOMAIN_MAX 0.903226 0.903226 0.903226
0.00000 0.00000 0.00000
0.24183 0.01553 0.00000
0.79322 0.15979 0.00000
1.00000 0.22377 0.00000
1.00000 0.20759 0.00000
0.00000 0.23374 0.00000
0.16082 0.20734 0.01963
0.78293 0.22858 0.07637
1.00000 0.29324 0.00000
1.00000 0.29871 0.00000
0.00000 0.68827 0.11669
0.00000 0.68006 0.11003
0.58581 0.63217 0.14057
1.00000 0.58344 0.18614
1.00000 0.50019 0.00000
0.00000 0.92904 0.20833
0.00000 0.94885 0.18400
0.00000 0.92216 0.16328
0.85062 0.85496 0.20241
1.00000 0.79522 0.21792
0.00000 0.97113 0.26457
0.00000 0.97590 0.24244
0.00000 0.98023 0.17764
0.55720 0.98830 0.19603
1.00000 0.98993 0.24454
0.00000 0.00000 0.30419
0.32668 0.03018 0.33611
0.79939 0.14637 0.35022
1.00000 0.20193 0.34181
1.00000 0.19459 0.12381
0.00000 0.23681 0.23846
0.23343 0.23411 0.23380
0.74740 0.25203 0.26935
1.00000 0.27796 0.30691
1.00000 0.27990 0.15121
0.00000 0.66871 0.22619
0.00000 0.65415 0.15732
0.58223 0.62388 0.17712
1.00000 0.60863 0.20506
1.00000 0.53699 0.19414
0.00000 0.93383 0.28425
0.00000 0.94793 0.22588
0.00000 0.92267 0.17270
0.82858 0.88391 0.20093
1.00000 0.84782 0.22793
0.00000 0.97260 0.33021
0.00000 0.97679 0.29691
0.00000 0.98014 0.19172
0.56504 0.98777 0.20300
1.00000 1.00000 0.25264
0.05659 0.00000 0.83080
0.38954 0.04335 0.95357
0.81409 0.15760 0.96419
1.00000 0.22844 0.89888
1.00000 0.25877 0.80198
0.00000 0.28006 0.85467
0.38090 0.29526 0.82003
0.73879 0.31848 0.80148
1.00000 0.35918 0.79038
1.00000 0.37290 0.74199
0.00000 0.64920 0.67071
0.00000 0.62938 0.64648
0.61066 0.61061 0.61026
0.98506 0.60239 0.60969
1.00000 0.60109 0.60193
0.00000 0.91588 0.56881
0.00000 0.92318 0.54067
0.28792 0.89209 0.49529
0.83175 0.87433 0.48457
1.00000 0.86323 0.49716
0.00000 0.97235 0.54376
0.00000 0.97678 0.52581
0.00000 0.98013 0.48357
0.63444 0.99272 0.44869
0.99659 0.99975 0.44257
0.23291 0.01481 0.96617
0.47313 0.06804 0.98080
0.80913 0.16039 0.98392
1.00000 0.22727 0.99198
1.00000 0.31493 0.99601
0.24715 0.25932 0.97971
0.47505 0.27108 0.98105
0.77532 0.31388 0.98548
1.00000 0.38763 0.99537
1.00000 0.43194 0.99024
0.00000 0.62809 0.98287
0.34415 0.62407 0.98207
0.67399 0.62766 0.96740
0.98813 0.62512 0.96044
1.00000 0.64635 0.94441
0.00000 0.89579 0.94835
0.00000 0.90603 0.93131
0.44775 0.88148 0.90121
0.86880 0.86843 0.86865
1.00000 0.86545 0.86802
0.00000 0.97601 0.89729
0.00000 0.98569 0.89697
0.00000 0.98134 0.84088
0.69451 0.99041 0.81192
0.98990 1.00000 0.78875
0.40823 0.08342 0.97900
0.55743 0.10445 0.98032
0.82699 0.17611 0.98405
1.00000 0.25149 0.98842
1.00000 0.32648 0.98942
0.41079 0.27173 0.97981
0.55531 0.27056 0.98091
0.80863 0.29061 0.98428
1.00000 0.35666 0.98878
1.00000 0.46194 0.98983
0.41522 0.64508 0.98415
0.54474 0.65643 0.98508
0.76819 0.66756 0.98804
1.00000 0.68299 0.99494
1.00000 0.70380 0.99546
0.00000 0.89879 0.98797
0.29800 0.89180 0.98891
0.61307 0.88112 0.99122
0.91438 0.87969 0.99653
1.00000 0.87076 0.99977
0.00000 0.96802 0.98926
0.00000 0.97731 0.98998
0.32281 0.98702 0.99138
0.75160 0.99685 0.98747
0.99258 0.99257 0.99246
