cube lut/velvia_sRGB.cube
# sRGB
# github.com/abpy/FujifilmCameraProfiles
LUT_3D_SIZE 5
DOMAIN_MIN 0.000000 0.000000 0.000000
DOMAIN_MAX 0.903226 0.903226 0.903226
0.00000 0.00000 0.00000
0.19844 0.00000 0.00000
0.77847 0.00038 0.00000
1.00000 0.05320 0.00000
1.00000 0.08031 0.00000
0.00000 0.19694 0.00000
0.15668 0.21514 0.00000
0.77975 0.18751 0.00000
1.00000 0.18569 0.00000
1.00000 0.22531 0.00000
0.00000 0.67848 0.00000
0.00000 0.66774 0.00000
0.57107 0.63728 0.00000
1.00000 0.60420 0.00000
1.00000 0.54872 0.00000
0.00000 0.96768 0.00000
0.00000 0.96565 0.00000
0.00000 0.92843 0.00000
0.81786 0.88450 0.00000
1.00000 0.86071 0.00000
0.00000 1.00000 0.00000
0.00000 1.00000 0.00000
0.00000 1.00000 0.00000
0.61153 1.00000 0.00000
0.99783 1.00000 0.00000
0.00000 0.00000 0.28074
0.28805 0.00000 0.31493
0.78748 0.00000 0.33211
1.00000 0.00000 0.34511
1.00000 0.00000 0.29340
0.00000 0.23156 0.23599
0.23330 0.23413 0.23372
0.74667 0.23330 0.25241
1.00000 0.22281 0.26691
1.00000 0.22607 0.30095
0.00000 0.65949 0.08949
0.00000 0.64562 0.08146
0.57477 0.62141 0.11207
0.98883 0.60581 0.12112
1.00000 0.57233 0.11001
0.00000 0.95058 0.00000
0.00000 0.93934 0.00000
0.00000 0.91585 0.00000
0.80704 0.88976 0.00000
1.00000 0.87358 0.00000
0.00000 1.00000 0.11214
0.00000 1.00000 0.03715
0.00000 1.00000 0.00000
0.62998 1.00000 0.00000
0.99795 1.00000 0.00000
0.05806 0.00000 0.85776
0.36799 0.00000 0.96852
0.80610 0.00000 0.95879
1.00000 0.08533 0.89594
1.00000 0.18735 0.82292
0.03269 0.28414 0.84660
0.38624 0.28746 0.81997
0.74320 0.29506 0.79584
1.00000 0.31635 0.76485
1.00000 0.36880 0.74963
0.00000 0.63801 0.65837
0.00000 0.62530 0.63735
0.61067 0.61061 0.61019
0.98162 0.59897 0.59617
1.00000 0.59986 0.60638
0.00000 0.92416 0.52865
0.00000 0.91280 0.51242
0.29848 0.88983 0.48468
0.82596 0.87370 0.47552
1.00000 0.86847 0.49160
0.00000 1.00000 0.52276
0.00000 1.00000 0.50922
0.00000 1.00000 0.47708
0.68961 1.00000 0.47046
0.99414 1.00000 0.46396
0.23300 0.00000 0.99674
0.46934 0.00000 1.00000
0.81690 0.00000 1.00000
1.00000 0.11886 1.00000
1.00000 0.25559 1.00000
0.28770 0.25107 1.00000
0.49801 0.26169 1.00000
0.78375 0.30407 1.00000
1.00000 0.36843 1.00000
1.00000 0.41881 1.00000
0.00000 0.62617 1.00000
0.35976 0.62344 1.00000
0.67785 0.62321 0.98068
0.99734 0.61500 0.97552
1.00000 0.62940 0.94663
0.00000 0.90193 0.92300
0.00000 0.89304 0.91362
0.44632 0.88157 0.90751
0.86889 0.86841 0.86864
1.00000 0.86710 0.87410
0.00000 1.00000 0.87356
0.00000 1.00000 0.85804
0.00000 1.00000 0.83640
0.73726 0.99945 0.82199
0.98579 1.00000 0.80055
0.42248 0.01366 1.00000
0.57050 0.00000 1.00000
0.83827 0.01576 1.00000
1.00000 0.10671 1.00000
1.00000 0.29373 1.00000
0.44804 0.24868 1.00000
0.58318 0.24644 1.00000
0.82645 0.25538 1.00000
1.00000 0.31310 1.00000
1.00000 0.45468 1.00000
0.46706 0.64678 1.00000
0.56159 0.65012 1.00000
0.77729 0.65724 1.00000
1.00000 0.67052 1.00000
1.00000 0.67756 1.00000
0.00000 0.89005 1.00000
0.30858 0.88681 1.00000
0.62412 0.88032 1.00000
0.91965 0.87663 1.00000
1.00000 0.86590 1.00000
0.00000 1.00000 1.00000
0.00000 1.00000 0.99999
0.42048 1.00000 0.99654
0.77608 1.00000 0.98968
0.99255 0.99258 0.99253
