cube lut/velvia_DisplayP3.cube
# DisplayP3
# github.com/abpy/FujifilmCameraProfiles
LUT_3D_SIZE 32
0.00000 0.00000 0.00000
0.00170 0.00000 0.00000
0.00503 0.00000 0.00000
0.01786 0.00000 0.00000
0.04741 0.00000 0.00000
0.09280 0.00017 0.00000
0.15758 0.00545 0.00000
0.24183 0.01553 0.00000
0.33621 0.03390 0.00000
0.42805 0.05941 0.00000
0.51217 0.08487 0.00000
0.58936 0.10550 0.00000
0.66137 0.12469 0.00000
0.72917 0.14309 0.00000
0.79322 0.15979 0.00000
0.85198 0.17471 0.00000
0.90629 0.18932 0.00000
0.95722 0.20454 0.00000
1.00000 0.21599 0.00000
1.00000 0.22236 0.00000
1.00000 0.22470 0.00000
1.00000 0.22377 0.00000
1.00000 0.22085 0.00000
1.00000 0.21579 0.00000
1.00000 0.20913 0.00000
1.00000 0.20386 0.00000
1.00000 0.20222 0.00000
1.00000 0.20357 0.00000
1.00000 0.20759 0.00000
1.00000 0.21390 0.00000
1.00000 0.22278 0.00000
1.00000 0.23561 0.00000
0.00000 0.00152 0.00000
0.00023 0.00025 0.00000
0.00235 0.00068 0.00000
0.01328 0.00163 0.00000
0.03872 0.00251 0.00000
0.08254 0.00465 0.00000
0.14807 0.01051 0.00000
0.23560 0.02180 0.00000
0.33235 0.04163 0.00000
0.42591 0.06617 0.00000
0.51105 0.09056 0.00000
0.58890 0.11084 0.00000
0.66115 0.12983 0.00000
0.72908 0.14795 0.00000
0.79326 0.16439 0.00000
0.85183 0.17915 0.00000
0.90595 0.19382 0.00000
0.95693 0.20902 0.00000
1.00000 0.22053 0.00000
1.00000 0.22706 0.00000
1.00000 0.22959 0.00000
1.00000 0.22892 0.00000
1.00000 0.22624 0.00000
1.00000 0.22148 0.00000
1.00000 0.21520 0.00000
1.00000 0.21027 0.00000
1.00000 0.20883 0.00000
1.00000 0.21025 0.00000
1.00000 0.21424 0.00000
1.00000 0.22043 0.00000
1.00000 0.22913 0.00000
1.00000 0.24179 0.00000
0.00000 0.00525 0.00000
0.00000 0.00114 0.00021
0.00060 0.00262 0.00000
0.01089 0.00419 0.00000
0.03348 0.00664 0.00000
0.07623 0.00812 0.00000
0.14061 0.01356 0.00000
0.22954 0.02621 0.00000
0.32747 0.04695 0.00000
0.42276 0.07110 0.00000
0.50915 0.09512 0.00000
0.58786 0.11560 0.00000
0.66046 0.13474 0.00000
0.72862 0.15277 0.00000
0.79304 0.16909 0.00000
0.85143 0.18386 0.00000
0.90536 0.19869 0.00000
0.95641 0.21390 0.00000
1.00000 0.22554 0.00000
1.00000 0.23231 0.00000
1.00000 0.23506 0.00000
1.00000 0.23470 0.00000
1.00000 0.23229 0.00000
1.00000 0.22787 0.00000
1.00000 0.22201 0.00000
1.00000 0.21744 0.00000
1.00000 0.21621 0.00000
1.00000 0.21771 0.00000
1.00000 0.22167 0.00000
1.00000 0.22773 0.00000
1.00000 0.23624 0.00000
1.00000 0.24871 0.00000
0.00000 0.01950 0.00000
0.00000 0.00929 0.00000
0.00000 0.01078 0.00000
0.00722 0.01375 0.00000
0.03117 0.01639 0.00000
0.07190 0.01447 0.00000
0.13549 0.02036 0.00053
0.22598 0.03433 0.00000
0.32388 0.05390 0.00000
0.41956 0.07615 0.00043
0.50656 0.09960 0.00309
0.58606 0.12053 0.00000
0.65905 0.14007 0.00000
0.72757 0.15821 0.00000
0.79240 0.17473 0.00000
0.85051 0.18980 0.00000
0.90419 0.20501 0.00000
0.95538 0.22038 0.00000
1.00000 0.23234 0.00000
1.00000 0.23953 0.00000
1.00000 0.24267 0.00000
1.00000 0.24279 0.00000
1.00000 0.24077 0.00000
1.00000 0.23682 0.00000
1.00000 0.23152 0.00000
1.00000 0.22745 0.00000
1.00000 0.22650 0.00000
1.00000 0.22810 0.00000
1.00000 0.23201 0.00000
1.00000 0.23791 0.00000
1.00000 0.24616 0.00000
1.00000 0.25838 0.00000
0.00000 0.05136 0.00000
0.00000 0.03322 0.00000
0.00000 0.03264 0.00000
0.00306 0.03539 0.00000
0.02709 0.03777 0.00000
0.06549 0.03423 0.00102
0.13314 0.04026 0.00345
0.22140 0.05454 0.00467
0.32049 0.06861 0.00623
0.41892 0.08551 0.01302
0.50587 0.10670 0.01616
0.58499 0.12683 0.01337
0.65753 0.14583 0.01179
0.72608 0.16372 0.00722
0.79121 0.18075 0.00000
0.84887 0.19644 0.00000
0.90226 0.21218 0.00000
0.95360 0.22797 0.00000
0.99961 0.24053 0.00000
1.00000 0.24847 0.00000
1.00000 0.25222 0.00000
1.00000 0.25304 0.00000
1.00000 0.25157 0.00000
1.00000 0.24825 0.00000
1.00000 0.24369 0.00000
1.00000 0.24025 0.00000
1.00000 0.23966 0.00000
1.00000 0.24138 0.00000
1.00000 0.24526 0.00000
1.00000 0.25097 0.00000
1.00000 0.25891 0.00000
1.00000 0.27083 0.00000
0.00000 0.09607 0.00000
0.00000 0.07376 0.00000
0.00000 0.06298 0.00113
0.00000 0.06618 0.00142
0.01072 0.07114 0.00196
0.05902 0.07518 0.00365
0.12136 0.07971 0.00719
0.21246 0.09004 0.01140
0.31307 0.09770 0.01843
0.41841 0.10670 0.02984
0.50576 0.12326 0.03141
0.58529 0.13930 0.03007
0.65749 0.15536 0.03450
0.72554 0.17109 0.04186
0.79001 0.18818 0.01821
0.84656 0.20421 0.00000
0.89950 0.21999 0.00000
0.95089 0.23629 0.00000
0.99825 0.24968 0.00000
1.00000 0.25862 0.00000
1.00000 0.26320 0.00000
1.00000 0.26497 0.00000
1.00000 0.26426 0.00000
1.00000 0.26177 0.00000
1.00000 0.25813 0.00000
1.00000 0.25546 0.00000
1.00000 0.25533 0.00000
1.00000 0.25724 0.00000
1.00000 0.26113 0.00000
1.00000 0.26666 0.00000
1.00000 0.27428 0.00000
1.00000 0.28586 0.00000
0.00000 0.15818 0.00000
0.00000 0.13924 0.00000
0.00000 0.12477 0.00417
0.00000 0.12040 0.00629
0.00000 0.12452 0.00680
0.02930 0.13002 0.00869
0.10500 0.13586 0.01254
0.19712 0.14324 0.01680
0.29925 0.14729 0.02518
0.40912 0.14642 0.03901
0.50182 0.15940 0.04409
0.58387 0.16672 0.05342
0.65706 0.17565 0.06155
0.72505 0.18552 0.06911
0.78864 0.20130 0.04951
0.84402 0.21610 0.02452
0.89637 0.23002 0.00186
0.94735 0.24616 0.00000
0.99609 0.26023 0.00000
1.00000 0.27014 0.00000
1.00000 0.27549 0.00000
1.00000 0.27823 0.00000
1.00000 0.27838 0.00000
1.00000 0.27683 0.00000
1.00000 0.27426 0.00000
1.00000 0.27249 0.00000
1.00000 0.27295 0.00000
1.00000 0.27515 0.00000
1.00000 0.27914 0.00000
1.00000 0.28455 0.00000
1.00000 0.29191 0.00000
1.00000 0.30312 0.00000
0.00000 0.23374 0.00000
0.00000 0.21951 0.00162
0.00000 0.20575 0.00713
0.00000 0.19608 0.01089
0.00000 0.19606 0.01237
0.00000 0.20052 0.01297
0.05597 0.20460 0.01528
0.16082 0.20734 0.01963
0.27886 0.21368 0.02716
0.38918 0.21404 0.04532
0.48985 0.21705 0.05299
0.57658 0.21628 0.06936
0.65047 0.21748 0.08125
0.71940 0.22002 0.08908
0.78293 0.22858 0.07637
0.83952 0.23757 0.05841
0.89229 0.24656 0.04698
0.94314 0.26059 0.00000
0.99312 0.27416 0.00000
1.00000 0.28411 0.00000
1.00000 0.28974 0.00000
1.00000 0.29324 0.00000
1.00000 0.29414 0.00000
1.00000 0.29340 0.00000
1.00000 0.29183 0.00000
1.00000 0.29090 0.00000
1.00000 0.29199 0.00000
1.00000 0.29454 0.00000
1.00000 0.29871 0.00000
1.00000 0.30411 0.00000
1.00000 0.31128 0.00000
1.00000 0.32212 0.00000
0.00000 0.31583 0.00310
0.00000 0.30684 0.00599
0.00000 0.29716 0.01025
0.00000 0.28717 0.01474
0.00000 0.28316 0.01750
0.00000 0.28531 0.01799
0.00000 0.28793 0.01914
0.09812 0.28877 0.02284
0.23413 0.28944 0.03051
0.36044 0.29326 0.05091
0.46386 0.29083 0.06191
0.55631 0.28635 0.07907
0.63329 0.28286 0.09161
0.70300 0.27947 0.09876
0.76821 0.27888 0.09574
0.82791 0.27865 0.09111
0.88341 0.27771 0.08805
0.93656 0.28465 0.05559
0.98857 0.29518 0.00712
1.00000 0.30347 0.00000
1.00000 0.30795 0.00000
1.00000 0.31110 0.00000
1.00000 0.31226 0.00000
1.00000 0.31207 0.00000
1.00000 0.31133 0.00000
1.00000 0.31101 0.00000
1.00000 0.31255 0.00000
1.00000 0.31529 0.00000
1.00000 0.31958 0.00000
1.00000 0.32495 0.00000
1.00000 0.33200 0.00000
1.00000 0.34241 0.00000
0.00000 0.39510 0.01881
0.00000 0.39010 0.02034
0.00000 0.38456 0.02342
0.00000 0.37782 0.02780
0.00000 0.37363 0.03078
0.00000 0.37248 0.03112
0.00000 0.37272 0.03291
0.00000 0.37215 0.03601
0.16690 0.37004 0.04378
0.30777 0.36948 0.05863
0.42715 0.36839 0.07138
0.52470 0.36444 0.08505
0.60485 0.35902 0.09743
0.67869 0.35247 0.10509
0.74557 0.34641 0.10906
0.80773 0.34015 0.11305
0.86636 0.33220 0.11835
0.92295 0.32874 0.10288
0.97952 0.33050 0.07712
1.00000 0.33263 0.04074
1.00000 0.33322 0.00000
1.00000 0.33449 0.00000
1.00000 0.33472 0.00000
1.00000 0.33397 0.00000
1.00000 0.33337 0.00000
1.00000 0.33331 0.00000
1.00000 0.33517 0.00000
1.00000 0.33792 0.00000
1.00000 0.34214 0.00000
1.00000 0.34728 0.00000
1.00000 0.35409 0.00000
1.00000 0.36388 0.00000
0.00000 0.46687 0.04271
0.00000 0.46406 0.04372
0.00000 0.46081 0.04643
0.00000 0.45639 0.05129
0.00000 0.45214 0.05602
0.00000 0.45131 0.05881
0.00000 0.44887 0.05800
0.00000 0.44724 0.05872
0.00319 0.44268 0.06225
0.23747 0.44007 0.06962
0.37388 0.43763 0.08009
0.48584 0.43664 0.09149
0.57446 0.43100 0.10303
0.64781 0.42719 0.11170
0.71892 0.41751 0.11906
0.78367 0.41171 0.12683
0.84331 0.40169 0.13580
0.90278 0.39110 0.12679
0.96282 0.38514 0.12158
1.00000 0.37982 0.10940
1.00000 0.37224 0.08307
1.00000 0.36743 0.01759
1.00000 0.36399 0.00000
1.00000 0.36134 0.00000
1.00000 0.35985 0.00000
1.00000 0.35891 0.00000
1.00000 0.36032 0.00000
1.00000 0.36269 0.00000
1.00000 0.36671 0.00000
1.00000 0.37152 0.00000
1.00000 0.37802 0.00000
1.00000 0.38693 0.00000
0.00000 0.53114 0.06474
0.00000 0.52953 0.06474
0.00000 0.52755 0.06595
0.00000 0.52455 0.06895
0.00000 0.52068 0.07289
0.00000 0.51806 0.07571
0.00000 0.51796 0.07684
0.00000 0.51385 0.07565
0.00000 0.50807 0.07644
0.13641 0.50235 0.08094
0.30861 0.49813 0.08829
0.43261 0.49601 0.09862
0.53774 0.49581 0.10954
0.61840 0.49191 0.11858
0.68861 0.48408 0.12748
0.75546 0.48200 0.13540
0.81912 0.46976 0.14551
0.87915 0.45733 0.14023
0.94048 0.45006 0.14575
0.99601 0.44162 0.14535
1.00000 0.42907 0.13729
1.00000 0.41688 0.11173
1.00000 0.40605 0.04979
1.00000 0.39766 0.00000
1.00000 0.39250 0.00000
1.00000 0.38939 0.00000
1.00000 0.38957 0.00000
1.00000 0.39068 0.00000
1.00000 0.39366 0.00000
1.00000 0.39767 0.00000
1.00000 0.40381 0.00000
1.00000 0.41182 0.00000
0.00000 0.58898 0.08309
0.00000 0.58814 0.08225
0.00000 0.58702 0.08228
0.00000 0.58514 0.08364
0.00000 0.58226 0.08647
0.00000 0.57915 0.08933
0.00000 0.57807 0.09154
0.00000 0.57623 0.09141
0.00000 0.56918 0.09034
0.00000 0.56148 0.09237
0.22680 0.55617 0.09755
0.37547 0.55106 0.10553
0.48734 0.54779 0.11731
0.58457 0.54696 0.12386
0.66041 0.54083 0.13353
0.72821 0.53542 0.13998
0.79159 0.52822 0.14641
0.85465 0.51643 0.14844
0.91594 0.51131 0.15868
0.97599 0.50460 0.16439
1.00000 0.49290 0.16611
1.00000 0.47785 0.15425
1.00000 0.46199 0.12591
1.00000 0.44787 0.08538
1.00000 0.43644 0.00000
1.00000 0.42778 0.00000
1.00000 0.42400 0.00000
1.00000 0.42269 0.00000
1.00000 0.42401 0.00000
1.00000 0.42652 0.00000
1.00000 0.43167 0.00000
1.00000 0.43840 0.00000
0.00000 0.64111 0.09973
0.00000 0.64075 0.09811
0.00000 0.64021 0.09695
0.00000 0.63917 0.09636
0.00000 0.63730 0.09687
0.00000 0.63453 0.09822
0.00000 0.63252 0.09962
0.00000 0.63126 0.10027
0.00000 0.62647 0.09974
0.00000 0.61797 0.10071
0.06988 0.60980 0.10476
0.30617 0.60253 0.11082
0.43525 0.59679 0.11828
0.53891 0.59273 0.12689
0.62736 0.59047 0.13318
0.70123 0.58545 0.14087
0.76552 0.57689 0.15056
0.82712 0.56932 0.15513
0.89129 0.56209 0.16900
0.95343 0.55673 0.17465
1.00000 0.54747 0.18019
1.00000 0.53609 0.17681
1.00000 0.51997 0.16037
1.00000 0.50491 0.14375
1.00000 0.49101 0.11226
1.00000 0.47762 0.04641
1.00000 0.46798 0.00000
1.00000 0.46137 0.00000
1.00000 0.45830 0.00000
1.00000 0.45802 0.00000
1.00000 0.46182 0.00000
1.00000 0.46709 0.00000
0.00000 0.68827 0.11669
0.00000 0.68821 0.11475
0.00000 0.68802 0.11302
0.00000 0.68751 0.11136
0.00000 0.68637 0.11027
0.00000 0.68423 0.10989
0.00000 0.68161 0.10980
0.00000 0.68006 0.11003
0.00000 0.67644 0.11079
0.00000 0.66979 0.11200
0.00000 0.66042 0.11483
0.20506 0.65112 0.11829
0.37618 0.64309 0.12455
0.49143 0.63701 0.13233
0.58581 0.63217 0.14057
0.66681 0.62797 0.14700
0.73906 0.62193 0.15645
0.80234 0.61315 0.16265
0.86323 0.60930 0.17117
0.93056 0.60042 0.17783
0.99118 0.59292 0.18196
1.00000 0.58344 0.18614
1.00000 0.57137 0.17930
1.00000 0.55849 0.17214
1.00000 0.54440 0.15679
1.00000 0.53115 0.13307
1.00000 0.51976 0.09025
1.00000 0.50918 0.01438
1.00000 0.50019 0.00000
1.00000 0.49444 0.00000
1.00000 0.49439 0.00000
1.00000 0.49721 0.00000
0.00000 0.73144 0.13299
0.00000 0.73157 0.13094
0.00000 0.73163 0.12898
0.00000 0.73152 0.12684
0.00000 0.73099 0.12509
0.00000 0.72970 0.12437
0.00000 0.72753 0.12505
0.00000 0.72568 0.12660
0.00000 0.72309 0.12677
0.00000 0.71665 0.12625
0.00000 0.70942 0.12755
0.00000 0.69804 0.12710
0.29780 0.68778 0.13137
0.43875 0.68026 0.14035
0.54197 0.67258 0.14580
0.62778 0.66760 0.15387
0.70594 0.66215 0.15669
0.77532 0.65503 0.16613
0.83877 0.64769 0.16972
0.90323 0.64081 0.17728
0.96812 0.63552 0.18492
1.00000 0.62591 0.19135
1.00000 0.61534 0.19039
1.00000 0.60328 0.18729
1.00000 0.59184 0.17968
1.00000 0.57937 0.16810
1.00000 0.56813 0.14765
1.00000 0.55874 0.12530
1.00000 0.54806 0.08547
1.00000 0.53766 0.01023
1.00000 0.53247 0.00000
1.00000 0.53080 0.00000
0.00000 0.77145 0.14800
0.00000 0.77172 0.14584
0.00000 0.77196 0.14360
0.00000 0.77215 0.14082
0.00000 0.77213 0.13780
0.00000 0.77164 0.13489
0.00000 0.77048 0.13235
0.00000 0.76909 0.13054
0.00000 0.76792 0.12949
0.00000 0.76279 0.12929
0.00000 0.75462 0.12973
0.00000 0.74621 0.13155
0.17665 0.73177 0.13455
0.37232 0.72049 0.13916
0.49249 0.71365 0.14731
0.58721 0.70528 0.15187
0.66897 0.70067 0.15811
0.74232 0.69355 0.16488
0.81082 0.68726 0.17214
0.87653 0.67853 0.17986
0.94257 0.67315 0.18877
1.00000 0.66813 0.19606
1.00000 0.65560 0.19803
1.00000 0.64313 0.19750
1.00000 0.63220 0.19279
1.00000 0.62161 0.18682
1.00000 0.61142 0.17619
1.00000 0.60186 0.16549
1.00000 0.59249 0.14711
1.00000 0.58266 0.12199
1.00000 0.57515 0.08335
1.00000 0.56952 0.00000
0.00000 0.80899 0.16219
0.00000 0.80938 0.16007
0.00000 0.80977 0.15782
0.00000 0.81020 0.15489
0.00000 0.81055 0.15153
0.00000 0.81062 0.14806
0.00000 0.81022 0.14485
0.00000 0.80941 0.14243
0.00000 0.80864 0.14127
0.00000 0.80663 0.14070
0.00000 0.79864 0.13892
0.00000 0.78946 0.13764
0.00000 0.77552 0.13685
0.27703 0.76268 0.13938
0.43318 0.75211 0.14512
0.54036 0.74490 0.15486
0.62887 0.73644 0.15881
0.70630 0.73139 0.16979
0.77838 0.72422 0.17349
0.84697 0.71842 0.18517
0.91580 0.71033 0.19084
0.98140 0.70433 0.19912
1.00000 0.69713 0.20236
1.00000 0.68244 0.20473
1.00000 0.67010 0.20118
1.00000 0.66095 0.19877
1.00000 0.65071 0.19188
1.00000 0.64162 0.18711
1.00000 0.63244 0.17817
1.00000 0.62285 0.16345
1.00000 0.61602 0.14480
1.00000 0.61052 0.11199
0.00000 0.84454 0.17516
0.00000 0.84511 0.17309
0.00000 0.84570 0.17085
0.00000 0.84643 0.16786
0.00000 0.84720 0.16426
0.00000 0.84783 0.16031
0.00000 0.84814 0.15636
0.00000 0.84810 0.15296
0.00000 0.84789 0.15107
0.00000 0.84750 0.15078
0.00000 0.84333 0.14964
0.00000 0.83232 0.14610
0.00000 0.81974 0.14365
0.11384 0.80401 0.14320
0.35562 0.79228 0.14869
0.48725 0.78365 0.15601
0.58511 0.77548 0.16446
0.66803 0.76709 0.16822
0.74316 0.76149 0.17718
0.81439 0.75531 0.18439
0.88534 0.74986 0.19231
0.95430 0.74134 0.20033
1.00000 0.73322 0.20491
1.00000 0.72455 0.20679
1.00000 0.71071 0.20756
1.00000 0.69978 0.20561
1.00000 0.68965 0.20205
1.00000 0.68064 0.19929
1.00000 0.67054 0.19507
1.00000 0.66178 0.18722
1.00000 0.65385 0.17605
1.00000 0.64879 0.15686
0.00000 0.87768 0.18712
0.00000 0.87852 0.18513
0.00000 0.87943 0.18294
0.00000 0.88065 0.17993
0.00000 0.88209 0.17618
0.00000 0.88361 0.17182
0.00000 0.88499 0.16706
0.00000 0.88606 0.16225
0.00000 0.88680 0.15833
0.00000 0.88728 0.15647
0.00000 0.88649 0.15607
0.00000 0.87833 0.15415
0.00000 0.86430 0.15059
0.00000 0.84849 0.14920
0.24590 0.83471 0.15305
0.41881 0.82398 0.15911
0.53463 0.81627 0.16680
0.62505 0.80738 0.17265
0.70439 0.79847 0.17690
0.77813 0.79176 0.18619
0.85274 0.78795 0.19092
0.92224 0.78012 0.20073
0.98673 0.77065 0.20731
1.00000 0.76253 0.21079
1.00000 0.75248 0.21074
1.00000 0.74289 0.21143
1.00000 0.72888 0.20904
1.00000 0.72057 0.20719
1.00000 0.71076 0.20410
1.00000 0.70095 0.20088
1.00000 0.69249 0.19415
1.00000 0.68718 0.18423
0.00000 0.90660 0.19826
0.00000 0.90774 0.19640
0.00000 0.90901 0.19432
0.00000 0.91080 0.19144
0.00000 0.91309 0.18779
0.00000 0.91580 0.18344
0.00000 0.91877 0.17852
0.00000 0.92180 0.17325
0.00000 0.92461 0.16831
0.00000 0.92696 0.16511
0.00000 0.92832 0.16379
0.00000 0.92476 0.16276
0.00000 0.91229 0.15962
0.00000 0.89555 0.15643
0.00000 0.87873 0.15654
0.32918 0.86704 0.16239
0.47234 0.85701 0.16841
0.57650 0.85024 0.17656
0.66158 0.83998 0.18113
0.73887 0.83061 0.18603
0.81378 0.82394 0.19364
0.88951 0.81865 0.19928
0.95702 0.81034 0.20909
1.00000 0.80090 0.21411
1.00000 0.79185 0.21560
1.00000 0.78439 0.21572
1.00000 0.77374 0.21425
1.00000 0.76226 0.21448
1.00000 0.75111 0.21081
1.00000 0.74254 0.20999
1.00000 0.73283 0.20526
1.00000 0.72712 0.20064
0.00000 0.92904 0.20833
0.00000 0.93033 0.20658
0.00000 0.93181 0.20463
0.00000 0.93391 0.20190
0.00000 0.93669 0.19840
0.00000 0.94014 0.19418
0.00000 0.94422 0.18933
0.00000 0.94885 0.18400
0.00000 0.95384 0.17857
0.00000 0.95881 0.17415
0.00000 0.96305 0.17202
0.00000 0.96316 0.17064
0.00000 0.95513 0.16912
0.00000 0.93934 0.16504
0.00000 0.92216 0.16328
0.18549 0.90791 0.16446
0.39489 0.89778 0.17119
0.51980 0.88933 0.17729
0.61527 0.88263 0.18579
0.69742 0.87134 0.18936
0.77391 0.86201 0.19440
0.85062 0.85496 0.20241
0.92541 0.84845 0.20862
0.98373 0.84024 0.21677
1.00000 0.83019 0.22011
1.00000 0.82325 0.22050
1.00000 0.81453 0.21919
1.00000 0.80779 0.21883
1.00000 0.79522 0.21792
1.00000 0.78403 0.21595
1.00000 0.77442 0.21373
1.00000 0.76811 0.21092
0.00000 0.94440 0.21723
0.00000 0.94564 0.21557
0.00000 0.94705 0.21370
0.00000 0.94906 0.21107
0.00000 0.95173 0.20765
0.00000 0.95504 0.20346
0.00000 0.95895 0.19856
0.00000 0.96334 0.19301
0.00000 0.96800 0.18705
0.00000 0.97252 0.18142
0.00000 0.97626 0.17759
0.00000 0.97833 0.17570
0.00000 0.97624 0.17453
0.00000 0.96822 0.17238
0.00000 0.95598 0.16897
0.00000 0.94453 0.16931
0.29134 0.93492 0.17289
0.45198 0.92573 0.17979
0.56370 0.91888 0.18626
0.65325 0.91199 0.19462
0.73344 0.90044 0.19741
0.81061 0.89156 0.20328
0.88732 0.88411 0.21163
0.95710 0.87722 0.21678
1.00000 0.86939 0.22344
1.00000 0.86013 0.22526
1.00000 0.85305 0.22387
1.00000 0.84588 0.22382
1.00000 0.83930 0.22238
1.00000 0.82869 0.22236
1.00000 0.81551 0.22065
1.00000 0.80685 0.21922
0.00000 0.95411 0.22530
0.00000 0.95518 0.22370
0.00000 0.95639 0.22189
0.00000 0.95811 0.21931
0.00000 0.96037 0.21592
0.00000 0.96313 0.21171
0.00000 0.96632 0.20666
0.00000 0.96979 0.20079
0.00000 0.97326 0.19415
0.00000 0.97637 0.18717
0.00000 0.97868 0.18110
0.00000 0.97997 0.17747
0.00000 0.98014 0.17543
0.00000 0.97837 0.17461
0.00000 0.97477 0.17331
0.00000 0.97154 0.17326
0.10267 0.96490 0.17503
0.36979 0.95784 0.18075
0.50335 0.94974 0.18731
0.60519 0.94422 0.19435
0.69020 0.93740 0.20203
0.77005 0.92622 0.20493
0.84772 0.91794 0.21177
0.92335 0.91175 0.21949
0.98443 0.90581 0.22433
1.00000 0.89766 0.22869
1.00000 0.88836 0.22938
1.00000 0.88250 0.22753
1.00000 0.87485 0.22723
1.00000 0.86922 0.22635
1.00000 0.85988 0.22583
1.00000 0.84755 0.22555
0.00000 0.96013 0.23296
0.00000 0.96100 0.23142
0.00000 0.96200 0.22966
0.00000 0.96340 0.22715
0.00000 0.96524 0.22382
0.00000 0.96746 0.21964
0.00000 0.97000 0.21455
0.00000 0.97271 0.20850
0.00000 0.97536 0.20146
0.00000 0.97765 0.19358
0.00000 0.97926 0.18565
0.00000 0.98008 0.17938
0.00000 0.98036 0.17569
0.00000 0.98039 0.17437
0.00000 0.98038 0.17424
0.00000 0.98130 0.17475
0.00000 0.98173 0.17820
0.26119 0.97780 0.18077
0.43698 0.97324 0.18734
0.55228 0.96730 0.19367
0.64561 0.96357 0.20126
0.72800 0.95757 0.20895
0.80825 0.94809 0.21240
0.88687 0.94234 0.22003
0.95784 0.93864 0.22802
1.00000 0.93160 0.23030
1.00000 0.92358 0.23231
1.00000 0.91869 0.23265
1.00000 0.91094 0.23075
1.00000 0.90239 0.23065
1.00000 0.89709 0.22964
1.00000 0.89083 0.22895
0.00000 0.96396 0.24049
0.00000 0.96466 0.23901
0.00000 0.96546 0.23732
0.00000 0.96659 0.23490
0.00000 0.96806 0.23165
0.00000 0.96983 0.22754
0.00000 0.97184 0.22250
0.00000 0.97398 0.21645
0.00000 0.97609 0.20930
0.00000 0.97796 0.20105
0.00000 0.97937 0.19216
0.00000 0.98022 0.18404
0.00000 0.98063 0.17848
0.00000 0.98073 0.17546
0.00000 0.98072 0.17487
0.00000 0.98134 0.17531
0.00000 0.98325 0.17741
0.03709 0.98394 0.18140
0.35762 0.98397 0.18510
0.49636 0.98204 0.19248
0.59820 0.97963 0.19882
0.68559 0.97773 0.20753
0.76642 0.97316 0.21501
0.84780 0.96688 0.21957
0.92586 0.96353 0.22835
0.98585 0.96024 0.23470
1.00000 0.95303 0.23405
1.00000 0.94805 0.23507
1.00000 0.94428 0.23739
1.00000 0.93634 0.23362
1.00000 0.92824 0.23397
1.00000 0.92474 0.23283
0.00000 0.96666 0.24810
0.00000 0.96722 0.24669
0.00000 0.96786 0.24507
0.00000 0.96875 0.24273
0.00000 0.96991 0.23959
0.00000 0.97132 0.23559
0.00000 0.97291 0.23064
0.00000 0.97460 0.22466
0.00000 0.97627 0.21750
0.00000 0.97776 0.20904
0.00000 0.97888 0.19941
0.00000 0.97952 0.18945
0.00000 0.97969 0.18100
0.00000 0.97960 0.17548
0.00000 0.97956 0.17317
0.00000 0.97964 0.17302
0.00000 0.98052 0.17440
0.00000 0.98221 0.17883
0.25331 0.98504 0.18300
0.43284 0.98755 0.18855
0.54938 0.98812 0.19620
0.64295 0.98733 0.20341
0.72533 0.98725 0.21269
0.80754 0.98477 0.22064
0.89018 0.98077 0.22661
0.95919 0.97863 0.23530
0.99773 0.97431 0.23941
1.00000 0.96923 0.23716
1.00000 0.96580 0.23887
1.00000 0.96201 0.24104
1.00000 0.95730 0.23788
1.00000 0.95066 0.23703
0.00000 0.96891 0.25602
0.00000 0.96935 0.25466
0.00000 0.96985 0.25311
0.00000 0.97055 0.25085
0.00000 0.97146 0.24782
0.00000 0.97256 0.24394
0.00000 0.97382 0.23912
0.00000 0.97518 0.23327
0.00000 0.97655 0.22622
0.00000 0.97782 0.21785
0.00000 0.97887 0.20811
0.00000 0.97960 0.19748
0.00000 0.98003 0.18740
0.00000 0.98023 0.17984
0.00000 0.98026 0.17505
0.00000 0.98016 0.17347
0.00000 0.98043 0.17388
0.00000 0.98142 0.17705
0.00471 0.98327 0.18346
0.35887 0.98631 0.18676
0.49925 0.98837 0.19268
0.60152 0.98951 0.20007
0.68859 0.99105 0.20760
0.77138 0.99180 0.21779
0.85325 0.99222 0.22620
0.92844 0.98995 0.23269
0.98066 0.98719 0.24051
1.00000 0.98423 0.24234
1.00000 0.98011 0.24060
1.00000 0.97708 0.24280
1.00000 0.97686 0.24624
1.00000 0.97283 0.24127
0.00000 0.97113 0.26457
0.00000 0.97147 0.26327
0.00000 0.97184 0.26177
0.00000 0.97237 0.25960
