LUTs/astia tone curve.cube
#proPhotoRGB
LUT_1D_SIZE 32
0.0 0.0 0.0
0.00207 0.00207 0.00207
0.01699 0.01699 0.01699
0.03688 0.03688 0.03688
0.08734 0.08734 0.08734
0.15228 0.15228 0.15228
0.22315 0.22315 0.22315
0.29047 0.29047 0.29047
0.357 0.357 0.357
0.41687 0.41687 0.41687
0.47198 0.47198 0.47198
0.5263 0.5263 0.5263
0.57482 0.57482 0.57482
0.61483 0.61483 0.61483
0.65243 0.65243 0.65243
0.68826 0.68826 0.68826
0.72139 0.72139 0.72139
0.75306 0.75306 0.75306
0.78257 0.78257 0.78257
0.81467 0.81467 0.81467
0.84458 0.84458 0.84458
0.87529 0.87529 0.87529
0.90172 0.90172 0.90172
0.92336 0.92336 0.92336
0.94104 0.94104 0.94104
0.9572 0.9572 0.9572
0.9705 0.9705 0.9705
0.98076 0.98076 0.98076
0.99088 0.99088 0.99088
0.99645 0.99645 0.99645
0.99804 0.99804 0.99804
1.0 1.0 1.0
