LUTs/astia.cube
#proPhotoRGB
LUT_3D_SIZE 5
DOMAIN_MIN 0.000000 0.000000 0.000000
DOMAIN_MAX 0.903226 0.903226 0.903226
0.0 0.0 0.0
0.36571 0.13329 0.0
0.69669 0.25318 0.0
0.82204 0.25559 0.0
0.83594 0.16813 0.0
0.0 0.25189 0.0814
0.29582 0.25557 0.07135
0.6722 0.27037 0.0
0.83166 0.2835 0.0
0.83688 0.20787 0.0
0.0 0.61557 0.24068
0.20638 0.63307 0.16446
0.63176 0.61442 0.16898
0.8177 0.53457 0.0
0.83913 0.34747 0.0
0.0 0.81433 0.35527
0.0 0.83745 0.25999
0.54718 0.81633 0.22029
0.81706 0.78898 0.21359
0.87508 0.75705 0.0
0.0 0.87614 0.4057
0.0 0.88576 0.34282
0.38842 0.91145 0.2396
0.79482 0.94477 0.25469
0.88663 0.92068 0.20543
0.11474 0.04397 0.3558
0.37586 0.14472 0.34485
0.71765 0.27108 0.30857
0.85268 0.30594 0.33073
0.8517 0.20814 0.26022
0.16626 0.30147 0.42584
0.29238 0.29007 0.29062
0.72796 0.34276 0.44419
0.87187 0.34152 0.47702
0.85297 0.24545 0.2685
0.11689 0.61773 0.45214
0.26977 0.61379 0.30378
0.6274 0.64479 0.28173
0.84446 0.59113 0.30632
0.85408 0.30856 0.18098
0.0 0.81698 0.48896
0.12023 0.83783 0.36741
0.6041 0.8625 0.27897
0.83617 0.86958 0.30063
0.89093 0.78892 0.20587
0.0 0.8801 0.48795
0.0 0.88929 0.42048
0.44273 0.91693 0.24172
0.81639 0.96708 0.28134
0.91134 0.97436 0.32906
0.25623 0.14318 0.79348
0.29771 0.11682 0.79116
0.81124 0.30891 0.92109
0.9201 0.34636 0.83129
0.89811 0.28585 0.70956
0.32154 0.35786 0.90962
0.37695 0.39834 0.83334
0.74004 0.39124 0.79145
0.93672 0.37186 0.91227
0.90731 0.33723 0.7693
0.31507 0.63867 0.94831
0.39296 0.64738 0.84904
0.6543 0.65213 0.6515
0.89887 0.6894 0.69775
0.9156 0.51227 0.76064
0.0 0.80801 0.8804
0.26301 0.82331 0.8603
0.63948 0.84588 0.6561
0.85548 0.8565 0.63662
0.93151 0.82972 0.66245
0.0 0.882 0.73427
0.0 0.8918 0.70769
0.3902 0.91315 0.58781
0.86616 0.97626 0.65268
0.94502 0.98943 0.65781
0.22824 0.2095 0.82137
0.30142 0.16502 0.85431
0.7348 0.27209 0.9469
0.93551 0.3282 0.94889
0.92619 0.26684 0.92243
0.29713 0.40729 0.92707
0.3714 0.4392 0.95371
0.71558 0.45536 0.95982
0.93631 0.39828 0.96094
0.93083 0.32767 0.94898
0.29003 0.63527 0.9844
0.38972 0.66104 0.97148
0.70685 0.72775 0.95825
0.91426 0.72978 0.91964
0.9586 0.60923 0.95005
0.08885 0.78518 1.0
0.29755 0.80954 1.0
0.65233 0.86822 0.94907
0.87593 0.87497 0.87425
0.97542 0.89981 0.91438
0.0 0.87336 0.95587
0.0 0.88845 0.96485
0.45696 0.92682 0.96953
0.84755 0.9737 0.8816
0.97166 0.98815 0.88408
0.1344 0.21095 0.80903
0.23947 0.19782 0.82795
0.44505 0.14702 0.9048
0.93344 0.32352 0.9506
0.9268 0.19789 0.9394
0.19511 0.38402 0.88985
0.30312 0.41286 0.92309
0.53219 0.48438 0.95982
0.9384 0.43173 0.96115
0.93264 0.32954 0.95449
0.18152 0.59892 0.95851
0.29508 0.63367 0.9655
0.51854 0.71042 0.97102
0.9268 0.79394 0.98272
0.9636 0.69294 0.97728
0.0 0.71831 0.9813
0.12769 0.73519 0.97924
0.47574 0.83098 0.97969
0.90382 0.92774 0.99324
0.98967 0.93296 0.99236
0.0 0.8417 0.99045
0.14644 0.85691 0.9922
0.48016 0.90676 0.99464
0.82305 0.97025 0.99604
0.99055 0.99087 0.99094
