LUTs/astia.cube
#proPhotoRGB
LUT_3D_SIZE 32
0.0 0.0 0.0
0.00783 0.0 0.0
0.02866 0.00401 0.0
0.07119 0.02323 0.0
0.14004 0.04915 0.0
0.2175 0.0778 0.0
0.29361 0.10648 0.0
0.36571 0.13329 0.0
0.4301 0.15723 0.0
0.48754 0.1786 0.0
0.5389 0.19682 0.0
0.58373 0.21249 0.0
0.62457 0.22789 0.0
0.66257 0.24204 0.0
0.69669 0.25318 0.0
0.72701 0.25878 0.0
0.75346 0.26052 0.0
0.77579 0.26275 0.0
0.79327 0.26436 0.0
0.80628 0.26381 0.0
0.81567 0.26086 0.0
0.82204 0.25559 0.0
0.82623 0.24813 0.0
0.82907 0.23869 0.0
0.83101 0.2274 0.0
0.83228 0.21434 0.0
0.8332 0.19969 0.0
0.83426 0.18391 0.0
0.83594 0.16813 0.0
0.83862 0.15461 0.0
0.84246 0.14678 0.0
0.84739 0.14792 0.0
0.0 0.00352 0.0
0.00273 0.00159 0.0
0.0232 0.00693 0.0
0.06548 0.02435 0.0
0.13668 0.05017 0.0
0.21591 0.079 0.0
0.29311 0.10791 0.0
0.36595 0.13481 0.0
0.43061 0.15874 0.0
0.48819 0.18015 0.0
0.53963 0.19839 0.0
0.58437 0.21403 0.0
0.62519 0.22952 0.0
0.66325 0.24374 0.0
0.69739 0.25488 0.0
0.72771 0.2603 0.0
0.75413 0.26179 0.0
0.77642 0.26396 0.0
0.79383 0.26558 0.0
0.80676 0.26502 0.0
0.8161 0.26206 0.0
0.82241 0.25679 0.0
0.82654 0.24932 0.0
0.82933 0.23988 0.0
0.83122 0.2286 0.0
0.83244 0.21558 0.0
0.83332 0.20097 0.0
0.83433 0.18526 0.0
0.83597 0.16955 0.0
0.83863 0.15614 0.0
0.84246 0.14843 0.0
0.84739 0.14969 0.0
0.0 0.01756 0.0
0.00145 0.01373 0.0
0.01811 0.01405 0.00267
0.04452 0.01977 0.0
0.1198 0.04674 0.0
0.20767 0.07863 0.0
0.28978 0.10946 0.0
0.36523 0.13721 0.0
0.43108 0.16151 0.0
0.48939 0.18329 0.0
0.54121 0.20178 0.0
0.58577 0.21746 0.0
0.62661 0.23326 0.0
0.66483 0.2477 0.0
0.69905 0.25888 0.0
0.72939 0.26388 0.0
0.75575 0.26475 0.0
0.77795 0.26684 0.0
0.79519 0.2685 0.0
0.80795 0.26793 0.0
0.81715 0.26494 0.0
0.82333 0.25965 0.0
0.82731 0.25217 0.0
0.82997 0.24275 0.0
0.83175 0.23152 0.0
0.83286 0.21857 0.0
0.83361 0.20408 0.0
0.83451 0.18851 0.0
0.83606 0.17301 0.0
0.83866 0.15986 0.0
0.84246 0.15246 0.0
0.84738 0.154 0.0
0.0 0.03774 0.00959
0.0 0.03176 0.00675
0.01392 0.02626 0.01012
0.03867 0.03028 0.0135
0.08426 0.04095 0.00955
0.16822 0.06671 0.0096
0.26562 0.10226 0.00887
0.35327 0.13469 0.0
0.4264 0.1619 0.0
0.48848 0.18544 0.0
0.54212 0.20506 0.0
0.58696 0.22124 0.0
0.62813 0.23775 0.0
0.66676 0.25272 0.0
0.70122 0.26415 0.0
0.7317 0.26869 0.0
0.75802 0.26871 0.0
0.78011 0.27079 0.0
0.79712 0.27254 0.0
0.80966 0.27199 0.0
0.81869 0.269 0.0
0.82466 0.26371 0.0
0.82844 0.25623 0.0
0.83093 0.24684 0.0
0.83254 0.23571 0.0
0.83347 0.22288 0.0
0.83404 0.20857 0.0
0.83477 0.19323 0.0
0.83619 0.17803 0.0
0.8387 0.16528 0.0
0.84246 0.15836 0.0
0.84737 0.16036 0.0
0.0 0.07585 0.02277
0.0 0.07075 0.01828
0.0204 0.05939 0.01762
0.03734 0.06006 0.01841
0.08968 0.06806 0.02107
0.14548 0.07539 0.01788
0.21954 0.09207 0.01815
0.30346 0.11964 0.01342
0.39719 0.15293 0.0
0.47443 0.18175 0.0
0.53654 0.20483 0.0
0.58488 0.22287 0.0
0.62784 0.24073 0.0
0.66772 0.25681 0.0
0.70296 0.26907 0.0
0.73398 0.2736 0.0
0.76045 0.27293 0.0
0.78254 0.2752 0.0
0.79933 0.27718 0.0
0.81169 0.27672 0.0
0.82057 0.27379 0.0
0.82634 0.26855 0.0
0.82988 0.26111 0.0
0.83215 0.25181 0.0
0.83356 0.24081 0.0
0.83426 0.22818 0.0
0.8346 0.21411 0.0
0.8351 0.19908 0.0
0.83634 0.18428 0.0
0.83874 0.17206 0.0
0.84244 0.1658 0.0
0.84735 0.16843 0.0
0.0 0.12891 0.0387
0.0 0.12542 0.03321
0.02484 0.11712 0.02559
0.03865 0.11014 0.02676
0.08341 0.11378 0.02812
0.15536 0.12064 0.03347
0.21413 0.12394 0.03204
0.27684 0.13041 0.03255
0.34947 0.14732 0.02034
0.43128 0.17203 0.0
0.50988 0.1985 0.0
0.57119 0.21987 0.0
0.62043 0.23943 0.0
0.66422 0.25734 0.0
0.702 0.27134 0.0
0.7347 0.27709 0.0
0.762 0.27669 0.0
0.78451 0.27947 0.0
0.80136 0.28181 0.0
0.81374 0.28154 0.0
0.82261 0.2788 0.0
0.82822 0.27372 0.0
0.83154 0.2664 0.0
0.83359 0.25726 0.0
0.83476 0.2465 0.0
0.83519 0.23414 0.0
0.83525 0.22039 0.0
0.83549 0.20576 0.0
0.83652 0.19148 0.0
0.83876 0.17995 0.0
0.8424 0.17452 0.0
0.8473 0.17799 0.0
0.0 0.1892 0.05912
0.00051 0.18696 0.05367
0.03543 0.18155 0.04395
0.05464 0.17302 0.04267
0.0726 0.1726 0.04471
0.14553 0.17735 0.04707
0.22916 0.1887 0.05215
0.28227 0.18282 0.05172
0.34158 0.18318 0.04723
0.40155 0.18817 0.03211
0.4681 0.20137 0.0
0.53751 0.21831 0.0
0.59762 0.23612 0.0
0.64969 0.25432 0.0
0.69358 0.26998 0.0
0.73057 0.27828 0.0
0.76052 0.27988 0.0
0.7846 0.28325 0.0
0.80234 0.28593 0.0
0.81528 0.28593 0.0
0.82447 0.28353 0.0
0.83011 0.27878 0.0
0.8333 0.2717 0.0
0.83517 0.26286 0.0
0.83609 0.25244 0.0
0.83623 0.24048 0.0
0.83598 0.22716 0.0
0.83592 0.21303 0.0
0.8367 0.19939 0.0
0.83878 0.18872 0.0
0.84233 0.18435 0.0
0.84723 0.18889 0.0
0.0 0.25189 0.0814
0.02169 0.25062 0.07601
0.04579 0.24751 0.06511
0.06763 0.24274 0.05856
0.08237 0.23725 0.06084
0.12953 0.24414 0.0645
0.21596 0.248 0.06773
0.29582 0.25557 0.07135
0.35073 0.25032 0.07085
0.39988 0.24258 0.06381
0.45358 0.2389 0.0523
0.50756 0.24067 0.0
0.56515 0.24811 0.0
0.62097 0.25851 0.0
0.6722 0.27037 0.0
0.7165 0.27976 0.0
0.75235 0.28397 0.0
0.78045 0.28752 0.0
0.80089 0.2899 0.0
0.81547 0.28988 0.0
0.82559 0.28782 0.0
0.83166 0.2835 0.0
0.83497 0.27679 0.0
0.83677 0.26837 0.0
0.83748 0.25844 0.0
0.83732 0.24699 0.0
0.83675 0.23421 0.0
0.83638 0.22071 0.0
0.83688 0.20787 0.0
0.83877 0.19825 0.0
0.84224 0.19519 0.0
0.84713 0.20107 0.0
0.01599 0.31333 0.1046
0.03092 0.31271 0.09923
0.05368 0.31115 0.08756
0.07686 0.30866 0.07682
0.09708 0.30464 0.07614
0.12207 0.30792 0.07876
0.19487 0.31351 0.08287
0.28431 0.31843 0.08639
0.36003 0.32513 0.0898
0.40993 0.31529 0.08908
0.45157 0.30288 0.08266
0.50267 0.29419 0.06913
0.54894 0.28921 0.0323
0.59538 0.28776 0.0
0.64268 0.28848 0.0
0.69078 0.29167 0.0
0.73388 0.29444 0.0
0.76915 0.2966 0.0
0.79519 0.29696 0.0
0.81312 0.29549 0.0
0.82519 0.29285 0.0
0.83238 0.28851 0.0
0.83624 0.28198 0.0
0.83818 0.27395 0.0
0.83877 0.26457 0.0
0.83836 0.25373 0.0
0.83751 0.24158 0.0
0.83684 0.2288 0.0
0.83706 0.2169 0.0
0.83875 0.20856 0.0
0.84211 0.2071 0.0
0.84699 0.21459 0.0
0.02057 0.37245 0.12859
0.035 0.37229 0.12335
0.05856 0.3719 0.11145
0.08361 0.37131 0.09823
0.10777 0.37036 0.09251
0.12933 0.37047 0.09493
0.18138 0.3763 0.09791
0.26354 0.38306 0.10212
0.35009 0.38735 0.10573
0.4178 0.38809 0.10752
0.46284 0.37839 0.10541
0.50454 0.36587 0.09809
0.54776 0.35257 0.08186
0.58713 0.34179 0.04876
0.62495 0.33089 0.0
0.66573 0.32579 0.0
0.70834 0.32173 0.0
0.74952 0.31899 0.0
0.78319 0.31514 0.0
0.80681 0.3095 0.0
0.82236 0.30336 0.0
0.83169 0.29686 0.0
0.83674 0.28926 0.0
0.83916 0.28091 0.0
0.83979 0.27174 0.0
0.83925 0.26134 0.0
0.8382 0.24974 0.0
0.83729 0.23766 0.0
0.83725 0.22679 0.0
0.83872 0.21992 0.0
0.84197 0.2203 0.0
0.84684 0.22965 0.0
0.01089 0.42849 0.15254
0.03073 0.4286 0.14743
0.05767 0.42887 0.13544
0.08534 0.42918 0.12044
0.11255 0.42925 0.10945
0.1369 0.42911 0.10833
0.17254 0.4326 0.11075
0.2435 0.439 0.11383
0.32834 0.44677 0.11847
0.4079 0.44866 0.12241
0.47113 0.44762 0.12408
0.51373 0.43733 0.12026
0.55179 0.42588 0.10992
0.58813 0.41055 0.09535
0.62168 0.39209 0.07114
0.65607 0.37923 0.0
0.6903 0.36822 0.0
0.72826 0.3599 0.0
0.76495 0.35132 0.0
0.79534 0.34078 0.0
0.81634 0.32845 0.0
0.82916 0.31588 0.0
0.83621 0.30394 0.0
0.83951 0.29295 0.0
0.8404 0.28253 0.0
0.83988 0.2717 0.0
0.83875 0.26006 0.0
0.83769 0.24832 0.0
0.83743 0.23834 0.0
0.83869 0.23295 0.0
0.84181 0.23531 0.0
0.84666 0.24663 0.0
0.0 0.4818 0.1759
0.00515 0.48217 0.17092
0.04878 0.48308 0.15901
0.08111 0.48438 0.14304
0.11191 0.48591 0.12815
0.14063 0.4873 0.12174
0.1717 0.48823 0.12347
0.22901 0.49233 0.12663
0.30816 0.49842 0.13018
0.3893 0.50096 0.13371
0.46245 0.50156 0.13626
0.51755 0.49812 0.13721
0.5594 0.49179 0.13278
0.59116 0.47742 0.12119
0.62129 0.46389 0.11212
0.65422 0.44568 0.08825
0.68564 0.42885 0.03609
0.71711 0.41416 0.0
0.74854 0.40179 0.0
0.78044 0.38872 0.0
0.80732 0.37297 0.0
0.82492 0.35416 0.0
0.83483 0.33477 0.0
0.83939 0.31722 0.0
0.84069 0.30229 0.0
0.84028 0.28871 0.0
0.83917 0.27542 0.0
0.83803 0.26296 0.0
0.83761 0.25316 0.0
0.83868 0.24888 0.0
0.84167 0.25303 0.0
0.84649 0.26616 0.0
0.0 0.53157 0.19837
0.0 0.53219 0.19356
0.02563 0.53372 0.18188
0.07036 0.53605 0.16559
0.10702 0.53899 0.14857
0.14146 0.54192 0.13785
0.17164 0.54368 0.13762
0.21362 0.54565 0.14068
0.286 0.54741 0.14276
0.36791 0.54778 0.1445
0.44546 0.54686 0.14674
0.51179 0.54557 0.14884
0.56142 0.54159 0.14826
0.59619 0.53425 0.14481
0.62324 0.52381 0.13701
0.65285 0.51134 0.12417
0.68422 0.49737 0.10407
0.71424 0.47812 0.05834
0.74248 0.46067 0.0
0.76974 0.44527 0.0
0.79824 0.42943 0.0
0.82008 0.40989 0.0
0.83353 0.38618 0.0
0.83959 0.36112 0.0
0.84117 0.33821 0.0
0.84074 0.31829 0.0
0.83958 0.30049 0.0
0.83839 0.28516 0.0
0.83785 0.27398 0.0
0.83873 0.26965 0.0
0.84157 0.27478 0.0
0.84635 0.28911 0.0
0.0 0.57603 0.21996
0.0 0.57675 0.21532
0.0 0.57855 0.20396
0.0461 0.58128 0.18764
0.09339 0.58484 0.16912
0.13401 0.58884 0.15404
0.17155 0.59188 0.14919
0.20298 0.59214 0.15153
0.26522 0.59523 0.15534
0.34408 0.59173 0.15583
0.42269 0.58596 0.15578
0.49492 0.58264 0.158
0.55296 0.57976 0.15957
0.59753 0.57925 0.15828
0.62729 0.56927 0.15458
0.6539 0.56322 0.148
0.68196 0.55578 0.13652
0.7125 0.54428 0.117
0.74206 0.52577 0.07268
0.76774 0.5065 0.0
0.79429 0.49013 0.0
0.81697 0.47197 0.0
0.83329 0.44974 0.0
0.84123 0.42274 0.0
0.84282 0.3934 0.0
0.84192 0.36542 0.0
0.8404 0.34036 0.0
0.83899 0.31941 0.0
0.83826 0.30436 0.0
0.83893 0.29789 0.0
0.84159 0.30229 0.0
0.84632 0.31652 0.0
0.0 0.61557 0.24068
0.0 0.6163 0.23625
0.0 0.61812 0.22534
0.0 0.62087 0.20938
0.07029 0.62448 0.19038
0.12059 0.62874 0.17267
0.16575 0.63285 0.16333
0.20638 0.63307 0.16446
0.25022 0.63189 0.16614
0.32199 0.62622 0.16642
0.39961 0.62076 0.16686
0.47186 0.61759 0.16813
0.53693 0.6143 0.16937
0.58846 0.61066 0.16899
0.63176 0.61442 0.16898
0.65727 0.60435 0.16408
0.68191 0.59973 0.15705
0.70965 0.59481 0.14661
0.74037 0.5854 0.1244
0.76846 0.56952 0.08279
0.79542 0.55282 0.0
0.8177 0.53457 0.0
0.83465 0.51415 0.0
0.84442 0.49014 0.0
0.84633 0.46066 0.0
0.84464 0.42833 0.0
0.84231 0.39665 0.0
0.84028 0.3687 0.0
0.83913 0.34747 0.0
0.83948 0.3362 0.0
0.84188 0.33736 0.0
0.84649 0.34945 0.0
0.0 0.65179 0.26035
0.0 0.65254 0.25615
0.0 0.65441 0.24573
0.0 0.65727 0.23028
0.02188 0.66111 0.21124
0.09853 0.66591 0.19168
0.15163 0.67141 0.17746
0.1997 0.67545 0.17406
0.24301 0.67072 0.17481
0.30492 0.66652 0.17569
0.38045 0.65639 0.17472
0.45349 0.65058 0.1757
0.51927 0.64974 0.17807
0.5763 0.64536 0.17807
0.62235 0.64361 0.17776
0.6629 0.64515 0.17782
0.68644 0.6379 0.17261
0.7101 0.63278 0.16488
0.73819 0.62927 0.15267
0.7666 0.6218 0.12984
0.79568 0.61186 0.09382
0.81981 0.59604 0.0
0.83703 0.5759 0.0
0.8481 0.55429 0.0
0.85113 0.5284 0.0
0.84913 0.49757 0.0
0.8459 0.46404 0.0
0.84288 0.43124 0.0
0.84097 0.40367 0.0
0.84072 0.3858 0.0
0.84266 0.38111 0.0
0.84703 0.38862 0.0
0.0 0.68521 0.27883
0.0 0.68596 0.27483
0.0 0.68784 0.2649
0.0 0.6907 0.25002
0.0 0.69448 0.23121
0.0628 0.69913 0.21059
0.1302 0.70427 0.19259
0.18494 0.70826 0.18326
0.23454 0.70671 0.18275
0.29016 0.69869 0.18291
0.36152 0.69004 0.1829
0.4352 0.68383 0.18327
0.50257 0.67986 0.18482
0.56055 0.67856 0.1865
0.61176 0.67391 0.18595
0.65479 0.67457 0.18518
0.68797 0.66955 0.18397
0.71503 0.66851 0.17948
0.74037 0.66422 0.17127
0.76494 0.65939 0.15769
0.79272 0.65623 0.13717
0.81913 0.64926 0.09962
0.83778 0.63363 0.0
0.85046 0.61374 0.0
0.85571 0.59081 0.0
0.85466 0.56392 0.0
0.85112 0.53316 0.0
0.84717 0.50003 0.0
0.84425 0.46892 0.0
0.84311 0.44503 0.0
0.84429 0.43308 0.0
0.84816 0.43393 0.0
0.0 0.71599 0.29619
0.0 0.71673 0.2924
0.0 0.71856 0.28297
0.0 0.72132 0.26873
0.0 0.72491 0.2504
0.0 0.72922 0.22944
0.10006 0.73391 0.20908
0.16508 0.7379 0.19482
0.2198 0.73827 0.19052
0.27162 0.73197 0.19077
0.33927 0.72208 0.18984
0.41527 0.71379 0.18953
0.48711 0.7103 0.19062
0.54798 0.70858 0.19309
0.5999 0.70569 0.19351
0.64618 0.69998 0.19278
0.68524 0.69915 0.19248
0.71619 0.69559 0.19136
0.74307 0.69525 0.18694
0.76661 0.6906 0.17767
0.79086 0.68804 0.16326
0.81608 0.68715 0.14089
0.83599 0.68071 0.10057
0.85046 0.66688 0.0
0.85869 0.6479 0.0
0.86008 0.62457 0.0
0.85726 0.5976 0.0
0.85288 0.56732 0.0
0.84906 0.5364 0.0
0.8469 0.50927 0.0
0.84705 0.4908 0.0
0.8501 0.48419 0.0
0.0 0.74439 0.31266
0.0 0.74512 0.30911
0.0 0.74692 0.30022
0.0 0.74962 0.28673
0.0 0.75309 0.26914
0.0 0.75717 0.24843
0.05281 0.76154 0.22683
0.13884 0.76536 0.20865
0.20228 0.76665 0.19903
0.25672 0.76337 0.19782
0.3179 0.75276 0.19703
0.39356 0.74326 0.19639
0.46847 0.73838 0.19702
0.53372 0.7359 0.19897
0.58767 0.73524 0.20126
0.63565 0.72966 0.20069
0.67868 0.72462 0.20051
0.71453 0.72277 0.199
0.74364 0.72064 0.19802
0.76861 0.71949 0.19314
0.79217 0.71624 0.18302
0.81472 0.71505 0.16663
0.83364 0.71395 0.14252
0.84921 0.70888 0.09812
0.86009 0.69775 0.0
0.86469 0.67978 0.0
0.86356 0.65627 0.0
0.85936 0.62909 0.0
0.85502 0.60043 0.0
0.85199 0.57303 0.0
0.85099 0.55044 0.0
0.85296 0.5372 0.0
0.0 0.77044 0.32824
0.0 0.77118 0.32492
0.0 0.773 0.31663
0.0 0.77571 0.30399
0.0 0.77919 0.28738
0.0 0.78329 0.26745
0.0 0.78772 0.24572
0.10577 0.79186 0.22536
0.18129 0.79417 0.21127
0.24357 0.79235 0.20653
0.30016 0.78486 0.20611
0.37193 0.77251 0.20408
0.44807 0.76465 0.20403
0.51708 0.76264 0.20554
0.5748 0.76008 0.20755
0.62463 0.75901 0.20921
0.66936 0.75251 0.20813
0.70974 0.74796 0.20733
0.74245 0.745 0.20588
0.76905 0.7433 0.20414
0.7952 0.74451 0.19836
0.81641 0.74135 0.18663
0.83297 0.73941 0.16944
0.84824 0.73892 0.14248
0.86055 0.73592 0.09442
0.86806 0.72654 0.0
0.86944 0.70881 0.0
0.8661 0.68495 0.0
0.86161 0.65875 0.0
0.85792 0.63255 0.0
0.85588 0.60829 0.0
0.85669 0.59037 0.0
0.0 0.7939 0.34257
0.0 0.79465 0.3395
0.0 0.79649 0.3318
0.0 0.79925 0.32004
0.0 0.80281 0.30449
0.0 0.80705 0.28558
0.0 0.81173 0.26432
0.05411 0.81639 0.2429
0.1535 0.81999 0.22525
0.22496 0.82052 0.21571
0.28631 0.81668 0.21403
0.35158 0.80477 0.21187
0.4278 0.79415 0.2105
0.49998 0.78981 0.21162
0.5614 0.7879 0.21319
0.61371 0.78554 0.21514
0.66014 0.78278 0.21544
0.70159 0.77606 0.21421
0.73859 0.77005 0.21337
0.76897 0.76741 0.21126
0.79551 0.76745 0.20903
0.81806 0.7678 0.20198
0.83416 0.76374 0.18978
0.84862 0.76233 0.17125
0.86053 0.76283 0.14214
0.86957 0.76099 0.08855
0.87392 0.75198 0.0
0.87254 0.73423 0.0
0.86847 0.71129 0.0
0.86431 0.6867 0.0
0.86136 0.66222 0.0
0.86109 0.64157 0.0
0.0 0.81433 0.35527
0.0 0.81508 0.35242
0.0 0.81693 0.34528
0.0 0.81971 0.33435
0.0 0.82331 0.31985
0.0 0.82761 0.30204
0.0 0.83244 0.28158
0.0 0.83745 0.25999
0.11589 0.84188 0.2402
0.19996 0.8442 0.2265
0.26946 0.84282 0.22155
0.33056 0.83753 0.2215
0.40692 0.82578 0.21896
0.48236 0.81879 0.21907
0.54718 0.81633 0.22029
0.60167 0.81268 0.22119
0.65072 0.81108 0.2226
0.69421 0.80624 0.22144
0.73316 0.79953 0.22017
0.76658 0.79164 0.21867
0.79456 0.7887 0.21679
0.81706 0.78898 0.21359
0.83488 0.7876 0.20561
0.84908 0.78385 0.19252
0.86022 0.78429 0.17191
0.8693 0.78522 0.13863
0.87605 0.78323 0.07686
0.87769 0.7741 0.0
0.87508 0.75705 0.0
0.87084 0.73521 0.0
0.86715 0.71142 0.0
0.86593 0.68948 0.0
0.0 0.83139 0.36609
0.0 0.83212 0.36344
0.0 0.83393 0.3568
0.0 0.83666 0.34664
0.0 0.84021 0.33311
0.0 0.8445 0.31639
0.0 0.84939 0.2969
0.0 0.85466 0.27568
0.0557 0.85986 0.25482
0.16709 0.86407 0.23789
0.2461 0.86585 0.22871
0.31472 0.86487 0.22746
0.38533 0.85671 0.22707
0.46298 0.84784 0.22642
0.53231 0.84419 0.22696
0.58827 0.83943 0.22717
0.63809 0.83546 0.22797
0.68464 0.83455 0.22803
0.72574 0.82738 0.22566
0.76268 0.82089 0.22439
0.79375 0.81411 0.22249
0.81689 0.80899 0.22021
0.83402 0.80847 0.2161
0.84868 0.80675 0.20679
0.85973 0.80529 0.19333
0.86862 0.80615 0.16991
0.8763 0.80625 0.13201
0.88077 0.80315 0.05929
0.88052 0.79341 0.0
0.87697 0.77643 0.0
0.8729 0.75487 0.0
0.87092 0.73299 0.0
0.0 0.84488 0.37497
0.0 0.84558 0.3725
0.0 0.84729 0.36631
0.0 0.84987 0.35683
0.0 0.85323 0.34418
0.0 0.8573 0.32847
0.0 0.862 0.30997
0.0 0.86717 0.28936
0.0 0.87256 0.26812
0.12272 0.87769 0.249
0.21548 0.8818 0.23586
0.29263 0.88432 0.23135
0.36427 0.88384 0.2324
0.44253 0.87671 0.2331
0.51594 0.87158 0.2337
0.57609 0.86703 0.23364
0.627 0.86222 0.23414
0.67481 0.85907 0.23435
0.71795 0.85558 0.23313
0.75761 0.84802 0.23081
0.79205 0.84247 0.22904
0.81759 0.83435 0.22533
0.83487 0.82889 0.22244
0.84887 0.82795 0.21668
0.86018 0.82764 0.20767
0.86942 0.82825 0.19205
0.87701 0.82797 0.16557
0.88283 0.82602 0.12332
0.8843 0.82 0.03349
0.88195 0.80823 0.0
0.87814 0.79074 0.0
0.87576 0.77078 0.0
0.0 0.85497 0.38213
0.0 0.8556 0.37981
0.0 0.85715 0.37402
0.0 0.85948 0.36514
0.0 0.86251 0.35328
0.0 0.86618 0.3385
0.0 0.87041 0.32096
0.0 0.87511 0.30112
0.0 0.88014 0.27999
0.05241 0.88526 0.25961
0.17687 0.89018 0.24332
0.26355 0.89466 0.23482
0.34083 0.89864 0.2347
0.41853 0.89979 0.23747
0.49636 0.89615 0.23914
0.56144 0.89113 0.24065
0.61506 0.88773 0.24
0.66495 0.88411 0.24089
0.70862 0.87934 0.23994
0.75001 0.87411 0.23815
0.78829 0.86882 0.23581
0.81809 0.86271 0.23282
0.83644 0.85326 0.22813
0.84984 0.84919 0.2232
0.86077 0.84881 0.21689
0.87061 0.84966 0.20675
0.87929 0.85048 0.18905
0.88559 0.84829 0.16023
0.88736 0.84206 0.11329
0.88579 0.83253 0.0
0.88257 0.8189 0.0
0.88015 0.80223 0.0
0.0 0.86223 0.38802
0.0 0.86277 0.38585
0.0 0.86411 0.38041
0.0 0.86613 0.37207
0.0 0.86875 0.36092
0.0 0.87191 0.34701
0.0 0.87556 0.33041
0.0 0.87964 0.31143
0.0 0.88407 0.29076
0.0 0.88878 0.26988
0.1292 0.89375 0.25143
0.22892 0.89903 0.23905
0.31295 0.90478 0.23544
0.39176 0.91079 0.23881
0.47233 0.91363 0.24219
0.54546 0.91101 0.24479
0.6013 0.908 0.24589
0.65212 0.90628 0.24595
0.70032 0.90264 0.24611
0.74026 0.89639 0.24503
0.78028 0.89254 0.24359
0.81403 0.88796 0.24033
0.83656 0.88083 0.23553
0.85076 0.87123 0.22963
0.86075 0.8685 0.22374
0.86887 0.86833 0.21616
0.87853 0.86927 0.20523
0.88667 0.86872 0.18636
0.88942 0.86306 0.15341
0.88883 0.85431 0.10046
0.88603 0.84227 0.0
0.88367 0.82841 0.0
0.0 0.86752 0.39332
0.0 0.86797 0.39128
0.0 0.8691 0.38617
0.0 0.87078 0.37834
0.0 0.87297 0.36787
0.0 0.87559 0.35477
0.0 0.87862 0.33911
0.0 0.88199 0.32104
0.0 0.88568 0.30106
0.0 0.88966 0.28021
0.06525 0.89394 0.26047
0.19009 0.89862 0.24495
0.28088 0.90383 0.23704
0.36328 0.90977 0.23778
0.44372 0.91617 0.24243
0.52427 0.92156 0.24648
0.5878 0.92319 0.24961
0.63952 0.92408 0.25029
0.6886 0.92216 0.25119
0.73315 0.91794 0.25043
0.77161 0.91346 0.25009
0.80736 0.91082 0.24872
0.83361 0.90468 0.24338
0.84995 0.89575 0.23704
0.86119 0.88788 0.23043
0.86793 0.88619 0.22316
0.87594 0.88684 0.21479
0.88432 0.88691 0.20347
0.88838 0.88203 0.18137
0.88889 0.87377 0.14372
0.88726 0.86322 0.08421
0.88577 0.8516 0.0
0.0 0.87184 0.39889
0.0 0.87222 0.39699
0.0 0.87314 0.39221
0.0 0.87452 0.38488
0.0 0.8763 0.37508
0.0 0.87844 0.36282
0.0 0.88088 0.34811
0.0 0.8836 0.33104
0.0 0.88657 0.31192
0.0 0.88977 0.29147
0.0 0.89325 0.27107
0.14994 0.89709 0.25313
0.24737 0.9015 0.24087
0.33303 0.90681 0.23685
0.41568 0.91355 0.24022
0.49945 0.92227 0.24497
0.57145 0.93044 0.25003
0.62622 0.93541 0.25327
0.67593 0.93652 0.25426
0.72324 0.9349 0.25483
0.76432 0.93139 0.25367
0.79991 0.92923 0.25404
0.8295 0.9258 0.25124
0.84872 0.91867 0.24399
0.86103 0.9095 0.23685
0.86904 0.90382 0.22927
0.87531 0.90359 0.22098
0.88273 0.90521 0.21165
0.88679 0.90148 0.19845
0.88728 0.89221 0.17386
0.88703 0.88366 0.1338
0.88739 0.87445 0.09237
0.0 0.87614 0.4057
0.0 0.87645 0.40393
0.0 0.87721 0.39951
0.0 0.87835 0.39274
