LUTs/astia.cube
#proPhotoRGB
LUT_3D_SIZE 8
DOMAIN_MIN 0.000000 0.000000 0.000000
DOMAIN_MAX 0.903226 0.903226 0.903226
0.0 0.0 0.0
0.14004 0.04915 0.0
0.4301 0.15723 0.0
0.62457 0.22789 0.0
0.75346 0.26052 0.0
0.81567 0.26086 0.0
0.83101 0.2274 0.0
0.83594 0.16813 0.0
0.0 0.07585 0.02277
0.08968 0.06806 0.02107
0.39719 0.15293 0.0
0.62784 0.24073 0.0
0.76045 0.27293 0.0
0.82057 0.27379 0.0
0.83356 0.24081 0.0
0.83634 0.18428 0.0
0.01599 0.31333 0.1046
0.09708 0.30464 0.07614
0.36003 0.32513 0.0898
0.54894 0.28921 0.0323
0.73388 0.29444 0.0
0.82519 0.29285 0.0
0.83877 0.26457 0.0
0.83706 0.2169 0.0
0.0 0.53157 0.19837
0.10702 0.53899 0.14857
0.286 0.54741 0.14276
0.56142 0.54159 0.14826
0.68422 0.49737 0.10407
0.79824 0.42943 0.0
0.84117 0.33821 0.0
0.83785 0.27398 0.0
0.0 0.68521 0.27883
0.0 0.69448 0.23121
0.23454 0.70671 0.18275
0.50257 0.67986 0.18482
0.68797 0.66955 0.18397
0.79272 0.65623 0.13717
0.85571 0.59081 0.0
0.84425 0.46892 0.0
0.0 0.7939 0.34257
0.0 0.80281 0.30449
0.1535 0.81999 0.22525
0.4278 0.79415 0.2105
0.66014 0.78278 0.21544
0.79551 0.76745 0.20903
0.86053 0.76283 0.14214
0.86847 0.71129 0.0
0.0 0.85497 0.38213
0.0 0.86251 0.35328
0.0 0.88014 0.27999
0.34083 0.89864 0.2347
0.61506 0.88773 0.24
0.78829 0.86882 0.23581
0.86077 0.84881 0.21689
0.88736 0.84206 0.11329
0.0 0.87614 0.4057
0.0 0.87981 0.38368
0.0 0.88818 0.32486
0.22029 0.90055 0.2496
0.55116 0.92894 0.24969
0.75836 0.94609 0.25672
0.86176 0.93156 0.24018
0.88663 0.92068 0.20543
0.02974 0.00809 0.11026
0.1251 0.04722 0.0824
0.42209 0.15855 0.06033
0.63623 0.23435 0.02671
0.76819 0.27719 0.03402
0.82898 0.28106 0.08241
0.83957 0.24608 0.10233
0.84155 0.1816 0.0
0.04787 0.10122 0.13866
0.08749 0.08711 0.0875
0.42687 0.17334 0.15151
0.64998 0.24934 0.17705
0.77972 0.29024 0.15273
0.83525 0.29505 0.15377
0.84246 0.25966 0.14034
0.84196 0.1971 0.0
0.08306 0.33034 0.18595
0.11594 0.32409 0.10678
0.3476 0.33527 0.10419
0.5751 0.32491 0.14039
0.76893 0.30593 0.15463
0.84489 0.30763 0.22818
0.84889 0.28031 0.21112
0.84273 0.22617 0.0
0.06947 0.53851 0.2621
0.14241 0.54436 0.18247
0.31738 0.55092 0.14181
0.5593 0.56131 0.16822
0.68829 0.51497 0.15802
0.81157 0.44675 0.06788
0.84961 0.33011 0.06622
0.84337 0.26747 0.0
0.0 0.68616 0.33243
0.04965 0.69359 0.27369
0.27217 0.7098 0.18421
0.52348 0.7047 0.19292
0.69314 0.70465 0.20806
0.79602 0.67757 0.19159
0.86459 0.60653 0.0
0.84846 0.46768 0.0
0.0 0.79644 0.38773
0.0 0.80544 0.34559
0.19374 0.82648 0.23916
0.47034 0.81272 0.21261
0.67322 0.81417 0.22582
0.80463 0.80549 0.23311
0.86746 0.78436 0.20236
0.87412 0.72407 0.0
0.0 0.85796 0.41887
0.0 0.86571 0.38856
0.0 0.88422 0.30479
0.38596 0.90322 0.23708
0.63573 0.90653 0.24075
0.79916 0.90109 0.25168
0.87142 0.88192 0.25139
0.89448 0.8597 0.18308
0.0 0.87795 0.43413
0.0 0.8816 0.41157
0.0 0.88983 0.34895
0.23452 0.9022 0.25897
0.58367 0.93308 0.24996
0.76767 0.95282 0.26238
0.87159 0.95203 0.26332
0.89597 0.94168 0.24918
0.14638 0.05938 0.4469
0.18052 0.06748 0.48383
0.45323 0.17639 0.43981
0.64906 0.2511 0.39336
0.78842 0.30221 0.39967
0.85784 0.31928 0.40353
0.86037 0.29024 0.38853
0.85624 0.2199 0.32374
0.16275 0.14445 0.46799
0.18199 0.15016 0.45558
0.4269 0.19143 0.43298
0.65191 0.25906 0.47057
0.798 0.31357 0.47496
0.8656 0.33396 0.45391
0.86422 0.30631 0.41704
0.8568 0.23641 0.32813
0.20248 0.36516 0.52302
0.21635 0.36438 0.47333
0.35886 0.35641 0.35754
0.61951 0.392 0.41097
0.79734 0.39279 0.52222
0.88731 0.36197 0.60726
0.87696 0.33555 0.5162
0.8582 0.26629 0.33961
0.18668 0.55015 0.5282
0.22469 0.55203 0.48974
0.34859 0.54652 0.36697
0.55688 0.55895 0.32382
0.72335 0.56483 0.37636
0.86174 0.52272 0.42656
0.87722 0.34486 0.47007
0.86094 0.27617 0.35458
0.07921 0.68189 0.52932
0.16238 0.68242 0.48689
0.31955 0.67884 0.37392
0.54483 0.70206 0.30946
0.69398 0.71465 0.34179
0.80576 0.6903 0.34563
0.88187 0.64683 0.34864
0.8613 0.46601 0.18529
0.0 0.79341 0.53336
0.0 0.7991 0.49625
0.24367 0.8073 0.37319
0.51498 0.81936 0.30835
0.69105 0.83662 0.31828
0.81348 0.84758 0.34022
0.87995 0.80821 0.33296
0.88806 0.74373 0.26051
0.0 0.86024 0.52699
0.0 0.86771 0.49842
0.0 0.88606 0.40623
0.41776 0.91162 0.2585
0.67305 0.93651 0.30919
0.81435 0.94617 0.34376
0.88982 0.93589 0.35643
0.90738 0.89555 0.29644
0.0 0.88071 0.51278
0.0 0.88423 0.49079
0.0 0.8919 0.42455
0.24365 0.9032 0.29591
0.61739 0.93701 0.26404
0.78967 0.96303 0.28228
0.88729 0.98473 0.34921
0.91674 0.98244 0.37024
0.23912 0.12019 0.72652
0.26892 0.10684 0.75065
0.45727 0.17648 0.85207
0.71999 0.27762 0.81125
0.83652 0.32047 0.73278
0.89757 0.34195 0.70419
0.89249 0.32776 0.66898
0.88143 0.26939 0.58183
0.26481 0.20786 0.76579
0.29144 0.20667 0.78328
0.44183 0.22796 0.78551
0.7007 0.28427 0.78742
0.83454 0.32734 0.7577
0.90376 0.35253 0.74476
0.89731 0.34289 0.70216
0.88302 0.28947 0.59502
0.30377 0.39159 0.83427
0.3211 0.399 0.80889
0.41012 0.42645 0.65908
0.62399 0.41877 0.63372
0.7911 0.40367 0.68946
0.91082 0.38742 0.78951
0.91897 0.3623 0.82435
0.88761 0.3316 0.62833
0.30108 0.56635 0.84413
0.32823 0.57045 0.81392
0.3928 0.57414 0.66557
0.57718 0.57421 0.57471
0.74495 0.59495 0.59636
0.88408 0.60547 0.64145
0.91151 0.5182 0.72586
0.90364 0.36776 0.73551
0.22698 0.69059 0.81849
0.27688 0.69476 0.80148
0.38112 0.69438 0.70348
0.56298 0.70181 0.56539
0.7115 0.70958 0.54821
0.84612 0.71985 0.58976
0.91507 0.70969 0.62692
0.89687 0.50639 0.54231
0.0 0.788 0.77947
0.12521 0.79218 0.76748
0.31059 0.79799 0.71521
0.54386 0.8087 0.58428
0.70949 0.82279 0.52702
0.82348 0.82889 0.55083
0.90152 0.81353 0.5746
0.91515 0.77925 0.55668
0.0 0.85646 0.7175
0.0 0.86292 0.70449
0.11526 0.87842 0.66149
0.44189 0.90017 0.57016
0.69842 0.91688 0.5315
0.83073 0.93642 0.54252
0.90401 0.93653 0.55297
0.92644 0.9039 0.54545
0.0 0.88199 0.6494
0.0 0.88551 0.63466
0.0 0.89308 0.58811
0.22563 0.90302 0.48833
0.60808 0.93697 0.4332
0.82186 0.9712 0.52276
0.90809 0.98485 0.5679
0.93585 0.99065 0.5653
0.25444 0.16524 0.8121
0.27986 0.14933 0.81623
0.33282 0.11433 0.846
0.70057 0.26476 0.95079
0.87454 0.32572 0.95356
0.93708 0.34846 0.92838
0.92394 0.33546 0.8896
0.91338 0.29206 0.81364
0.29394 0.25448 0.88753
0.32793 0.25406 0.91375
0.38949 0.2337 0.95573
0.69238 0.29571 0.94942
0.86327 0.33754 0.95663
0.93866 0.36188 0.94689
0.9284 0.35066 0.91525
0.91761 0.31314 0.83681
0.33514 0.41591 0.96367
0.36004 0.42432 0.96114
0.4282 0.47178 0.90492
0.64751 0.48946 0.86195
0.80665 0.45072 0.85573
0.92385 0.4085 0.9012
0.94092 0.37302 0.95445
0.92978 0.35548 0.89726
0.34466 0.57946 1.0
0.37394 0.58921 0.99531
0.44203 0.60237 0.89351
0.6113 0.62758 0.7795
0.75267 0.62111 0.75502
0.88515 0.61645 0.76378
0.93255 0.56528 0.83656
0.93331 0.42234 0.90052
0.29929 0.69578 1.0
0.34341 0.70159 0.99396
0.43133 0.7096 0.92578
0.58414 0.72343 0.78633
0.72278 0.72087 0.72058
0.8603 0.74155 0.73526
0.93537 0.75917 0.77599
0.93257 0.69715 0.78167
0.15338 0.78768 0.9766
0.22892 0.79471 0.97728
0.37435 0.81017 0.95299
0.56769 0.82657 0.79932
0.72131 0.8305 0.71144
0.83699 0.8342 0.69782
0.92551 0.8431 0.75036
0.94415 0.82807 0.75672
0.0 0.85055 0.91559
0.0 0.85759 0.91797
0.19223 0.87536 0.91572
0.46024 0.89968 0.85519
0.69994 0.91642 0.72448
0.83933 0.92763 0.7017
0.9183 0.93047 0.7234
0.94864 0.91708 0.74327
0.0 0.88146 0.81838
0.0 0.8857 0.81612
0.0 0.8956 0.80746
0.24243 0.90868 0.78116
0.57773 0.93342 0.70128
0.82746 0.97013 0.71609
0.91866 0.98501 0.72605
0.95365 0.98749 0.73971
0.23568 0.20367 0.82011
0.26652 0.19226 0.82962
0.30847 0.12567 0.84657
0.59689 0.2201 0.94354
0.85996 0.31961 0.9502
0.93643 0.33471 0.95001
0.93069 0.32167 0.94102
0.9253 0.27601 0.91357
0.27029 0.28932 0.87555
0.3042 0.28914 0.89307
0.35556 0.26577 0.95674
0.60524 0.27653 0.95455
0.8522 0.34733 0.95652
0.93531 0.35383 0.95606
0.93252 0.34272 0.95008
0.9275 0.3001 0.92727
0.31377 0.44273 0.94561
0.34585 0.45565 0.95219
0.39324 0.48715 0.95723
0.61408 0.51828 0.96004
0.81047 0.50044 0.95751
0.92779 0.44501 0.95855
0.93587 0.37818 0.95931
0.93258 0.3524 0.95265
0.31471 0.5783 0.97951
0.34779 0.58832 0.97525
0.42411 0.61307 0.96515
0.62002 0.66272 0.95141
0.78464 0.68174 0.93804
0.90041 0.65664 0.91139
0.94867 0.58882 0.92159
0.94682 0.45074 0.95755
0.27186 0.68949 1.0
0.31433 0.69825 0.99467
0.41357 0.71822 0.97389
0.61141 0.74516 0.94868
0.76133 0.76319 0.90468
0.87246 0.76241 0.87617
0.95153 0.77414 0.89185
0.95796 0.72306 0.90808
0.16311 0.77441 1.0
0.2334 0.7829 1.0
0.37452 0.80397 0.99352
0.56467 0.83301 0.9546
0.7334 0.84723 0.88679
0.84583 0.84408 0.84421
0.94356 0.86549 0.87431
0.9691 0.87211 0.89353
0.0 0.8357 1.0
0.0 0.84329 1.0
0.22655 0.86271 1.0
0.47238 0.89298 0.987
0.72156 0.91898 0.91444
0.84739 0.92847 0.8474
0.93256 0.93666 0.84191
0.97191 0.94007 0.87593
0.0 0.87612 0.93952
0.0 0.88137 0.94314
0.0 0.89458 0.95164
0.30688 0.91473 0.96054
0.59607 0.94148 0.92205
0.81468 0.96934 0.85603
0.92004 0.98333 0.84412
0.96944 0.98735 0.8618
0.19748 0.21822 0.81572
0.23339 0.2126 0.82424
0.2977 0.1794 0.85071
0.40509 0.13679 0.90105
0.80768 0.2952 0.94775
0.93529 0.33075 0.9507
0.93062 0.29425 0.94674
0.92746 0.23626 0.93489
0.22862 0.2984 0.85911
0.26599 0.30107 0.87247
0.33777 0.30178 0.92136
0.4501 0.26708 0.95827
0.80406 0.33548 0.95562
0.93584 0.36005 0.95643
0.93223 0.3241 0.95253
0.92915 0.27007 0.94247
0.27235 0.44321 0.92539
0.30957 0.45578 0.93607
0.37635 0.48962 0.95571
0.50231 0.51728 0.95913
0.77559 0.52468 0.96349
0.92868 0.4879 0.96399
0.93774 0.40642 0.96028
0.93373 0.35215 0.95584
0.27297 0.57261 0.96094
0.30962 0.58454 0.96329
0.38048 0.61206 0.96526
0.53778 0.66073 0.96866
0.77759 0.71396 0.97593
0.90989 0.70657 0.9777
0.95589 0.63554 0.97029
0.94495 0.49225 0.96485
0.22004 0.67047 0.97779
0.26771 0.68114 0.97625
0.37214 0.70943 0.97182
0.54036 0.75281 0.97523
0.76844 0.79967 0.98502
0.8938 0.815 0.98066
0.96365 0.80052 0.9736
0.97007 0.75162 0.97602
0.04603 0.73928 0.99014
0.14726 0.74685 0.98765
0.29552 0.76737 0.98038
0.50406 0.81405 0.97944
0.74713 0.86488 0.98072
0.87551 0.88043 0.96575
0.95421 0.8825 0.96149
0.98149 0.88623 0.96795
0.0 0.80251 0.99745
0.0 0.80928 0.99679
0.18932 0.82898 0.99251
0.43176 0.87306 0.98453
0.69178 0.92407 0.9826
0.85307 0.9355 0.96319
0.94058 0.94104 0.94114
0.984 0.95011 0.95337
0.0 0.86102 0.98036
0.0 0.86673 0.98211
0.08826 0.88207 0.98505
0.34537 0.908 0.98611
0.5991 0.9415 0.98342
0.80542 0.96832 0.96187
0.92069 0.98207 0.9375
0.97728 0.99 0.93952
0.1344 0.21095 0.80903
0.17896 0.2072 0.81507
0.26074 0.19187 0.83448
0.30275 0.12463 0.83914
0.70641 0.24813 0.94348
0.92988 0.32119 0.95028
0.93015 0.28911 0.94825
0.9268 0.19789 0.9394
0.16243 0.28429 0.84343
0.20644 0.28703 0.85283
0.29322 0.2952 0.88539
0.34873 0.30306 0.95035
0.71613 0.31492 0.95334
0.93313 0.35523 0.95655
0.93239 0.32854 0.95365
0.92871 0.2457 0.9456
0.20338 0.41912 0.90456
0.24671 0.43012 0.91513
0.33378 0.46301 0.94291
0.39082 0.50947 0.95757
0.72107 0.55974 0.96288
0.92026 0.50989 0.96477
0.94039 0.44341 0.96178
0.93461 0.36544 0.95747
0.20481 0.54749 0.94666
0.24806 0.56049 0.95204
0.3339 0.59431 0.96207
0.40473 0.63339 0.96575
0.71399 0.7176 0.97359
0.90327 0.73594 0.97765
0.96164 0.6899 0.97516
0.95071 0.57481 0.96924
0.13726 0.64076 0.96679
0.19227 0.6517 0.96819
0.29866 0.68156 0.97006
0.42367 0.73164 0.97155
0.68535 0.79919 0.97922
0.89315 0.8507 0.98692
0.9703 0.83949 0.98704
0.97491 0.7856 0.98443
0.0 0.7036 0.97868
0.0 0.71022 0.97829
0.20748 0.72897 0.97657
0.38709 0.77214 0.97561
0.66594 0.86964 0.98509
0.87873 0.91267 0.99168
0.9642 0.92315 0.99466
0.98796 0.91425 0.99192
0.0 0.76783 0.98843
0.0 0.77247 0.98794
0.105 0.78527 0.98577
0.31716 0.81204 0.98219
0.61039 0.88722 0.98718
0.84826 0.94317 0.99311
0.94916 0.95904 0.9958
0.99195 0.96329 0.99268
0.0 0.8417 0.99045
0.0 0.84698 0.99122
0.19321 0.86149 0.9925
0.37825 0.88797 0.99368
0.58779 0.92781 0.99596
0.7837 0.96385 0.99666
0.91623 0.98314 0.99298
0.99055 0.99087 0.99094
