LUTs/classic_chrome tone curve.cube
#proPhotoRGB
LUT_1D_SIZE 32
0.0 0.0 0.0
0.00329 0.00329 0.00329
0.01826 0.01826 0.01826
0.03579 0.03579 0.03579
0.07796 0.07796 0.07796
0.13421 0.13421 0.13421
0.20416 0.20416 0.20416
0.27332 0.27332 0.27332
0.34234 0.34234 0.34234
0.41075 0.41075 0.41075
0.47469 0.47469 0.47469
0.53557 0.53557 0.53557
0.58845 0.58845 0.58845
0.63601 0.63601 0.63601
0.67631 0.67631 0.67631
0.71334 0.71334 0.71334
0.75003 0.75003 0.75003
0.78368 0.78368 0.78368
0.81479 0.81479 0.81479
0.8434 0.8434 0.8434
0.87064 0.87064 0.87064
0.89465 0.89465 0.89465
0.92047 0.92047 0.92047
0.93855 0.93855 0.93855
0.9531 0.9531 0.9531
0.9659 0.9659 0.9659
0.97614 0.97614 0.97614
0.98497 0.98497 0.98497
0.99199 0.99199 0.99199
0.99627 0.99627 0.99627
0.99799 0.99799 0.99799
1.0 1.0 1.0
