LUTs/classic_chrome.cube
#proPhotoRGB
LUT_3D_SIZE 32
0.0 0.0 0.0
0.00391 0.0 0.0
0.0183 0.0 0.0
0.03774 0.0 0.0
0.0792 0.01542 0.0
0.14201 0.03852 0.0
0.21659 0.06493 0.0
0.29096 0.08907 0.0
0.36258 0.11083 0.0
0.42697 0.12867 0.0
0.48277 0.1419 0.0
0.52896 0.15007 0.0
0.56621 0.1536 0.0
0.59643 0.15223 0.0
0.62122 0.14663 0.0
0.64231 0.13721 0.0
0.66111 0.12453 0.0
0.67674 0.10743 0.0
0.68738 0.08136 0.0
0.69256 0.03139 0.0
0.69304 0.0 0.0
0.68992 0.0 0.0
0.68461 0.0 0.0
0.67836 0.0 0.0
0.67183 0.0 0.0
0.66536 0.0 0.0
0.6594 0.0 0.0
0.65459 0.0 0.0
0.65176 0.0 0.0
0.6516 0.0 0.0
0.65432 0.0 0.0
0.65957 0.0 0.0
0.0 0.0 0.0
0.00323 0.00233 0.0
0.01931 0.00631 0.0
0.0372 0.01276 0.0
0.07866 0.02381 0.0
0.1421 0.04436 0.0
0.21793 0.07025 0.0
0.29291 0.09418 0.0
0.36498 0.11598 0.0
0.42937 0.1338 0.0
0.48509 0.14708 0.0
0.53118 0.15537 0.0
0.56833 0.15918 0.0
0.59847 0.15821 0.0
0.62317 0.15315 0.0
0.64421 0.14444 0.0
0.66303 0.13268 0.0
0.6787 0.11685 0.0
0.68931 0.09309 0.0
0.6944 0.05258 0.0
0.69478 0.0 0.0
0.69154 0.0 0.0
0.68612 0.0 0.0
0.67978 0.0 0.0
0.67317 0.0 0.0
0.66662 0.0 0.0
0.66056 0.0 0.0
0.65567 0.0 0.0
0.65276 0.0 0.0
0.65253 0.0 0.0
0.6552 0.0 0.0
0.66041 0.0 0.0
0.0 0.00804 0.0
0.00143 0.01064 0.0
0.01767 0.01406 0.00562
0.03062 0.01732 0.00866
0.07244 0.03036 0.01041
0.14001 0.05222 0.0
0.22014 0.07954 0.0
0.29702 0.10427 0.0
0.37046 0.12692 0.0
0.4349 0.14508 0.0
0.49049 0.1587 0.0
0.53636 0.16744 0.0
0.57337 0.17202 0.0
0.60337 0.17204 0.0
0.62789 0.16826 0.0
0.64883 0.16112 0.0
0.66775 0.15128 0.0
0.68352 0.13792 0.0
0.69406 0.11807 0.0
0.69895 0.08752 0.0
0.69907 0.02916 0.0
0.69556 0.0 0.0
0.68988 0.0 0.0
0.68332 0.0 0.0
0.6765 0.0 0.0
0.66975 0.0 0.0
0.66347 0.0 0.0
0.65836 0.0 0.0
0.65524 0.0 0.0
0.65484 0.0 0.0
0.65738 0.0 0.0
0.66249 0.0 0.0
0.0 0.02133 0.0
0.0 0.02165 0.0
0.01421 0.02338 0.01027
0.03336 0.02792 0.01597
0.05536 0.03294 0.01553
0.11354 0.04918 0.01406
0.20484 0.08092 0.01275
0.2931 0.11094 0.0
0.37343 0.13745 0.0
0.4402 0.15767 0.0
0.49666 0.17278 0.0
0.54282 0.18281 0.0
0.58005 0.1888 0.0
0.61012 0.19041 0.0
0.63453 0.18847 0.0
0.65547 0.18346 0.0
0.67464 0.17599 0.0
0.69063 0.16535 0.0
0.70109 0.14913 0.0
0.7057 0.12515 0.0
0.70548 0.08953 0.0
0.70157 0.01612 0.0
0.69552 0.0 0.0
0.68865 0.0 0.0
0.68154 0.0 0.0
0.67448 0.0 0.0
0.66788 0.0 0.0
0.66243 0.0 0.0
0.659 0.0 0.0
0.65834 0.0 0.0
0.6607 0.0 0.0
0.66565 0.0 0.0
0.0 0.04114 0.0
0.0 0.03975 0.0
0.0175 0.03821 0.01584
0.03202 0.0432 0.01892
0.07045 0.0568 0.02435
0.10404 0.06294 0.02398
0.1691 0.08019 0.02024
0.25151 0.10657 0.01484
0.35178 0.13971 0.0
0.43381 0.16585 0.0
0.49713 0.18486 0.0
0.54673 0.19801 0.0
0.58595 0.2064 0.0
0.6171 0.21038 0.0
0.64195 0.21086 0.0
0.66328 0.2085 0.0
0.68303 0.20372 0.0
0.69948 0.19581 0.0
0.70994 0.18275 0.0
0.71428 0.16335 0.0
0.71368 0.13628 0.0
0.70932 0.09787 0.0
0.70285 0.02383 0.0
0.69561 0.0 0.0
0.68816 0.0 0.0
0.68071 0.0 0.0
0.67369 0.0 0.0
0.6678 0.0 0.0
0.66396 0.0 0.0
0.66297 0.0 0.0
0.66507 0.0 0.0
0.66982 0.0 0.0
0.0 0.07275 0.0
0.0 0.07125 0.0
0.01279 0.06869 0.01579
0.03244 0.07038 0.02467
0.06781 0.08284 0.02731
0.12389 0.09882 0.0362
0.17405 0.10921 0.03507
0.23555 0.12329 0.03074
0.3075 0.14289 0.0217
0.39927 0.16958 0.0
0.47843 0.19341 0.0
0.5397 0.2111 0.0
0.58584 0.22284 0.0
0.62105 0.22978 0.0
0.64795 0.233 0.0
0.67073 0.2337 0.0
0.69177 0.23195 0.0
0.70916 0.22686 0.0
0.71991 0.2168 0.0
0.72417 0.20107 0.0
0.72331 0.17928 0.0
0.71855 0.15032 0.0
0.71168 0.11032 0.0
0.70408 0.04152 0.0
0.69626 0.0 0.0
0.68837 0.0 0.0
0.68085 0.0 0.0
0.67443 0.0 0.0
0.67009 0.0 0.0
0.66869 0.0 0.0
0.67048 0.0 0.0
0.67498 0.0 0.0
0.0 0.11362 0.0
0.0 0.11213 0.00768
0.0 0.10864 0.01848
0.04074 0.10891 0.03204
0.05966 0.11767 0.0375
0.11863 0.13419 0.04253
0.19748 0.15803 0.05062
0.25135 0.16479 0.05025
0.30851 0.17466 0.04175
0.3742 0.18897 0.0313
0.44425 0.20656 0.0
0.51365 0.22508 0.0
0.57206 0.24014 0.0
0.61674 0.24997 0.0
0.64913 0.25524 0.0
0.67529 0.25831 0.0
0.69882 0.25923 0.0
0.71806 0.25685 0.0
0.72982 0.24977 0.0
0.73456 0.23745 0.0
0.73381 0.21978 0.0
0.72891 0.19643 0.0
0.72178 0.16601 0.0
0.71391 0.12528 0.0
0.70574 0.06153 0.0
0.6974 0.0 0.0
0.68932 0.0 0.0
0.6823 0.0 0.0
0.67739 0.0 0.0
0.6755 0.0 0.0
0.67691 0.0 0.0
0.6811 0.0 0.0
0.0 0.16294 0.02136
0.0 0.16208 0.02275
0.0 0.16006 0.02686
0.04192 0.15819 0.03595
0.0631 0.16209 0.04487
0.10716 0.17869 0.05226
0.18743 0.20026 0.05973
0.26917 0.21919 0.06649
0.32656 0.22557 0.06427
0.37875 0.2315 0.05587
0.43463 0.23957 0.04264
0.48993 0.24978 0.00673
0.5475 0.26324 0.0
0.60076 0.27514 0.0
0.64195 0.28187 0.0
0.67385 0.28549 0.0
0.70139 0.2873 0.0
0.72384 0.28648 0.0
0.73801 0.28174 0.0
0.74433 0.27241 0.0
0.74447 0.25824 0.0
0.73993 0.23902 0.0
0.73286 0.2143 0.0
0.72492 0.18291 0.0
0.7165 0.14197 0.0
0.70773 0.08292 0.0
0.69908 0.0 0.0
0.69141 0.0 0.0
0.68584 0.0 0.0
0.6834 0.0 0.0
0.68438 0.0 0.0
0.68819 0.0 0.0
0.0 0.21532 0.03619
0.0 0.21504 0.03659
0.0 0.21445 0.03829
0.04066 0.21421 0.04371
0.07207 0.21666 0.05505
0.1011 0.22806 0.06084
0.16805 0.24484 0.0684
0.25855 0.26557 0.07655
0.33963 0.28311 0.08227
0.39472 0.28761 0.07852
0.44166 0.28891 0.07053
0.49113 0.29331 0.05311
0.53717 0.29899 0.01904
0.58509 0.30843 0.0
0.62804 0.31506 0.0
0.66508 0.3191 0.0
0.69716 0.32053 0.0
0.72415 0.31967 0.0
0.74271 0.31569 0.0
0.75231 0.30802 0.0
0.75458 0.29622 0.0
0.75118 0.27993 0.0
0.74466 0.25912 0.0
0.73691 0.23327 0.0
0.7284 0.20107 0.0
0.71928 0.16042 0.0
0.71008 0.10614 0.0
0.70174 0.0 0.0
0.69548 0.0 0.0
0.69242 0.0 0.0
0.69289 0.0 0.0
0.69625 0.0 0.0
0.0 0.26734 0.05004
0.0 0.26739 0.05005
0.0 0.26755 0.05063
0.03548 0.26804 0.05369
0.07483 0.26995 0.06241
0.10311 0.27776 0.07163
0.15383 0.29248 0.07774
0.23586 0.30926 0.08486
0.32697 0.32821 0.09181
0.40516 0.34471 0.0974
0.45713 0.34873 0.09186
0.49958 0.34723 0.08159
0.54253 0.34824 0.06245
0.58332 0.352 0.02882
0.6213 0.35498 0.0
0.6552 0.35845 0.0
0.68797 0.36002 0.0
0.71868 0.35949 0.0
0.74282 0.35552 0.0
0.75762 0.34809 0.0
0.76368 0.33709 0.0
0.76251 0.32217 0.0
0.75708 0.30357 0.0
0.74977 0.28107 0.0
0.74132 0.25386 0.0
0.73195 0.22094 0.0
0.72227 0.1811 0.0
0.71329 0.13238 0.0
0.70631 0.06931 0.0
0.70258 0.0 0.0
0.70247 0.0 0.0
0.70528 0.0 0.0
0.0 0.31862 0.06319
0.0 0.31895 0.06297
0.0 0.31982 0.0628
0.02156 0.32129 0.06408
0.07242 0.32379 0.06961
0.10549 0.32959 0.07973
0.14418 0.34098 0.08661
0.21645 0.35681 0.09296
0.30657 0.37335 0.09895
0.3943 0.39049 0.10589
0.46615 0.40359 0.11171
0.51533 0.40818 0.10525
0.55292 0.40511 0.09249
0.58833 0.40288 0.07405
0.62591 0.40354 0.04354
0.6551 0.40373 0.0
0.68299 0.40358 0.0
0.71243 0.40383 0.0
0.7396 0.40098 0.0
0.75992 0.39423 0.0
0.77137 0.3837 0.0
0.77391 0.36928 0.0
0.77029 0.3513 0.0
0.76362 0.3301 0.0
0.75526 0.3054 0.0
0.7457 0.27653 0.0
0.73563 0.24304 0.0
0.72606 0.20499 0.0
0.71837 0.16422 0.0
0.71392 0.1258 0.0
0.71313 0.09816 0.0
0.71529 0.08912 0.0
0.0 0.36807 0.07587
0.0 0.36861 0.07551
0.0 0.36998 0.07486
0.0 0.37214 0.07493
0.06475 0.3753 0.07794
0.10371 0.38015 0.08617
0.13891 0.38817 0.0953
0.1979 0.40102 0.10179
0.2825 0.41723 0.10813
0.37349 0.43435 0.11409
0.45737 0.44986 0.12085
0.52269 0.46189 0.12482
0.56712 0.46417 0.11891
0.59935 0.46082 0.10437
0.63163 0.45915 0.08744
0.6619 0.45569 0.05847
0.68769 0.45221 0.0
0.71328 0.45034 0.0
0.73837 0.44813 0.0
0.76064 0.44327 0.0
0.77705 0.43463 0.0
0.78469 0.42189 0.0
0.78423 0.40462 0.0
0.77861 0.38352 0.0
0.77036 0.35934 0.0
0.76059 0.33206 0.0
0.75015 0.30154 0.0
0.74007 0.26821 0.0
0.73169 0.23429 0.0
0.72646 0.20466 0.0
0.72488 0.18507 0.0
0.72626 0.17797 0.0
0.0 0.41493 0.08825
0.0 0.41561 0.08783
0.0 0.41731 0.08697
0.0 0.41992 0.08642
0.05365 0.42346 0.08807
0.10164 0.42813 0.09527
0.13663 0.43416 0.10714
0.17778 0.44344 0.1135
0.25446 0.45803 0.11921
0.34592 0.47454 0.12516
0.43773 0.49206 0.13089
0.51645 0.50696 0.13742
0.57491 0.51775 0.13967
0.61392 0.51849 0.13519
0.64084 0.51508 0.12011
0.66804 0.50989 0.10037
0.69446 0.50486 0.07153
0.72056 0.50087 0.0
0.74302 0.49624 0.0
0.76362 0.49185 0.0
0.7817 0.48536 0.0
0.7937 0.47602 0.0
0.79783 0.46165 0.0
0.79445 0.44166 0.0
0.78662 0.41753 0.0
0.77668 0.3904 0.0
0.7659 0.36076 0.0
0.75534 0.32931 0.0
0.74629 0.29818 0.0
0.7402 0.27166 0.0
0.73769 0.25408 0.0
0.73812 0.24658 0.0
0.0 0.45867 0.10039
0.0 0.45944 0.09998
0.0 0.46135 0.09906
0.0 0.46426 0.09816
0.02971 0.46812 0.09858
0.09285 0.47297 0.10314
0.13629 0.47889 0.11472
0.16861 0.48559 0.12525
0.22759 0.49642 0.12905
0.31718 0.51343 0.1353
0.40876 0.5294 0.14047
0.49919 0.54585 0.14661
0.56701 0.55923 0.15261
0.61834 0.56697 0.15279
0.65419 0.56874 0.14888
0.67748 0.5618 0.13364
0.70087 0.55581 0.11256
0.7259 0.55244 0.08271
0.74868 0.54715 0.02231
0.76977 0.54067 0.0
0.78768 0.53443 0.0
0.80154 0.52729 0.0
0.80974 0.51715 0.0
0.80988 0.50081 0.0
0.80344 0.47837 0.0
0.79375 0.45181 0.0
0.7828 0.4224 0.0
0.77184 0.39133 0.0
0.76212 0.36087 0.0
0.75508 0.33496 0.0
0.75146 0.31728 0.0
0.75077 0.30843 0.0
0.0 0.49887 0.11179
0.0 0.49967 0.1114
0.0 0.50165 0.1105
0.0 0.50461 0.10942
0.0 0.50844 0.109
0.07589 0.51308 0.11121
0.12759 0.51876 0.11947
0.16973 0.52689 0.13337
0.21023 0.53574 0.13891
0.28916 0.54978 0.14527
0.38178 0.56511 0.15093
0.47192 0.58032 0.15575
0.55309 0.59418 0.16139
0.61193 0.60586 0.1654
0.65801 0.61062 0.16484
0.68746 0.61047 0.15983
0.71105 0.60437 0.14436
0.7325 0.60003 0.123
0.75411 0.59701 0.09112
0.77493 0.59073 0.03324
0.79426 0.58333 0.0
0.80954 0.5757 0.0
0.82008 0.56763 0.0
0.82351 0.55572 0.0
0.81937 0.53726 0.0
0.81084 0.51334 0.0
0.80031 0.48537 0.0
0.78924 0.45481 0.0
0.77895 0.42416 0.0
0.7709 0.39741 0.0
0.76601 0.37821 0.0
0.76404 0.36716 0.0
0.0 0.53577 0.12201
0.0 0.53658 0.12165
0.0 0.53858 0.1208
0.0 0.54156 0.11967
0.0 0.54541 0.11879
0.04501 0.55004 0.1195
0.1116 0.55554 0.12449
0.1605 0.56268 0.13614
0.20234 0.57219 0.14635
0.26512 0.58408 0.15183
0.35355 0.59832 0.15781
0.44532 0.61247 0.16316
0.53168 0.62798 0.16794
0.60247 0.63996 0.1728
0.65424 0.64961 0.17592
0.69091 0.64855 0.17529
0.7198 0.6498 0.16791
0.74267 0.64606 0.15329
0.76173 0.64283 0.13137
0.78115 0.63852 0.09784
0.80038 0.63168 0.04289
0.81674 0.62295 0.0
0.82897 0.61415 0.0
0.83479 0.60433 0.0
0.83294 0.58997 0.0
0.82629 0.57045 0.0
0.81716 0.54616 0.0
0.80666 0.51775 0.0
0.79617 0.48757 0.0
0.78725 0.45964 0.0
0.78103 0.43807 0.0
0.77769 0.42416 0.0
0.0 0.5698 0.13087
0.0 0.57062 0.13055
0.0 0.57264 0.12977
0.0 0.57569 0.12866
0.0 0.57967 0.12759
0.0 0.58452 0.12749
0.0872 0.59031 0.13042
0.14515 0.5974 0.1391
0.19312 0.6064 0.15149
0.24776 0.61673 0.15844
0.32839 0.63068 0.16452
0.41906 0.64413 0.16967
0.50649 0.65778 0.17594
0.58198 0.6692 0.17913
0.64259 0.67784 0.18351
0.68779 0.68474 0.18308
0.72281 0.68666 0.1837
0.74988 0.68615 0.17376
0.77123 0.68482 0.16052
0.78948 0.68188 0.13882
0.80777 0.67629 0.10637
0.82366 0.66858 0.04927
0.83588 0.65902 0.0
0.84335 0.64876 0.0
0.84352 0.63621 0.0
0.83879 0.62049 0.0
0.83172 0.601 0.0
0.82271 0.57674 0.0
0.81277 0.54878 0.0
0.80341 0.52061 0.0
0.79605 0.49674 0.0
0.79137 0.47968 0.0
0.0 0.60119 0.13851
0.0 0.60201 0.13823
0.0 0.60405 0.13754
0.0 0.60714 0.13653
0.0 0.61121 0.13545
0.0 0.61625 0.13503
0.04574 0.62232 0.13692
0.12499 0.62962 0.14391
0.1801 0.63858 0.15694
0.22846 0.64827 0.16743
0.29805 0.65889 0.17162
0.38837 0.67179 0.17756
0.47966 0.68436 0.18302
0.5604 0.69687 0.18847
0.62738 0.70662 0.19041
0.68119 0.71451 0.19336
0.72143 0.71963 0.19201
0.7536 0.72067 0.1918
0.77821 0.71987 0.18212
0.79816 0.71937 0.1683
0.81594 0.71524 0.14603
0.83144 0.70966 0.11236
0.84217 0.70172 0.05438
0.84951 0.69135 0.0
0.85122 0.67882 0.0
0.84818 0.66466 0.0
0.8431 0.6487 0.0
0.83611 0.62902 0.0
0.8275 0.60485 0.0
0.81847 0.5782 0.0
0.81045 0.55311 0.0
0.80468 0.53331 0.0
0.0 0.63005 0.14514
0.0 0.63085 0.14491
0.0 0.63283 0.14433
0.0 0.63583 0.14347
0.0 0.63979 0.14252
0.0 0.64471 0.14199
0.0 0.65061 0.1431
0.09187 0.65761 0.14815
0.16076 0.66597 0.15945
0.21408 0.67528 0.1731
0.27133 0.68531 0.17889
0.35671 0.69725 0.18365
0.45021 0.71041 0.18982
0.5374 0.72413 0.19534
0.61009 0.73459 0.19892
0.66933 0.74244 0.20015
0.7178 0.74956 0.20234
0.75312 0.75199 0.19973
0.78227 0.7511 0.19876
0.80472 0.75076 0.18908
0.82315 0.74888 0.17472
0.83883 0.74476 0.15091
0.84911 0.73904 0.11656
0.85496 0.73077 0.06007
0.85701 0.7193 0.0
0.85517 0.70562 0.0
0.85161 0.69098 0.0
0.84646 0.67433 0.0
0.83956 0.65404 0.0
0.83156 0.63026 0.0
0.82359 0.60559 0.0
0.8172 0.58417 0.0
0.0 0.65683 0.15084
0.0 0.65759 0.15066
0.0 0.65947 0.15021
0.0 0.66231 0.14955
0.0 0.66605 0.14878
0.0 0.67066 0.1483
0.0 0.67614 0.14899
0.02261 0.68254 0.15262
0.13085 0.69003 0.16158
0.19592 0.69875 0.17558
0.24971 0.70861 0.18577
0.3251 0.72177 0.18996
0.42001 0.73617 0.19573
0.51114 0.74985 0.20087
0.59057 0.76098 0.2054
0.65513 0.76989 0.20736
0.70843 0.77673 0.20893
0.75117 0.78168 0.20945
0.78297 0.78198 0.20741
0.80926 0.78072 0.20531
0.82923 0.77963 0.1951
0.84492 0.77633 0.17925
0.85579 0.77127 0.15475
0.86147 0.76453 0.12031
0.86257 0.75541 0.06947
0.86097 0.74343 0.0
0.85825 0.72963 0.0
0.85437 0.71436 0.0
0.84899 0.69672 0.0
0.84235 0.67594 0.0
0.83504 0.65299 0.0
0.82858 0.63137 0.0
0.0 0.68217 0.15558
0.0 0.6829 0.15546
0.0 0.68471 0.15514
0.0 0.68745 0.15466
0.0 0.69106 0.15411
0.0 0.69549 0.15375
0.0 0.70077 0.15423
0.0 0.70694 0.15684
0.08372 0.71414 0.16358
0.16818 0.72252 0.1757
0.23048 0.73165 0.1888
0.29529 0.74491 0.19549
0.3865 0.75866 0.20003
0.48276 0.77345 0.20575
0.56745 0.78507 0.20962
0.63823 0.79442 0.21349
0.69521 0.80241 0.21439
0.74385 0.80853 0.21621
0.7809 0.81077 0.21591
0.81011 0.81018 0.21312
0.83396 0.80913 0.21046
0.85062 0.8063 0.19938
0.86203 0.80148 0.18324
0.8688 0.795 0.15908
0.86928 0.78627 0.1273
0.86697 0.77621 0.08235
0.86432 0.7644 0.0
0.86103 0.75054 0.0
0.85664 0.73458 0.0
0.85121 0.7161 0.0
0.84482 0.69526 0.0
0.83872 0.67455 0.0
0.0 0.70637 0.15931
0.0 0.70709 0.15923
0.0 0.70888 0.15903
0.0 0.71159 0.15873
0.0 0.71517 0.15839
0.0 0.7196 0.1582
0.0 0.72488 0.15865
0.0 0.7311 0.1607
0.0 0.73839 0.16601
0.12984 0.74692 0.17642
0.20761 0.7565 0.19083
0.26793 0.76543 0.20107
0.34985 0.77993 0.20606
0.44914 0.7928 0.21112
0.54171 0.80771 0.21649
0.61789 0.81641 0.21967
0.68005 0.82558 0.2226
0.73132 0.83239 0.22313
0.77501 0.83684 0.22406
0.80802 0.83762 0.22214
0.83523 0.83659 0.22007
0.85582 0.83486 0.21539
0.86804 0.82951 0.20456
0.87554 0.82336 0.1886
0.87589 0.8151 0.16501
0.8732 0.80513 0.13526
0.87057 0.79493 0.09404
0.86752 0.78332 0.0
0.86359 0.7691 0.0
0.85896 0.75244 0.0
0.8534 0.73348 0.0
0.84781 0.71408 0.0
0.0 0.72929 0.16199
0.0 0.73001 0.16196
0.0 0.7318 0.16187
0.0 0.73452 0.16172
0.0 0.73812 0.16158
0.0 0.74257 0.16158
0.0 0.74791 0.16209
0.0 0.75421 0.16385
0.0 0.7616 0.16815
0.06582 0.77029 0.17669
0.1733 0.78031 0.19012
0.24679 0.79008 0.20393
0.31725 0.80097 0.21031
0.41279 0.81192 0.21469
0.51101 0.82497 0.22056
0.59606 0.83819 0.22488
0.66277 0.84584 0.22807
0.7171 0.85512 0.23019
0.76441 0.86038 0.23024
0.80251 0.86263 0.23008
0.8323 0.86227 0.22765
0.8567 0.86064 0.22527
0.87265 0.85655 0.21958
0.88084 0.84889 0.20807
0.88154 0.84255 0.19313
0.87874 0.83324 0.17081
0.87645 0.8234 0.14279
0.87414 0.81355 0.10394
0.87059 0.80116 0.00989
0.8664 0.78624 0.0
0.86142 0.7689 0.0
0.85622 0.75072 0.0
0.0 0.75061 0.16371
0.0 0.75132 0.16371
0.0 0.7531 0.1637
0.0 0.75581 0.16369
0.0 0.75938 0.16371
0.0 0.76381 0.16388
0.0 0.76912 0.1645
0.0 0.77534 0.16612
0.0 0.78257 0.16974
0.0 0.79096 0.17681
0.12155 0.80062 0.18857
0.21537 0.81113 0.2035
0.28887 0.82091 0.21418
0.37556 0.83232 0.21881
0.47608 0.84218 0.22413
0.56873 0.85605 0.22982
0.6438 0.86617 0.23396
0.70135 0.87361 0.2366
0.75036 0.8806 0.23768
0.79328 0.88519 0.23811
0.82736 0.88716 0.23656
0.8536 0.88497 0.23274
0.87279 0.88131 0.22964
0.88552 0.87625 0.22276
0.88767 0.86943 0.2121
0.88477 0.86165 0.19681
0.88232 0.8524 0.17559
0.88103 0.84359 0.14905
0.8779 0.83199 0.11054
0.87405 0.81826 0.0188
0.86939 0.8023 0.0
0.86429 0.78508 0.0
0.0 0.77003 0.16465
0.0 0.77073 0.16467
0.0 0.77247 0.16472
0.0 0.77512 0.1648
0.0 0.77862 0.16495
0.0 0.78295 0.16526
0.0 0.78811 0.16598
0.0 0.79411 0.16756
0.0 0.80099 0.17078
0.0 0.80879 0.17684
0.0 0.81758 0.18701
0.16901 0.82744 0.20133
0.2582 0.83836 0.21568
0.339 0.85009 0.2228
0.43818 0.86181 0.22757
0.53666 0.87145 0.23412
0.61945 0.88267 0.23866
0.68344 0.89108 0.24307
0.73663 0.89876 0.24403
0.78224 0.90517 0.24472
0.82228 0.91235 0.24436
0.85287 0.91301 0.2413
0.87479 0.90933 0.23767
0.88717 0.90244 0.23185
0.89308 0.89693 0.22465
0.89127 0.88926 0.21431
0.88863 0.88124 0.19939
0.88833 0.87413 0.17983
0.88552 0.86292 0.15354
0.88203 0.8495 0.11231
0.87754 0.83423 0.0
0.87217 0.81755 0.0
0.0 0.78743 0.16522
0.0 0.78811 0.16525
0.0 0.7898 0.16532
0.0 0.79236 0.16545
0.0 0.79575 0.16566
0.0 0.79994 0.16604
0.0 0.80492 0.1668
0.0 0.81071 0.16831
0.0 0.81733 0.17121
0.0 0.82482 0.17648
0.0 0.83324 0.18525
0.09877 0.84277 0.19818
0.21597 0.85373 0.21348
0.30407 0.86532 0.22531
0.39648 0.87759 0.23023
0.50141 0.88678 0.23578
0.59252 0.89907 0.24264
0.66717 0.91021 0.24711
0.72423 0.92038 0.25044
0.77347 0.92639 0.2515
0.81513 0.93211 0.25267
0.85032 0.93752 0.25059
0.87651 0.93677 0.2459
0.89115 0.93037 0.24048
0.89555 0.92261 0.23395
0.89499 0.9143 0.22505
0.89296 0.90654 0.21552
0.89297 0.90084 0.20232
0.89108 0.89161 0.18183
0.8889 0.87954 0.15301
0.88489 0.86465 0.10141
0.87932 0.84814 0.0
0.0 0.80283 0.16607
0.0 0.80347 0.1661
0.0 0.80508 0.16617
0.0 0.80753 0.16629
0.0 0.81076 0.16648
0.0 0.81477 0.16684
0.0 0.81955 0.16754
0.0 0.82513 0.16888
0.0 0.83154 0.17142
0.0 0.83886 0.17596
0.0 0.8472 0.18357
0.0 0.85671 0.19514
0.15847 0.86753 0.21024
0.26442 0.87915 0.22524
0.35497 0.88918 0.23356
0.46185 0.90146 0.2386
0.56343 0.9157 0.24508
0.64568 0.9281 0.25047
0.70931 0.93678 0.25518
0.76042 0.94376 0.25708
0.80606 0.94997 0.25896
0.84637 0.95652 0.25947
0.87675 0.95985 0.25546
0.89364 0.95576 0.24962
0.8975 0.94687 0.24295
0.89695 0.93786 0.23435
0.89578 0.92923 0.22462
0.89533 0.92351 0.21553
0.89375 0.9163 0.20125
0.89275 0.90649 0.17861
0.8898 0.89279 0.14165
0.88478 0.87658 0.08369
0.0 0.81634 0.16817
0.0 0.81694 0.16819
0.0 0.81844 0.16824
0.0 0.82072 0.16832
0.0 0.82374 0.16846
0.0 0.82748 0.16872
0.0 0.83194 0.16923
0.0 0.83715 0.17026
0.0 0.84317 0.17224
0.0 0.85009 0.17583
0.0 0.85803 0.18196
0.0 0.86719 0.19162
0.06457 0.87785 0.20517
0.21216 0.89019 0.22097
0.31564 0.90286 0.23417
0.41776 0.91253 0.23996
0.52728 0.92598 0.24554
0.61751 0.93697 0.25192
0.68852 0.94585 0.25643
0.74501 0.95399 0.25956
0.79194 0.96057 0.26062
0.83534 0.9671 0.26246
0.87158 0.97248 0.26098
0.89212 0.97228 0.25508
0.89847 0.9667 0.24857
0.8985 0.95988 0.24181
0.89755 0.9507 0.23235
0.89674 0.9432 0.22195
0.89546 0.93752 0.21146
0.8947 0.92999 0.19596
0.89232 0.91791 0.167
0.88841 0.90241 0.13228
0.0 0.8283 0.17267
0.0 0.82885 0.17269
0.0 0.83021 0.17273
0.0 0.83229 0.1728
