LUTs/classic_chrome.cube
#proPhotoRGB
LUT_3D_SIZE 8
DOMAIN_MIN 0.000000 0.000000 0.000000
DOMAIN_MAX 0.903226 0.903226 0.903226
0.0 0.0 0.0
0.0792 0.01542 0.0
0.36258 0.11083 0.0
0.56621 0.1536 0.0
0.66111 0.12453 0.0
0.69304 0.0 0.0
0.67183 0.0 0.0
0.65176 0.0 0.0
0.0 0.04114 0.0
0.07045 0.0568 0.02435
0.35178 0.13971 0.0
0.58595 0.2064 0.0
0.68303 0.20372 0.0
0.71368 0.13628 0.0
0.68816 0.0 0.0
0.66396 0.0 0.0
0.0 0.21532 0.03619
0.07207 0.21666 0.05505
0.33963 0.28311 0.08227
0.53717 0.29899 0.01904
0.69716 0.32053 0.0
0.75458 0.29622 0.0
0.7284 0.20107 0.0
0.69548 0.0 0.0
0.0 0.41493 0.08825
0.05365 0.42346 0.08807
0.25446 0.45803 0.11921
0.57491 0.51775 0.13967
0.69446 0.50486 0.07153
0.7817 0.48536 0.0
0.78662 0.41753 0.0
0.74629 0.29818 0.0
0.0 0.5698 0.13087
0.0 0.57967 0.12759
0.19312 0.6064 0.15149
0.50649 0.65778 0.17594
0.72281 0.68666 0.1837
0.80777 0.67629 0.10637
0.84352 0.63621 0.0
0.81277 0.54878 0.0
0.0 0.68217 0.15558
0.0 0.69106 0.15411
0.08372 0.71414 0.16358
0.3865 0.75866 0.20003
0.69521 0.80241 0.21439
0.83396 0.80913 0.21046
0.86928 0.78627 0.1273
0.85664 0.73458 0.0
0.0 0.77003 0.16465
0.0 0.77862 0.16495
0.0 0.80099 0.17078
0.2582 0.83836 0.21568
0.61945 0.88267 0.23866
0.82228 0.91235 0.24436
0.89308 0.89693 0.22465
0.88552 0.86292 0.15354
0.0 0.8283 0.17267
0.0 0.83502 0.17289
0.0 0.8524 0.17537
0.0 0.88159 0.19968
0.47737 0.92213 0.24365
0.776 0.96003 0.25958
0.89487 0.97514 0.2468
0.89631 0.95488 0.21507
0.0 0.0 0.02392
0.08272 0.03375 0.0506
0.36017 0.12801 0.07912
0.58049 0.18438 0.07246
0.67552 0.15432 0.0
0.70605 0.0 0.0
0.67955 0.0 0.0
0.65543 0.0 0.0
0.02273 0.06709 0.07536
0.0779 0.07782 0.07784
0.40252 0.18904 0.15611
0.6127 0.24573 0.16136
0.70362 0.2391 0.0804
0.72951 0.16879 0.0
0.69687 0.0 0.0
0.66785 0.0 0.0
0.03533 0.24796 0.12529
0.10469 0.25796 0.1181
0.33314 0.30809 0.14887
0.57374 0.35465 0.18217
0.73431 0.35999 0.13485
0.77736 0.32274 0.0
0.73986 0.2216 0.0
0.70001 0.0 0.0
0.0 0.43523 0.1598
0.11 0.44598 0.14408
0.29536 0.48202 0.161
0.57326 0.53692 0.19687
0.70475 0.53213 0.18747
0.80214 0.51538 0.11224
0.7994 0.43052 0.0
0.75191 0.29877 0.0
0.0 0.58247 0.18939
0.0 0.59313 0.18025
0.22993 0.61783 0.1625
0.528 0.67133 0.20446
0.72457 0.69902 0.22814
0.81432 0.69201 0.19626
0.8559 0.65503 0.05015
0.82138 0.56023 0.0
0.0 0.68979 0.20332
0.0 0.69873 0.19855
0.14069 0.72172 0.1844
0.43251 0.76729 0.20189
0.70235 0.8107 0.23117
0.83376 0.81631 0.24779
0.87554 0.79759 0.19872
0.8632 0.7468 0.0
0.0 0.77522 0.20388
0.0 0.78385 0.20199
0.0 0.80609 0.1964
0.309 0.84361 0.22109
0.64191 0.88619 0.23516
0.82753 0.91747 0.25894
0.89864 0.90403 0.26231
0.8901 0.87175 0.20261
0.0 0.8314 0.20525
0.0 0.83809 0.20419
0.0 0.85532 0.20112
0.0 0.88447 0.21123
0.5301 0.92836 0.24423
0.78578 0.96231 0.26473
0.9003 0.97905 0.26958
0.90105 0.96066 0.25578
0.0 0.0 0.16644
0.07921 0.02459 0.19844
0.38327 0.13891 0.2792
0.58628 0.1977 0.27205
0.68977 0.18286 0.24914
0.73086 0.08738 0.1546
0.69957 0.0 0.0
0.66605 0.0 0.0
0.07072 0.10045 0.23674
0.12409 0.12871 0.27042
0.38621 0.20024 0.32672
0.60743 0.25677 0.33529
0.71898 0.26392 0.31992
0.75979 0.20421 0.22868
0.72012 0.0 0.0
0.6793 0.0 0.0
0.12006 0.30001 0.32922
0.16809 0.31703 0.33987
0.34355 0.34174 0.34132
0.62834 0.4352 0.42474
0.78398 0.46765 0.46418
0.84006 0.40986 0.39592
0.77733 0.29189 0.16741
0.71404 0.0 0.0
0.11338 0.47879 0.34895
0.18028 0.49436 0.36378
0.33992 0.52175 0.38513
0.5781 0.56265 0.39564
0.75373 0.60631 0.44328
0.86661 0.61305 0.44099
0.83867 0.47841 0.23418
0.76963 0.30959 0.0
0.0 0.61132 0.34612
0.13502 0.62394 0.35388
0.29689 0.65334 0.38264
0.55657 0.68908 0.39481
0.72982 0.71809 0.41988
0.83697 0.72696 0.4213
0.88315 0.70965 0.36314
0.84439 0.59201 0.0
0.0 0.70868 0.32971
0.0 0.71816 0.33171
0.21553 0.74204 0.33137
0.48764 0.77962 0.36375
0.71935 0.81986 0.39723
0.8345 0.83044 0.40762
0.89516 0.82475 0.38103
0.87951 0.77868 0.251
0.0 0.78764 0.30363
0.0 0.79639 0.30266
0.0 0.81856 0.29147
0.34525 0.85271 0.27031
0.67935 0.89194 0.34649
0.83513 0.92066 0.39832
0.91031 0.91915 0.40486
0.89778 0.89377 0.28527
0.0 0.83834 0.28413
0.0 0.84479 0.28226
0.0 0.86106 0.27265
0.01012 0.88712 0.24742
0.57578 0.9337 0.29563
0.80051 0.9644 0.30629
0.90998 0.98301 0.38695
0.9129 0.97177 0.38264
0.04036 0.0 0.3286
0.11483 0.02719 0.34913
0.33099 0.11536 0.47896
0.61627 0.20909 0.51616
0.7131 0.20731 0.46242
0.75995 0.14986 0.41582
0.73106 0.0 0.27155
0.68779 0.0 0.0
0.10844 0.13664 0.39574
0.16238 0.15445 0.43104
0.36507 0.21858 0.53275
0.63307 0.27997 0.55206
0.73695 0.28777 0.50732
0.79094 0.25675 0.46829
0.75681 0.08485 0.32676
0.70363 0.0 0.0
0.17003 0.32591 0.50161
0.21882 0.34871 0.52546
0.38389 0.417 0.56359
0.62543 0.45312 0.58908
0.77944 0.47929 0.6058
0.86782 0.46515 0.6003
0.83406 0.35708 0.47864
0.74789 0.06693 0.15862
0.18388 0.51501 0.53591
0.23907 0.5331 0.55511
0.36628 0.56377 0.58587
0.58886 0.58794 0.58591
0.77773 0.64387 0.64055
0.89758 0.68168 0.67952
0.90622 0.62543 0.63056
0.83444 0.40379 0.36274
0.12684 0.64158 0.53023
0.20227 0.65421 0.54996
0.34142 0.68104 0.5991
0.56821 0.7076 0.61169
0.74625 0.73615 0.6183
0.8783 0.77281 0.66646
0.92421 0.77525 0.65761
0.88952 0.66131 0.47611
0.0 0.73408 0.50496
0.04408 0.74425 0.52195
0.27318 0.76732 0.56878
0.52089 0.79895 0.61892
0.73991 0.82913 0.62138
0.85552 0.84658 0.6488
0.92707 0.85617 0.65984
0.91783 0.83029 0.5714
0.0 0.80461 0.4575
0.0 0.81361 0.46771
0.0 0.83603 0.49662
0.38493 0.86708 0.55779
0.71079 0.90161 0.63037
0.86481 0.92798 0.65499
0.93353 0.93445 0.65269
0.93103 0.92065 0.59979
0.0 0.84725 0.40635
0.0 0.85322 0.40928
0.0 0.86759 0.41405
0.0 0.88809 0.42076
0.56815 0.93138 0.52094
0.83776 0.96989 0.61662
0.93696 0.98608 0.67517
0.93887 0.98329 0.61223
0.06222 0.04779 0.45469
0.13126 0.05322 0.47219
0.23046 0.0721 0.54536
0.59606 0.20746 0.68473
0.74479 0.22511 0.6704
0.79072 0.16703 0.60495
0.76183 0.0 0.50912
0.72047 0.0 0.35344
0.12909 0.17347 0.51827
0.18488 0.18138 0.5509
0.29004 0.20189 0.63867
0.61918 0.29286 0.71349
0.76621 0.31135 0.69806
0.81872 0.27461 0.63932
0.78777 0.14736 0.54871
0.73984 0.0 0.38989
0.19053 0.35066 0.6025
0.23765 0.36978 0.62521
0.36616 0.44978 0.68494
0.63243 0.50453 0.74308
0.79415 0.5111 0.74065
0.87934 0.48327 0.72093
0.86288 0.39918 0.65478
0.79605 0.21143 0.49032
0.21024 0.52943 0.65381
0.26158 0.54752 0.67486
0.38721 0.59139 0.71138
0.60902 0.64092 0.74253
0.77942 0.66244 0.75587
0.89771 0.6911 0.77443
0.92957 0.6678 0.7618
0.89558 0.53839 0.66513
0.17883 0.66168 0.65514
0.24167 0.67474 0.67274
0.36631 0.70204 0.71637
0.56927 0.73006 0.74968
0.7507 0.74934 0.74756
0.8909 0.79312 0.78867
0.95099 0.81814 0.80898
0.93919 0.77108 0.76967
0.0 0.75593 0.64425
0.14587 0.76674 0.66263
0.31423 0.78994 0.70813
0.52923 0.81497 0.76465
0.7407 0.83895 0.76272
0.8685 0.86197 0.77298
0.94766 0.88513 0.81321
0.95142 0.87803 0.79773
0.0 0.82087 0.61007
0.0 0.82987 0.62706
0.13046 0.85123 0.67175
0.40397 0.87907 0.73561
0.70204 0.91064 0.77333
0.87814 0.93452 0.79999
0.94969 0.94528 0.81691
0.96126 0.94216 0.81179
0.0 0.85727 0.5507
0.0 0.86293 0.5613
0.0 0.8761 0.58919
0.11081 0.8939 0.63767
0.52064 0.92788 0.7175
0.83668 0.97052 0.79857
0.9421 0.99011 0.81351
0.96406 0.9921 0.79904
0.04697 0.09255 0.54135
0.12753 0.08953 0.56103
0.21067 0.07763 0.58334
0.51945 0.18521 0.77832
0.75252 0.24358 0.81431
0.82184 0.19423 0.77175
0.79058 0.0 0.67534
0.75241 0.0 0.56355
0.12097 0.20201 0.59415
0.18019 0.20577 0.62184
0.25604 0.18988 0.68807
0.55414 0.27328 0.8102
0.7779 0.33471 0.83821
0.84923 0.3039 0.7962
0.8157 0.16806 0.70294
0.77231 0.0 0.59087
0.1938 0.37589 0.67488
0.24379 0.39385 0.70045
0.32719 0.45144 0.75443
0.59131 0.52093 0.83961
0.80615 0.54839 0.86636
0.89954 0.52538 0.84064
0.88576 0.42443 0.7775
0.82819 0.24996 0.6656
0.21271 0.53578 0.72389
0.26251 0.55252 0.744
0.36893 0.5996 0.78656
0.59694 0.67499 0.8442
0.79506 0.71308 0.87333
0.90845 0.71835 0.86577
0.94224 0.6852 0.84256
0.92207 0.57534 0.78705
0.18384 0.66576 0.73985
0.24257 0.67965 0.75792
0.3636 0.71466 0.80137
0.58204 0.75672 0.85153
0.77274 0.78984 0.86762
0.89308 0.80869 0.87531
0.95945 0.8308 0.88046
0.95757 0.80519 0.86347
0.07491 0.7621 0.73281
0.17384 0.77264 0.74964
0.32718 0.79681 0.79061
0.51916 0.82842 0.85013
0.73806 0.85492 0.86967
0.87133 0.87006 0.86903
0.95902 0.89635 0.89133
0.97057 0.90615 0.89869
0.0 0.82981 0.71201
0.0 0.83889 0.7288
0.19539 0.8607 0.77105
0.41818 0.88955 0.83207
0.69823 0.92202 0.88466
0.86846 0.93894 0.88169
0.95177 0.95344 0.88456
0.97557 0.95372 0.89996
0.0 0.8668 0.66821
0.0 0.87265 0.68178
0.0 0.88641 0.71674
0.23295 0.90543 0.77186
0.53329 0.93497 0.83537
0.81185 0.97086 0.87219
0.93549 0.99329 0.88665
0.97501 0.9958 0.88578
0.0 0.10558 0.59288
0.08995 0.10391 0.61296
0.21012 0.08403 0.65617
0.37035 0.12926 0.79163
0.72711 0.24422 0.9073
0.84158 0.22589 0.89803
0.82146 0.0 0.82233
0.78203 0.0 0.71791
0.06768 0.20683 0.63784
0.14759 0.21005 0.6631
0.25663 0.20336 0.73261
0.42291 0.23427 0.85355
0.75488 0.32932 0.93135
0.87246 0.33042 0.92118
0.84763 0.21394 0.84421
0.80049 0.0 0.73709
0.1612 0.37406 0.71647
0.21878 0.38822 0.7442
0.31598 0.43093 0.81003
0.49105 0.50565 0.89039
0.78868 0.55924 0.95331
0.92349 0.56615 0.95524
0.91847 0.48159 0.90065
0.85149 0.28569 0.78947
0.18624 0.53342 0.76438
0.23933 0.5501 0.7852
0.33645 0.59531 0.83064
0.52038 0.67211 0.90219
0.79477 0.74389 0.95647
0.92583 0.76029 0.96297
0.9595 0.72799 0.93723
0.93706 0.61016 0.88004
0.15188 0.65878 0.78357
0.21615 0.67218 0.80252
0.34002 0.70592 0.84975
0.51976 0.76365 0.91507
0.77723 0.82448 0.95681
0.9098 0.85175 0.968
0.96743 0.85066 0.95137
0.96511 0.82144 0.92282
0.0 0.75649 0.77647
0.12263 0.76734 0.79262
0.28251 0.79374 0.83333
0.47705 0.83135 0.89782
0.74269 0.87393 0.94908
0.88959 0.89833 0.9574
0.96912 0.90795 0.95795
0.98305 0.91266 0.95388
0.0 0.82693 0.75927
0.0 0.83571 0.77346
0.19317 0.85678 0.80982
0.406 0.88273 0.86986
0.65462 0.91531 0.93847
0.84848 0.9394 0.95251
0.95364 0.95266 0.9517
0.98738 0.95706 0.95593
0.0 0.8712 0.73684
0.0 0.87741 0.74929
0.0 0.89227 0.78081
0.30952 0.91337 0.82986
0.55821 0.94177 0.89199
0.7884 0.97122 0.93183
0.92506 0.99118 0.94268
0.98268 0.99697 0.94461
0.0 0.06714 0.58829
0.0 0.06311 0.60387
0.13632 0.05064 0.64189
0.25339 0.10067 0.69307
0.64667 0.22163 0.90115
0.83288 0.22253 0.94026
0.83445 0.06453 0.92713
0.81627 0.0 0.85346
0.0 0.17519 0.62452
0.0 0.17614 0.64354
0.18108 0.17576 0.69502
0.29234 0.19202 0.78653
0.6839 0.30619 0.92919
0.86253 0.32117 0.95286
0.85897 0.23867 0.9429
0.83415 0.0 0.86926
0.0 0.33613 0.69553
0.09448 0.34439 0.71867
0.24163 0.36939 0.78144
0.35214 0.44229 0.86129
0.74328 0.57676 0.96321
0.91515 0.57326 0.96846
0.92329 0.50504 0.9687
0.88336 0.35413 0.9079
0.0 0.50044 0.74942
0.12884 0.51452 0.76925
0.26112 0.55535 0.81673
0.3775 0.62307 0.87537
0.74086 0.74787 0.96905
0.92124 0.78101 0.98114
0.96714 0.7594 0.98435
0.95305 0.66155 0.96426
0.0 0.63503 0.76998
0.08407 0.64836 0.7852
0.24304 0.68363 0.82264
0.40248 0.73774 0.88283
0.69529 0.81362 0.96207
0.905 0.86911 0.9842
0.97237 0.86843 0.98839
0.97807 0.83955 0.98166
0.0 0.7354 0.77172
0.0 0.74573 0.78375
0.17471 0.77142 0.81393
0.3674 0.80937 0.86608
0.65483 0.86513 0.95469
0.87626 0.9107 0.98191
0.9636 0.92684 0.99164
0.98786 0.92405 0.99212
0.0 0.81094 0.77109
0.0 0.81903 0.78166
0.10615 0.83875 0.80813
0.31347 0.8665 0.85116
0.58288 0.90346 0.92556
0.83348 0.93962 0.9739
0.94399 0.95533 0.98953
0.99502 0.96221 0.99662
0.0 0.86598 0.77184
0.0 0.87232 0.78232
0.16295 0.88778 0.80873
0.3534 0.9103 0.85014
0.55898 0.93789 0.90442
0.76184 0.96479 0.95166
0.90733 0.98311 0.97831
0.99192 0.99199 0.99146
