LUTs/classic_chrome.cube
#proPhotoRGB
LUT_3D_SIZE 5
DOMAIN_MIN 0.000000 0.000000 0.000000
DOMAIN_MAX 0.903226 0.903226 0.903226
0.0 0.0 0.0
0.29096 0.08907 0.0
0.62122 0.14663 0.0
0.68992 0.0 0.0
0.65176 0.0 0.0
0.0 0.16294 0.02136
0.26917 0.21919 0.06649
0.64195 0.28187 0.0
0.73993 0.23902 0.0
0.68584 0.0 0.0
0.0 0.49887 0.11179
0.16973 0.52689 0.13337
0.65801 0.61062 0.16484
0.80954 0.5757 0.0
0.77895 0.42416 0.0
0.0 0.70637 0.15931
0.0 0.7311 0.1607
0.54171 0.80771 0.21649
0.85582 0.83486 0.21539
0.86359 0.7691 0.0
0.0 0.8283 0.17267
0.0 0.84706 0.17406
0.26137 0.90077 0.22864
0.81958 0.9665 0.25939
0.89631 0.95488 0.21507
0.0 0.0 0.1229
0.30393 0.11066 0.21225
0.64243 0.1943 0.21217
0.71929 0.0 0.0
0.66259 0.0 0.0
0.09607 0.23926 0.26583
0.27437 0.27294 0.27198
0.71377 0.40468 0.39459
0.79292 0.32249 0.24248
0.69893 0.0 0.0
0.04819 0.54189 0.29835
0.25352 0.57681 0.31788
0.65988 0.64348 0.35471
0.85678 0.65229 0.34728
0.79842 0.43211 0.0
0.0 0.72519 0.28716
0.05906 0.74955 0.27394
0.6012 0.81896 0.31287
0.85571 0.85135 0.34965
0.87813 0.80041 0.21339
0.0 0.83637 0.26037
0.0 0.85447 0.25257
0.33686 0.9067 0.2372
0.83409 0.97034 0.29566
0.90872 0.96894 0.33726
0.05442 0.0 0.39741
0.18762 0.07423 0.46726
0.68688 0.22457 0.59989
0.77328 0.12758 0.49434
0.70353 0.0 0.19535
0.17086 0.2882 0.53475
0.31209 0.3732 0.60761
0.72082 0.43864 0.66682
0.85988 0.39581 0.62176
0.7565 0.0 0.32048
0.18917 0.59766 0.60436
0.33178 0.63759 0.65511
0.67676 0.67588 0.6743
0.91984 0.75563 0.75148
0.90245 0.61954 0.61466
0.0 0.76562 0.57397
0.21423 0.79246 0.62598
0.63886 0.83951 0.70379
0.88878 0.87874 0.73403
0.94037 0.87701 0.7121
0.0 0.85216 0.47882
0.0 0.86755 0.49816
0.29417 0.90274 0.56884
0.88281 0.97629 0.75036
0.95309 0.98836 0.71856
0.03081 0.09885 0.55761
0.19507 0.0757 0.60309
0.65293 0.22605 0.83036
0.82719 0.17135 0.78718
0.76 0.0 0.60499
0.17581 0.33469 0.67221
0.29417 0.38228 0.75044
0.70614 0.48088 0.87758
0.90055 0.4578 0.84839
0.81889 0.16099 0.6787
0.20262 0.60463 0.75061
0.33582 0.64666 0.80058
0.7019 0.74986 0.88568
0.92853 0.78539 0.89689
0.94729 0.71569 0.84782
0.0 0.78201 0.74534
0.26206 0.80921 0.79128
0.62054 0.86253 0.88937
0.89538 0.89417 0.89293
0.9756 0.92192 0.91688
0.0 0.8686 0.68985
0.0 0.88451 0.72752
0.39131 0.92093 0.82534
0.84842 0.97823 0.89465
0.97715 0.99676 0.90204
0.0 0.06714 0.58829
0.08742 0.05424 0.63081
0.42922 0.15018 0.82904
0.84267 0.20711 0.94168
0.81627 0.0 0.85346
0.0 0.29418 0.6775
0.19347 0.31214 0.7434
0.55118 0.47237 0.92962
0.92059 0.48846 0.96492
0.86751 0.2738 0.89588
0.0 0.57246 0.76305
0.22117 0.61378 0.80956
0.5206 0.72726 0.926
0.94004 0.83254 0.985
0.96949 0.77088 0.97536
0.0 0.75636 0.77122
0.09289 0.7827 0.80268
0.4569 0.84643 0.90354
0.9001 0.92546 0.98488
0.99056 0.93833 0.9932
0.0 0.86598 0.77184
0.10809 0.88319 0.80074
0.45295 0.92366 0.87638
0.80426 0.97031 0.96013
0.99192 0.99199 0.99146
