LUTs/provia.cube
#proPhotoRGB
LUT_3D_SIZE 8
DOMAIN_MIN 0.000000 0.000000 0.000000
DOMAIN_MAX 0.903226 0.903226 0.903226
0.0 0.0 0.0
0.11331 0.03825 0.0
0.42714 0.156 0.0
0.68657 0.25115 0.0
0.80544 0.29104 0.0
0.82647 0.29641 0.0
0.81995 0.26873 0.0
0.82124 0.21352 0.0
0.0 0.06746 0.01524
0.07669 0.06472 0.02021
0.39245 0.15199 0.0
0.68545 0.25894 0.0
0.8081 0.3042 0.0
0.82676 0.31053 0.0
0.81971 0.28544 0.0
0.82047 0.23266 0.0
0.05234 0.30063 0.08352
0.09493 0.29251 0.07444
0.34839 0.30789 0.08768
0.58116 0.30446 0.06502
0.78382 0.33176 0.0
0.82769 0.33254 0.0
0.82073 0.31918 0.0
0.8199 0.27774 0.0
0.09966 0.51236 0.15093
0.14056 0.51181 0.12907
0.22028 0.50849 0.13334
0.57261 0.528 0.14677
0.73937 0.5005 0.12739
0.84299 0.46549 0.0
0.83397 0.40235 0.0
0.82579 0.35169 0.0
0.12728 0.68212 0.20991
0.16607 0.68624 0.18661
0.21967 0.68882 0.17603
0.45722 0.69209 0.18476
0.73842 0.69568 0.19447
0.85459 0.66271 0.17389
0.86516 0.59958 0.0772
0.84852 0.51614 0.0
0.1318 0.80489 0.25967
0.17177 0.81098 0.2395
0.24151 0.8235 0.2096
0.29836 0.82034 0.21379
0.66478 0.81257 0.2219
0.85462 0.79971 0.2255
0.88567 0.75385 0.19935
0.87352 0.68835 0.12218
0.08689 0.87505 0.29676
0.13723 0.88058 0.27918
0.2208 0.89288 0.24187
0.29168 0.90272 0.23332
0.50725 0.90513 0.24018
0.81918 0.90538 0.25157
0.9016 0.8724 0.24427
0.89298 0.82519 0.21609
0.0 0.89669 0.33479
0.0 0.89838 0.31888
0.14183 0.90116 0.27932
0.24604 0.90254 0.23716
0.30663 0.90489 0.23537
0.71523 0.94287 0.25567
0.90424 0.95003 0.25702
0.90699 0.93067 0.24557
0.0 0.0 0.06415
0.11903 0.04583 0.07121
0.42201 0.16096 0.07846
0.69562 0.26221 0.05096
0.81643 0.29745 0.0
0.83439 0.30255 0.0
0.82453 0.27319 0.0
0.82366 0.2127 0.0
0.03778 0.09305 0.11252
0.08755 0.08722 0.08724
0.43594 0.18155 0.14573
0.69731 0.27017 0.13886
0.81985 0.31421 0.0
0.8344 0.31809 0.0
0.82413 0.29073 0.0
0.82267 0.23223 0.0
0.09018 0.32273 0.15368
0.11052 0.31369 0.10744
0.33855 0.32593 0.11275
0.59842 0.34145 0.13969
0.80643 0.34101 0.08157
0.83432 0.33191 0.0
0.82458 0.32325 0.0
0.82151 0.27764 0.0
0.12632 0.52219 0.20014
0.15906 0.52097 0.1563
0.26486 0.51483 0.1371
0.56579 0.53945 0.16614
0.73506 0.51667 0.15908
0.85134 0.481 0.11064
0.83678 0.39904 0.0
0.82665 0.34634 0.0
0.14839 0.68773 0.24936
0.18361 0.69128 0.21728
0.22738 0.68959 0.17702
0.48464 0.70047 0.18864
0.73358 0.70718 0.20707
0.85199 0.67864 0.19693
0.86829 0.61641 0.14266
0.85105 0.52338 0.0
0.14909 0.8081 0.29179
0.18676 0.81365 0.26762
0.25276 0.82465 0.21775
0.34445 0.81844 0.21095
0.67718 0.81826 0.22376
0.85237 0.81476 0.23322
0.88817 0.77129 0.21729
0.87655 0.7036 0.16056
0.10331 0.87786 0.32301
0.15038 0.88327 0.30355
0.23184 0.89496 0.25678
0.29694 0.90143 0.23387
0.54743 0.90773 0.2385
0.82768 0.91162 0.25256
0.90579 0.8891 0.25107
0.8958 0.84033 0.23136
0.0 0.89829 0.35616
0.0 0.8999 0.33944
0.1469 0.90234 0.29594
0.25267 0.9031 0.24299
0.35005 0.90933 0.23603
0.73724 0.94645 0.25923
0.91123 0.95593 0.26529
0.90996 0.94137 0.2599
0.07327 0.02883 0.30329
0.1407 0.05051 0.34605
0.46357 0.1782 0.40111
0.69005 0.26255 0.35062
0.82665 0.29768 0.30846
0.85508 0.30026 0.21674
0.83852 0.27675 0.0
0.83154 0.21145 0.0
0.11533 0.13001 0.36119
0.16718 0.14509 0.38277
0.42722 0.19177 0.40177
0.67084 0.26588 0.40552
0.82257 0.30287 0.36349
0.85552 0.30515 0.25117
0.83859 0.29403 0.0
0.83024 0.23209 0.0
0.16521 0.35359 0.41946
0.19001 0.35444 0.40269
0.34994 0.34715 0.34783
0.63117 0.40228 0.40029
0.80725 0.39692 0.43209
0.86554 0.3418 0.38842
0.84233 0.3383 0.15353
0.82816 0.28306 0.0
0.18186 0.5461 0.40326
0.21128 0.54646 0.39045
0.31387 0.53321 0.3515
0.55243 0.54957 0.33011
0.75362 0.57201 0.36303
0.87237 0.5441 0.35483
0.85113 0.4064 0.16597
0.83129 0.33737 0.0
0.19098 0.69852 0.39769
0.22207 0.70039 0.37634
0.26645 0.68893 0.33775
0.50824 0.69848 0.31009
0.7157 0.71481 0.32892
0.83909 0.70348 0.31404
0.87932 0.66552 0.26381
0.85966 0.5439 0.08683
0.18327 0.81301 0.40032
0.21649 0.81651 0.37749
0.26573 0.81628 0.30497
0.40324 0.81058 0.28761
0.68216 0.83858 0.29958
0.83704 0.8424 0.31973
0.89796 0.8162 0.28902
0.88528 0.75618 0.22158
0.13311 0.88267 0.40414
0.17515 0.88756 0.38386
0.24903 0.89692 0.32203
0.3009 0.90054 0.24104
0.60843 0.91508 0.29261
0.82083 0.93628 0.29402
0.91627 0.94116 0.30204
0.90422 0.88234 0.25664
0.0 0.90145 0.41794
0.01812 0.90285 0.40065
0.15321 0.90449 0.35079
0.25465 0.90338 0.26414
0.41647 0.91611 0.24395
0.77091 0.9586 0.27544
0.91432 0.969 0.31341
0.91591 0.96734 0.30459
0.12994 0.08315 0.5486
0.19281 0.07378 0.57034
0.45499 0.17493 0.72652
0.72404 0.27483 0.71108
0.83961 0.31736 0.61634
0.88536 0.32657 0.54178
0.86515 0.28613 0.41264
0.84978 0.21134 0.2606
0.1725 0.1776 0.59788
0.23206 0.17704 0.63071
0.44056 0.21811 0.7012
0.69584 0.27865 0.69573
0.82723 0.32244 0.63363
0.88615 0.33867 0.57482
0.86714 0.30066 0.43365
0.84905 0.2291 0.25317
0.2249 0.3701 0.66819
0.26572 0.37718 0.66796
0.40861 0.4106 0.61967
0.6309 0.41493 0.61075
0.79501 0.4121 0.62675
0.89185 0.39522 0.65234
0.88024 0.33712 0.53774
0.84936 0.26688 0.24532
0.24044 0.56749 0.65382
0.2759 0.57224 0.64667
0.36635 0.56395 0.61081
0.56737 0.56409 0.56379
0.76695 0.59857 0.59834
0.89774 0.60591 0.62917
0.89994 0.53013 0.5817
0.8624 0.33527 0.32871
0.2388 0.71137 0.62949
0.2737 0.71464 0.62894
0.33948 0.70873 0.61701
0.52924 0.70697 0.56286
0.72116 0.72319 0.54491
0.86989 0.7391 0.58447
0.91335 0.7274 0.57159
0.88124 0.59371 0.3812
0.22251 0.81973 0.60037
0.25791 0.82355 0.59765
0.32467 0.82578 0.59174
0.45402 0.81329 0.56297
0.69124 0.83547 0.52524
0.83655 0.84251 0.54609
0.91799 0.84044 0.53879
0.90978 0.81857 0.44973
0.16292 0.88743 0.56226
0.20357 0.8924 0.55381
0.27989 0.90284 0.5306
0.35549 0.90933 0.50423
0.62522 0.91718 0.51983
0.83065 0.94925 0.51672
0.92597 0.95292 0.51706
0.92951 0.93084 0.46114
0.0 0.90479 0.53476
0.04519 0.90614 0.52265
0.15962 0.90757 0.48607
0.25053 0.90601 0.41229
0.43997 0.91815 0.41029
0.78706 0.96444 0.50981
0.91452 0.98631 0.51286
0.93128 0.99715 0.4705
0.12626 0.12491 0.72943
0.20351 0.11213 0.74954
0.40816 0.15192 0.89825
0.71844 0.2743 0.94893
0.87741 0.32881 0.91583
0.91793 0.34086 0.8181
0.90028 0.31191 0.71619
0.88156 0.24142 0.58879
0.17788 0.21021 0.77931
0.25639 0.20911 0.81718
0.42606 0.21557 0.90983
0.69975 0.28867 0.9292
0.8627 0.33606 0.91767
0.91656 0.35357 0.83077
0.90198 0.33016 0.7324
0.8824 0.26552 0.59729
0.23548 0.37966 0.82972
0.29168 0.38851 0.83452
0.42898 0.44342 0.81565
0.65488 0.46409 0.8355
0.81538 0.44462 0.82491
0.91201 0.40859 0.82743
0.91011 0.36916 0.78088
0.88698 0.32509 0.62853
0.26287 0.56957 0.84631
0.31041 0.57873 0.84761
0.42288 0.59375 0.80932
0.61227 0.61744 0.77707
0.77653 0.62111 0.76579
0.89897 0.61799 0.7679
0.92297 0.58534 0.77428
0.90436 0.44814 0.70148
0.26281 0.71451 0.81394
0.30539 0.71916 0.81201
0.39118 0.72269 0.79343
0.55562 0.72619 0.76006
0.73141 0.72904 0.72884
0.88744 0.75597 0.75712
0.94611 0.7753 0.7778
0.93144 0.71343 0.73061
0.24219 0.82271 0.78846
0.28333 0.82767 0.79143
0.36673 0.83304 0.79336
0.49932 0.828 0.77116
0.70173 0.83761 0.72644
0.84923 0.85046 0.71905
0.94226 0.86385 0.75404
0.94422 0.85366 0.72732
0.17972 0.88837 0.75093
0.22404 0.89364 0.7546
0.31193 0.9042 0.76444
0.41068 0.90782 0.76718
0.63816 0.91949 0.72827
0.84148 0.94373 0.71235
0.93882 0.94412 0.72665
0.95515 0.94121 0.70996
0.0 0.90705 0.69707
0.08241 0.90877 0.69584
0.18984 0.91132 0.6928
0.29569 0.91159 0.68985
0.45617 0.92035 0.68345
0.77973 0.96433 0.71644
0.91564 0.99233 0.69447
0.95203 0.99934 0.68464
0.0 0.14911 0.82266
0.11987 0.13501 0.83184
0.30889 0.12327 0.84721
0.64823 0.25079 0.94956
0.86193 0.32821 0.95515
0.93464 0.34234 0.95114
0.93375 0.31606 0.92061
0.91658 0.25013 0.83502
0.05753 0.22733 0.86071
0.17808 0.22113 0.8786
0.36677 0.19655 0.94777
0.64416 0.268 0.95173
0.85297 0.34174 0.95689
0.9329 0.35614 0.95707
0.93723 0.33733 0.93519
0.91949 0.27701 0.84902
0.17913 0.39161 0.92007
0.26151 0.40283 0.93527
0.41556 0.44936 0.95039
0.64396 0.48322 0.95641
0.82935 0.47452 0.95533
0.9276 0.4367 0.95166
0.94315 0.3851 0.95079
0.92784 0.34263 0.87756
0.2219 0.56251 0.94461
0.28832 0.57357 0.95091
0.42948 0.60552 0.94287
0.63624 0.65851 0.9303
0.8083 0.67602 0.9312
0.91816 0.64817 0.91631
0.94278 0.59611 0.89002
0.93154 0.47683 0.8695
0.22419 0.70801 0.941
0.28204 0.71663 0.94643
0.40658 0.73497 0.95056
0.59818 0.75303 0.91565
0.76868 0.7752 0.89863
0.89441 0.7767 0.88851
0.95857 0.7877 0.88394
0.95142 0.75143 0.86556
0.2139 0.81535 0.91761
0.2678 0.82207 0.92188
0.37884 0.83456 0.92557
0.52998 0.84273 0.9134
0.71865 0.85583 0.88451
0.86036 0.85977 0.85822
0.95828 0.87905 0.87677
0.96919 0.88743 0.8778
0.16095 0.88 0.89046
0.21527 0.88571 0.89659
0.32171 0.89868 0.90963
0.44388 0.91387 0.91416
0.66224 0.93258 0.88997
0.8385 0.94367 0.85226
0.94077 0.95011 0.83785
0.97283 0.94891 0.85505
0.02363 0.90593 0.84304
0.11233 0.90841 0.84787
0.22312 0.91346 0.86055
0.3433 0.9184 0.87791
0.51214 0.93204 0.8715
0.76709 0.96603 0.84449
0.91138 0.99297 0.82236
0.96546 0.99924 0.8194
0.0 0.15907 0.89024
0.0 0.14732 0.89786
0.23054 0.12049 0.9189
0.55626 0.21716 0.94836
0.82511 0.31753 0.95459
0.93219 0.34741 0.95594
0.93085 0.30805 0.95047
0.9269 0.2321 0.93018
0.0 0.22746 0.90361
0.0 0.22057 0.91148
0.25745 0.19459 0.93286
0.56569 0.24196 0.94966
0.81925 0.32824 0.95563
0.93248 0.363 0.95782
0.93176 0.33159 0.95459
0.92872 0.26378 0.93887
0.0 0.37791 0.93119
0.06077 0.38513 0.93804
0.31828 0.41487 0.95189
0.57731 0.46692 0.95863
0.80636 0.47686 0.96168
0.93124 0.45521 0.96274
0.93695 0.40426 0.96104
0.93412 0.34912 0.95549
0.0 0.54492 0.95465
0.15107 0.55709 0.95857
0.35217 0.59314 0.96405
0.5911 0.65826 0.96969
0.80922 0.70684 0.97626
0.9344 0.69512 0.97818
0.95719 0.62954 0.96914
0.94489 0.50909 0.95971
0.0 0.68806 0.96777
0.15987 0.69854 0.97051
0.34194 0.72494 0.97297
0.57323 0.76183 0.97536
0.78941 0.80945 0.98198
0.91269 0.82085 0.98175
0.97133 0.80672 0.97135
0.96678 0.76522 0.95708
0.02756 0.79601 0.96969
0.15118 0.80453 0.97328
0.31051 0.82454 0.97905
0.50863 0.84654 0.98153
0.74237 0.87096 0.98008
0.88549 0.88721 0.97018
0.97255 0.88806 0.97166
0.98488 0.89117 0.96259
0.03164 0.85985 0.9584
0.13992 0.86523 0.96294
0.28329 0.87792 0.97259
0.44621 0.89939 0.98148
0.65006 0.92812 0.97892
0.83462 0.94396 0.96318
0.94996 0.94903 0.94809
0.98755 0.94958 0.94464
0.02579 0.89911 0.92967
0.11999 0.90225 0.93408
0.24079 0.90963 0.94456
0.3779 0.92085 0.95725
0.55902 0.94356 0.96151
0.76399 0.9737 0.94657
0.90849 0.99306 0.92308
0.97639 0.99724 0.91441
0.0 0.14602 0.92275
0.0 0.13076 0.92661
0.0 0.09701 0.9357
0.42996 0.17103 0.94679
0.77068 0.29947 0.95367
0.92534 0.34919 0.95695
0.92909 0.31589 0.95435
0.92574 0.22325 0.94573
0.0 0.20583 0.92781
0.0 0.19518 0.93135
0.0 0.16999 0.93932
0.45341 0.20763 0.94783
0.77148 0.30828 0.95428
0.92743 0.36127 0.95814
0.93037 0.34094 0.95652
0.92715 0.26072 0.94972
0.0 0.33841 0.93923
0.0 0.33795 0.94205
0.0 0.34435 0.94785
0.438 0.40749 0.95441
0.77634 0.50206 0.96241
0.92511 0.45339 0.96239
0.93543 0.42305 0.96108
0.93233 0.36544 0.95823
0.0 0.50432 0.95341
0.0 0.51348 0.95548
0.07891 0.54504 0.95967
0.42507 0.60955 0.96491
0.76808 0.71793 0.97488
0.93147 0.71425 0.97693
0.95937 0.66569 0.97389
0.94847 0.57118 0.96963
0.0 0.65435 0.96641
0.0 0.66526 0.96782
0.14355 0.69582 0.97028
0.43805 0.7465 0.97354
0.72377 0.80383 0.97992
0.91017 0.84497 0.98583
0.97549 0.82727 0.98521
0.97129 0.77962 0.98374
0.0 0.76548 0.97541
0.0 0.77443 0.97662
0.13819 0.79752 0.97842
0.38692 0.83151 0.97961
0.67499 0.8695 0.98415
0.87604 0.90237 0.99034
0.96754 0.9057 0.99281
0.9866 0.90019 0.99268
0.0 0.83731 0.97801
0.0 0.843 0.97961
0.16954 0.85704 0.98227
0.3518 0.87823 0.98352
0.5894 0.91296 0.98738
0.82074 0.94228 0.99219
0.94259 0.95174 0.99486
0.99568 0.95193 0.99827
0.0516 0.89024 0.97037
0.13224 0.89419 0.97267
0.25313 0.90424 0.97773
0.39553 0.92072 0.98361
0.56884 0.94515 0.9887
0.75366 0.97102 0.99062
0.89981 0.98716 0.98958
0.99056 0.99057 0.98992
