LUTs/provia.cube
#proPhotoRGB
LUT_3D_SIZE 5
DOMAIN_MIN 0.000000 0.000000 0.000000
DOMAIN_MAX 0.903226 0.903226 0.903226
0.0 0.0 0.0
0.35085 0.12743 0.0
0.75823 0.2757 0.0
0.82497 0.2925 0.0
0.82124 0.21352 0.0
0.03454 0.23883 0.06461
0.28387 0.24602 0.07076
0.72551 0.29784 0.0
0.82548 0.32456 0.0
0.81981 0.2645 0.0
0.11597 0.60264 0.18153
0.19683 0.60416 0.15659
0.66399 0.62371 0.17408
0.86113 0.55311 0.07844
0.83505 0.42056 0.0
0.12756 0.82835 0.2703
0.22303 0.84543 0.22443
0.43976 0.83903 0.22205
0.87619 0.81972 0.23148
0.87872 0.72562 0.15642
0.0 0.89669 0.33479
0.11327 0.90054 0.29091
0.28861 0.90352 0.23349
0.78722 0.94555 0.25639
0.90699 0.93067 0.24557
0.055 0.01557 0.24045
0.37743 0.14519 0.31182
0.76417 0.28431 0.25755
0.8448 0.30014 0.06601
0.82885 0.21191 0.0
0.13901 0.29192 0.34955
0.28755 0.2853 0.28541
0.74239 0.35126 0.3694
0.84807 0.33516 0.22106
0.82601 0.26693 0.0
0.17405 0.62179 0.34196
0.2306 0.61215 0.27977
0.6429 0.63609 0.27862
0.86928 0.60501 0.25994
0.83914 0.40535 0.0
0.16817 0.83467 0.36747
0.24959 0.8447 0.29301
0.52913 0.84065 0.26187
0.86651 0.86428 0.27824
0.88705 0.77371 0.21935
0.0 0.9006 0.398
0.1247 0.90361 0.34714
0.29516 0.90392 0.23379
0.81955 0.95714 0.27408
0.91389 0.95857 0.28619
0.14116 0.10663 0.65355
0.34436 0.13835 0.79208
0.81414 0.30644 0.83366
0.89623 0.32936 0.65896
0.86423 0.22395 0.43209
0.22545 0.32553 0.74214
0.3696 0.37566 0.73114
0.74772 0.38782 0.74389
0.90406 0.36339 0.73639
0.86585 0.27561 0.44625
0.25876 0.64844 0.74262
0.35406 0.65257 0.7201
0.65731 0.65466 0.65452
0.91779 0.69682 0.70776
0.89788 0.53078 0.57408
0.22716 0.8436 0.69297
0.32071 0.85233 0.69874
0.58 0.84815 0.65549
0.87194 0.87355 0.64552
0.93054 0.86487 0.60025
0.0 0.90617 0.61343
0.14677 0.90923 0.59355
0.324 0.90925 0.53878
0.84182 0.9726 0.64457
0.94196 0.99967 0.58437
0.0 0.15222 0.84159
0.24384 0.11491 0.86629
0.75958 0.29272 0.95292
0.93627 0.33742 0.95174
0.92189 0.24598 0.87418
0.10765 0.34521 0.9135
0.33602 0.37144 0.94984
0.74096 0.41771 0.95916
0.93595 0.39507 0.95962
0.93159 0.31528 0.91246
0.19933 0.63453 0.95738
0.36915 0.66107 0.96527
0.72013 0.73517 0.94384
0.93373 0.73302 0.92688
0.94359 0.63178 0.88469
0.1873 0.83189 0.93367
0.33179 0.84942 0.94553
0.6184 0.87226 0.93396
0.88973 0.8883 0.88673
0.97484 0.90776 0.90002
0.02995 0.90474 0.87064
0.20022 0.91157 0.88517
0.42731 0.92507 0.91109
0.81202 0.97582 0.86792
0.96811 0.99925 0.84501
0.0 0.14602 0.92275
0.0 0.10523 0.93307
0.62522 0.24502 0.95032
0.93053 0.35011 0.95685
0.92574 0.22325 0.94573
0.0 0.30032 0.93597
0.0 0.29331 0.9436
0.64517 0.41994 0.95687
0.93358 0.39653 0.95975
0.93045 0.33272 0.95591
0.0 0.58347 0.96027
0.0 0.61641 0.96438
0.58697 0.71838 0.9729
0.95191 0.79093 0.98208
0.96067 0.68937 0.97727
0.0 0.78656 0.97674
0.05422 0.80923 0.9794
0.4927 0.86317 0.98124
0.89788 0.9167 0.99157
0.99002 0.918 0.99408
0.0516 0.89024 0.97037
0.22111 0.90118 0.97631
0.47796 0.93201 0.98636
0.7948 0.97627 0.99051
0.99056 0.99057 0.98992
