LUTs/provia tone curve.cube
#proPhotoRGB
LUT_1D_SIZE 32
0.0 0.0 0.0
0.00203 0.00203 0.00203
0.01738 0.01738 0.01738
0.03694 0.03694 0.03694
0.0874 0.0874 0.0874
0.15249 0.15249 0.15249
0.22211 0.22211 0.22211
0.2857 0.2857 0.2857
0.34798 0.34798 0.34798
0.40613 0.40613 0.40613
0.46292 0.46292 0.46292
0.51577 0.51577 0.51577
0.56483 0.56483 0.56483
0.61232 0.61232 0.61232
0.65524 0.65524 0.65524
0.69482 0.69482 0.69482
0.72972 0.72972 0.72972
0.76495 0.76495 0.76495
0.8015 0.8015 0.8015
0.83016 0.83016 0.83016
0.85988 0.85988 0.85988
0.88862 0.88862 0.88862
0.91245 0.91245 0.91245
0.93237 0.93237 0.93237
0.94929 0.94929 0.94929
0.96248 0.96248 0.96248
0.97357 0.97357 0.97357
0.983 0.983 0.983
0.99055 0.99055 0.99055
0.99636 0.99636 0.99636
0.99798 0.99798 0.99798
1.0 1.0 1.0
