LUTs/provia.cube
#proPhotoRGB
LUT_3D_SIZE 32
0.0 0.0 0.0
0.0065 0.0 0.0
0.02426 0.0 0.0
0.05481 0.01674 0.0
0.11331 0.03825 0.0
0.19069 0.06712 0.0
0.27272 0.09826 0.0
0.35085 0.12743 0.0
0.42714 0.156 0.0
0.50376 0.18479 0.0
0.57517 0.21108 0.0
0.63691 0.23327 0.0
0.68657 0.25115 0.0
0.72555 0.26471 0.0
0.75823 0.2757 0.0
0.78547 0.28445 0.0
0.80544 0.29104 0.0
0.81835 0.29592 0.0
0.82501 0.29854 0.0
0.82696 0.29859 0.0
0.82647 0.29641 0.0
0.82497 0.2925 0.0
0.82313 0.28668 0.0
0.82138 0.27875 0.0
0.81995 0.26873 0.0
0.81899 0.25681 0.0
0.81871 0.24325 0.0
0.81935 0.22845 0.0
0.82124 0.21352 0.0
0.82466 0.20081 0.0
0.82974 0.19363 0.0
0.83637 0.19487 0.0
0.0 0.00348 0.0
0.00242 0.00139 0.0
0.01995 0.00548 0.0
0.04872 0.01811 0.0
0.1087 0.03905 0.0
0.18807 0.06806 0.0
0.27159 0.09945 0.0
0.35021 0.12852 0.0
0.42681 0.15705 0.0
0.50388 0.1859 0.0
0.57554 0.21221 0.0
0.63737 0.23436 0.0
0.68699 0.25225 0.0
0.72586 0.2658 0.0
0.75854 0.27684 0.0
0.78583 0.28567 0.0
0.80577 0.29232 0.0
0.81863 0.29723 0.0
0.8252 0.29986 0.0
0.82706 0.29989 0.0
0.82651 0.2977 0.0
0.82498 0.29381 0.0
0.82313 0.28802 0.0
0.82136 0.28013 0.0
0.81992 0.27016 0.0
0.81895 0.2583 0.0
0.81866 0.24479 0.0
0.81929 0.23003 0.0
0.82117 0.21513 0.0
0.82459 0.20243 0.0
0.82968 0.19526 0.0
0.83632 0.1965 0.0
0.0 0.01632 0.0
0.00152 0.01292 0.0
0.01671 0.01397 0.00244
0.03321 0.01641 0.0
0.09066 0.03605 0.0
0.17766 0.06744 0.0
0.26734 0.1008 0.0
0.34795 0.13023 0.0
0.42572 0.15903 0.0
0.50396 0.18818 0.0
0.57618 0.21457 0.0
0.6382 0.23672 0.0
0.68777 0.25468 0.0
0.72644 0.26827 0.0
0.75917 0.27949 0.0
0.78663 0.28855 0.0
0.80652 0.29537 0.0
0.81927 0.3004 0.0
0.82564 0.30303 0.0
0.82728 0.30302 0.0
0.8266 0.30081 0.0
0.825 0.29698 0.0
0.82311 0.2913 0.0
0.82132 0.28353 0.0
0.81986 0.27369 0.0
0.81887 0.26196 0.0
0.81854 0.24858 0.0
0.81915 0.23393 0.0
0.821 0.21909 0.0
0.82441 0.20642 0.0
0.82951 0.19928 0.0
0.83619 0.20054 0.0
0.0 0.03428 0.00051
0.0 0.02902 0.00436
0.01169 0.02533 0.00942
0.03354 0.02892 0.01297
0.06458 0.03469 0.00719
0.13939 0.05715 0.00676
0.24244 0.09423 0.01245
0.33572 0.12784 0.0
0.4203 0.15919 0.0
0.50185 0.18964 0.0
0.57549 0.21663 0.0
0.63812 0.23907 0.0
0.68797 0.25738 0.0
0.72667 0.27125 0.0
0.75968 0.28289 0.0
0.78754 0.29243 0.0
0.80743 0.29957 0.0
0.82007 0.30483 0.0
0.8262 0.30751 0.0
0.82754 0.30745 0.0
0.82669 0.30525 0.0
0.82502 0.30156 0.0
0.82308 0.29607 0.0
0.82126 0.28851 0.0
0.81978 0.27888 0.0
0.81875 0.26738 0.0
0.81839 0.25422 0.0
0.81894 0.23974 0.0
0.82076 0.22501 0.0
0.82416 0.21239 0.0
0.82928 0.20529 0.0
0.83601 0.20659 0.0
0.0 0.06746 0.01524
0.0 0.06243 0.01391
0.02015 0.0529 0.0172
0.03037 0.05495 0.01816
0.07669 0.06472 0.02021
0.12336 0.06903 0.01449
0.2005 0.08756 0.01601
0.28825 0.1159 0.01767
0.39245 0.15199 0.0
0.48716 0.18633 0.0
0.56746 0.21569 0.0
0.63354 0.2396 0.0
0.68545 0.25894 0.0
0.72532 0.27363 0.0
0.75928 0.28607 0.0
0.788 0.29646 0.0
0.8081 0.3042 0.0
0.82078 0.30984 0.0
0.82671 0.31265 0.0
0.82776 0.31263 0.0
0.82676 0.31053 0.0
0.82504 0.30712 0.0
0.82306 0.30194 0.0
0.82121 0.29472 0.0
0.81971 0.28544 0.0
0.81864 0.27428 0.0
0.81822 0.26146 0.0
0.81871 0.24724 0.0
0.82047 0.23266 0.0
0.82385 0.22013 0.0
0.829 0.21309 0.0
0.83579 0.21447 0.0
0.0 0.11639 0.02846
0.0 0.11262 0.02556
0.02626 0.10441 0.02307
0.03464 0.10115 0.0254
0.06896 0.10653 0.02691
0.13863 0.11615 0.03133
0.19952 0.12071 0.02998
0.26799 0.13098 0.03301
0.34489 0.14954 0.02861
0.44349 0.17923 0.01655
0.5377 0.2104 0.0
0.61562 0.23708 0.0
0.67529 0.25853 0.0
0.71964 0.27466 0.0
0.75621 0.28816 0.0
0.78686 0.29972 0.0
0.80785 0.3083 0.0
0.82103 0.31447 0.0
0.82698 0.3176 0.0
0.82786 0.31782 0.0
0.8268 0.31605 0.0
0.82507 0.31313 0.0
0.82307 0.30848 0.0
0.82121 0.30181 0.0
0.81968 0.29306 0.0
0.81857 0.28242 0.0
0.81808 0.27008 0.0
0.81849 0.25623 0.0
0.82018 0.24188 0.0
0.82353 0.22948 0.0
0.82871 0.22256 0.0
0.83556 0.22407 0.0
0.00969 0.17489 0.04562
0.02249 0.17212 0.04253
0.03942 0.16546 0.03783
0.05286 0.15782 0.03983
0.05953 0.16096 0.04099
0.12319 0.16859 0.04446
0.21528 0.18196 0.05074
0.27673 0.18033 0.05212
0.34 0.18585 0.04954
0.41119 0.19651 0.04532
0.49024 0.21381 0.03187
0.57447 0.23661 0.0
0.64848 0.25879 0.0
0.70397 0.27633 0.0
0.74674 0.29023 0.0
0.7817 0.30251 0.0
0.80541 0.3117 0.0
0.82011 0.31818 0.0
0.82671 0.32165 0.0
0.82779 0.32233 0.0
0.82684 0.32117 0.0
0.82517 0.31902 0.0
0.82317 0.31518 0.0
0.82131 0.30933 0.0
0.81977 0.30138 0.0
0.81861 0.2915 0.0
0.81804 0.27985 0.0
0.81834 0.26653 0.0
0.81994 0.25253 0.0
0.82324 0.24034 0.0
0.82844 0.23361 0.0
0.83536 0.23532 0.0
0.03454 0.23883 0.06461
0.04163 0.23727 0.06166
0.05518 0.23356 0.05627
0.06934 0.22929 0.05505
0.07625 0.22777 0.05754
0.10127 0.23034 0.05864
0.19528 0.23932 0.06359
0.28387 0.24602 0.07076
0.34844 0.24584 0.06992
0.40552 0.24483 0.06716
0.47142 0.2482 0.06293
0.5354 0.2558 0.0501
0.60612 0.27015 0.0
0.67292 0.28586 0.0
0.72551 0.29784 0.0
0.7683 0.30884 0.0
0.79842 0.31729 0.0
0.81693 0.32288 0.0
0.82558 0.32586 0.0
0.82758 0.32658 0.0
0.82702 0.32594 0.0
0.82548 0.32456 0.0
0.82349 0.32169 0.0
0.82163 0.31693 0.0
0.82007 0.31009 0.0
0.81884 0.30126 0.0
0.81817 0.29056 0.0
0.81835 0.27799 0.0
0.81981 0.2645 0.0
0.82304 0.25264 0.0
0.82824 0.24621 0.0
0.83522 0.24822 0.0
0.05234 0.30063 0.08352
0.05805 0.29975 0.08073
0.06999 0.29755 0.07515
0.0837 0.29448 0.07165
0.09493 0.29251 0.07444
0.10198 0.2931 0.076
0.15958 0.29465 0.07706
0.26272 0.3026 0.08327
0.34839 0.30789 0.08768
0.41086 0.30754 0.08769
0.46528 0.30436 0.08555
0.52572 0.30256 0.07971
0.58116 0.30446 0.06502
0.64048 0.31226 0.02935
0.69453 0.3189 0.0
0.74416 0.32608 0.0
0.78382 0.33176 0.0
0.80987 0.33464 0.0
0.82323 0.33508 0.0
0.82749 0.33405 0.0
0.82769 0.33254 0.0
0.82629 0.33096 0.0
0.82427 0.32858 0.0
0.82236 0.32482 0.0
0.82073 0.31918 0.0
0.81941 0.31161 0.0
0.81861 0.30211 0.0
0.81862 0.29052 0.0
0.8199 0.27774 0.0
0.82301 0.26638 0.0
0.82819 0.26039 0.0
0.83521 0.26281 0.0
0.06702 0.35843 0.10146
0.07211 0.35793 0.09879
0.08323 0.35665 0.09313
0.09685 0.35468 0.08816
0.10968 0.35241 0.08885
0.11637 0.35212 0.09149
0.14184 0.35204 0.09274
0.22696 0.35517 0.09548
0.32731 0.36225 0.10003
0.40933 0.36642 0.10408
0.46977 0.36803 0.1039
0.52023 0.36156 0.10095
0.57449 0.35694 0.09303
0.62581 0.35632 0.07946
0.67286 0.35476 0.05598
0.71919 0.35808 0.0
0.76248 0.36013 0.0
0.79778 0.35999 0.0
0.81899 0.35652 0.0
0.82781 0.3515 0.0
0.8295 0.34647 0.0
0.82821 0.34228 0.0
0.82595 0.33859 0.0
0.82382 0.33466 0.0
0.822 0.32962 0.0
0.82051 0.32308 0.0
0.81953 0.31473 0.0
0.8193 0.30424 0.0
0.82035 0.29235 0.0
0.82328 0.28168 0.0
0.82837 0.2763 0.0
0.8354 0.27923 0.0
0.07904 0.41251 0.1184
0.0837 0.41222 0.11578
0.09417 0.41144 0.10997
0.1075 0.41011 0.10374
0.12099 0.40805 0.10135
0.13025 0.40626 0.10416
0.13958 0.40585 0.10547
0.19501 0.40533 0.10656
0.29318 0.41035 0.11053
0.38677 0.41573 0.11485
0.46871 0.42431 0.11921
0.52331 0.42242 0.1188
0.57073 0.4155 0.11294
0.61948 0.41025 0.10675
0.66611 0.40337 0.09522
0.70839 0.40138 0.07766
0.74652 0.40005 0.03669
0.78413 0.39847 0.0
0.81225 0.39285 0.0
0.82809 0.38395 0.0
0.83306 0.374 0.0
0.83205 0.36474 0.0
0.82927 0.35699 0.0
0.82656 0.35044 0.0
0.82431 0.34417 0.0
0.82247 0.33741 0.0
0.82117 0.32951 0.0
0.82061 0.3198 0.0
0.82132 0.30876 0.0
0.82398 0.29886 0.0
0.82891 0.29421 0.0
0.83586 0.29771 0.0
0.08969 0.46376 0.13486
0.09404 0.46365 0.13231
0.10396 0.46331 0.12648
0.11694 0.4627 0.11945
0.13074 0.4617 0.11459
0.14211 0.46045 0.11507
0.14862 0.4592 0.1177
0.17687 0.4578 0.11879
0.25804 0.461 0.12194
0.35614 0.46649 0.12572
0.44767 0.47295 0.12939
0.52083 0.47748 0.13299
0.57289 0.47402 0.13176
0.61807 0.4682 0.12534
0.66246 0.46071 0.12167
0.70481 0.45316 0.1118
0.74236 0.44782 0.0951
0.77772 0.44414 0.06363
0.80651 0.43841 0.0
0.8274 0.4285 0.0
0.83802 0.41599 0.0
0.83825 0.40201 0.0
0.8348 0.38877 0.0
0.8312 0.37729 0.0
0.82819 0.36723 0.0
0.82571 0.35795 0.0
0.82388 0.34877 0.0
0.82282 0.33875 0.0
0.82305 0.32796 0.0
0.8253 0.31862 0.0
0.82993 0.31461 0.0
0.8367 0.31857 0.0
0.09966 0.51236 0.15093
0.1038 0.51237 0.14847
0.11337 0.51235 0.14271
0.12619 0.51222 0.13534
0.14056 0.51181 0.12907
0.15457 0.51097 0.12773
0.16404 0.50957 0.13094
0.1693 0.50874 0.13237
0.22028 0.50849 0.13334
0.31703 0.51335 0.13717
0.41444 0.51757 0.14014
0.5034 0.52407 0.1439
0.57261 0.528 0.14677
0.62161 0.52665 0.14659
0.66211 0.51848 0.1423
0.70135 0.50911 0.13554
0.73937 0.5005 0.12739
0.77583 0.4941 0.1113
0.80641 0.48768 0.08329
0.82742 0.4775 0.01945
0.84299 0.46549 0.0
0.84606 0.45051 0.0
0.84237 0.43365 0.0
0.83789 0.41741 0.0
0.83397 0.40235 0.0
0.83065 0.3885 0.0
0.82802 0.3758 0.0
0.82624 0.36356 0.0
0.82579 0.35169 0.0
0.82743 0.34209 0.0
0.83158 0.33824 0.0
0.83801 0.34226 0.0
0.10838 0.55854 0.16648
0.11234 0.55864 0.16409
0.12156 0.55885 0.15842
0.13408 0.55903 0.15079
0.14835 0.55898 0.14323
0.16295 0.55844 0.13916
0.1761 0.55706 0.14138
0.1819 0.55366 0.14377
0.19469 0.55301 0.1443
0.27541 0.55827 0.14678
0.37604 0.56278 0.15063
0.47064 0.56598 0.15382
0.55758 0.57401 0.15857
0.62034 0.57813 0.16079
0.66517 0.5761 0.16053
0.70209 0.56506 0.15584
0.73641 0.55393 0.14942
0.77183 0.54615 0.14159
0.80631 0.53961 0.12548
0.83006 0.52815 0.09942
0.84764 0.51586 0.05471
0.85389 0.50219 0.0
0.85088 0.48534 0.0
0.84596 0.46717 0.0
0.8414 0.44871 0.0
0.83728 0.43041 0.0
0.83377 0.41306 0.0
0.83109 0.39684 0.0
0.82976 0.38209 0.0
0.83056 0.37077 0.0
0.834 0.36598 0.0
0.8399 0.36927 0.0
0.11597 0.60264 0.18153
0.11981 0.60286 0.17924
0.12881 0.60338 0.17374
0.14119 0.60407 0.16611
0.15559 0.60478 0.15795
0.1708 0.60532 0.15209
0.18542 0.60539 0.15203
0.19683 0.60416 0.15659
0.19932 0.60159 0.15654
0.23782 0.59947 0.15714
0.33531 0.60655 0.16059
0.43686 0.61085 0.16545
0.52684 0.614 0.16799
0.60924 0.62139 0.17204
0.66399 0.62371 0.17408
0.70437 0.61909 0.17236
0.73714 0.60641 0.16705
0.76979 0.5969 0.1621
0.80291 0.59123 0.15349
0.83096 0.58037 0.13779
0.85208 0.56707 0.11481
0.86113 0.55311 0.07844
0.85921 0.53713 0.0
0.85433 0.5196 0.0
0.84957 0.5007 0.0
0.84503 0.48047 0.0
0.8409 0.45977 0.0
0.83737 0.43938 0.0
0.83505 0.42056 0.0
0.83481 0.4059 0.0
0.83728 0.39864 0.0
0.84243 0.40001 0.0
0.12227 0.64403 0.19601
0.12601 0.64435 0.19382
0.13483 0.64512 0.1885
0.14707 0.64621 0.18097
0.16146 0.6475 0.17244
0.17692 0.64883 0.16507
0.19221 0.64988 0.16207
0.20496 0.64984 0.16477
0.21027 0.64754 0.1668
0.22333 0.64284 0.16656
0.29567 0.6436 0.16803
0.39716 0.65114 0.17204
0.49517 0.65568 0.17754
0.5798 0.65884 0.17991
0.65444 0.66397 0.18445
0.70356 0.66286 0.18549
0.73803 0.65515 0.18225
0.77115 0.64567 0.17744
0.80193 0.63856 0.17285
0.82929 0.62933 0.16358
0.8544 0.61804 0.15046
0.86797 0.60382 0.12902
0.86728 0.58708 0.09838
0.86237 0.5699 0.04717
0.85761 0.55203 0.0
0.85301 0.53249 0.0
0.84868 0.51135 0.0
0.84464 0.48876 0.0
0.84147 0.46635 0.0
0.84012 0.44757 0.0
0.84144 0.43643 0.0
0.84563 0.43458 0.0
0.12728 0.68212 0.20991
0.13095 0.6825 0.20781
0.13963 0.6834 0.20269
0.15173 0.68469 0.19531
0.16607 0.68624 0.18661
0.1816 0.68785 0.1782
0.19725 0.68923 0.17274
0.21117 0.68987 0.17275
0.21967 0.68882 0.17603
0.22648 0.68541 0.17681
0.2686 0.6834 0.17748
0.35939 0.68773 0.18062
0.45722 0.69209 0.18476
0.54962 0.69545 0.18899
0.62891 0.69665 0.19176
0.69357 0.69955 0.19429
0.73842 0.69568 0.19447
0.77249 0.68933 0.19121
0.80383 0.68196 0.1873
0.82905 0.67231 0.18214
0.85459 0.66271 0.17389
0.87287 0.65098 0.16039
0.87492 0.63473 0.14107
0.87009 0.61696 0.11466
0.86516 0.59958 0.0772
0.8606 0.58144 0.0
0.85637 0.5619 0.0
0.85221 0.53993 0.0
0.84852 0.51614 0.0
0.84624 0.49404 0.0
0.84637 0.47855 0.0
0.84946 0.47258 0.0
0.13099 0.71691 0.22325
0.13462 0.71732 0.22125
0.14323 0.71829 0.21635
0.15529 0.71967 0.2092
0.16968 0.72132 0.20053
0.18545 0.72304 0.1916
0.20172 0.72459 0.18457
0.21733 0.7256 0.18226
0.22978 0.72565 0.18511
0.23418 0.72373 0.18742
0.24775 0.71988 0.1869
0.31687 0.72114 0.18868
0.41642 0.72617 0.19251
0.51229 0.72755 0.19663
0.59939 0.7289 0.19962
0.67267 0.72854 0.20206
0.72994 0.72793 0.20347
0.77196 0.72636 0.20338
0.80465 0.72059 0.20054
0.83068 0.711 0.19658
0.85517 0.70173 0.19038
0.87503 0.69156 0.18122
0.88039 0.67739 0.16834
0.87688 0.66039 0.15106
0.87216 0.64315 0.12954
0.86766 0.62584 0.09776
0.86352 0.6079 0.03388
0.85945 0.58799 0.0
0.85559 0.5653 0.0
0.85273 0.54202 0.0
0.85182 0.52311 0.0
0.8538 0.51299 0.0
0.13314 0.74886 0.23605
0.13675 0.74929 0.23415
0.14536 0.75033 0.22947
0.15746 0.75184 0.22259
0.17196 0.75367 0.21409
0.18796 0.75567 0.20491
0.20467 0.75765 0.19676
0.22118 0.75934 0.19213
0.23601 0.76042 0.19298
0.24571 0.76056 0.19665
0.24752 0.75701 0.19667
0.28292 0.75428 0.19668
0.37284 0.75692 0.19911
0.47282 0.75849 0.20296
0.56615 0.75861 0.2064
0.64706 0.7589 0.20875
0.71354 0.75777 0.21108
0.76657 0.75789 0.21147
0.80347 0.75525 0.21166
0.83071 0.74616 0.20865
0.85551 0.73753 0.20402
0.87622 0.72841 0.19667
0.88314 0.71491 0.18737
0.88151 0.69932 0.17528
0.87796 0.6833 0.16097
0.87399 0.66651 0.14168
0.86997 0.6492 0.11184
0.86601 0.63092 0.05726
0.86219 0.61037 0.0
0.85911 0.58803 0.0
0.85748 0.56761 0.0
0.8585 0.55432 0.0
0.1335 0.77826 0.24823
0.13714 0.77873 0.24642
0.14581 0.7799 0.24197
0.15804 0.7816 0.23539
0.17274 0.78375 0.22715
0.18907 0.78623 0.21797
0.2063 0.78895 0.20916
0.22368 0.79177 0.20281
0.24012 0.79438 0.20121
0.25342 0.79606 0.20416
0.25885 0.79577 0.20643
0.26653 0.79122 0.20554
0.33136 0.78905 0.20651
0.43048 0.78894 0.20843
0.52928 0.78753 0.21166
0.61865 0.7874 0.21437
0.69268 0.78811 0.21716
0.75326 0.78663 0.21903
0.79875 0.78488 0.21965
0.82963 0.77841 0.21923
0.85536 0.77002 0.21567
0.87634 0.76236 0.21006
0.88427 0.75009 0.20243
0.88441 0.73484 0.19301
0.88206 0.71988 0.1826
0.87902 0.70446 0.1696
0.8755 0.68754 0.15016
0.87179 0.66977 0.1195
0.86813 0.65073 0.06628
0.86508 0.63014 0.0
0.86308 0.60998 0.0
0.86338 0.59511 0.0
0.1318 0.80489 0.25967
0.13551 0.80541 0.25796
0.14434 0.80668 0.25374
0.15678 0.80857 0.24746
0.17177 0.81098 0.2395
0.18847 0.81382 0.23044
0.20615 0.81701 0.22127
0.22413 0.82036 0.21361
0.24151 0.8235 0.2096
0.25667 0.82564 0.21035
0.26676 0.826 0.2133
0.26876 0.82409 0.214
0.29836 0.82034 0.21379
0.38587 0.81671 0.2143
0.48687 0.81426 0.21641
0.58239 0.81173 0.21891
0.66478 0.81257 0.2219
0.73258 0.81298 0.22497
0.78616 0.81035 0.22679
0.82499 0.8058 0.2265
0.85462 0.79971 0.2255
0.87588 0.79214 0.22144
0.88557 0.78275 0.2156
0.88748 0.76908 0.20794
0.88567 0.75385 0.19935
0.88295 0.7395 0.18938
0.88001 0.72414 0.17561
0.8769 0.70694 0.1547
0.87352 0.68835 0.12218
0.87063 0.6689 0.06683
0.86851 0.64967 0.0
0.86834 0.63454 0.0
0.12756 0.82835 0.2703
0.13139 0.82889 0.26868
0.14049 0.83025 0.26466
0.15331 0.83227 0.25867
0.16875 0.83488 0.25102
0.18596 0.83801 0.24217
0.20426 0.84157 0.23288
0.22303 0.84543 0.22443
0.24153 0.84932 0.21867
0.25867 0.85263 0.21735
0.27258 0.85453 0.21993
0.2799 0.85486 0.22238
0.2831 0.85121 0.22233
0.33958 0.8439 0.22176
0.43976 0.83903 0.22205
0.54051 0.83679 0.22469
0.63048 0.83477 0.22703
0.7059 0.83629 0.23066
0.76792 0.83521 0.23353
0.81579 0.83119 0.23424
0.85182 0.82651 0.23342
0.87619 0.81972 0.23148
0.8878 0.81104 0.22739
0.89153 0.80072 0.22148
0.89002 0.78684 0.21387
0.8869 0.77208 0.20496
0.8841 0.7582 0.19439
0.88165 0.74333 0.1795
0.87872 0.72562 0.15642
0.87601 0.70649 0.12068
0.87385 0.68772 0.06077
0.87337 0.67272 0.0
0.11974 0.84812 0.28
0.12376 0.84868 0.27845
0.1333 0.85006 0.27461
0.14669 0.85215 0.26887
0.16276 0.85487 0.2615
0.18066 0.85817 0.25286
0.19971 0.86203 0.24355
0.21936 0.86639 0.23458
0.23901 0.87114 0.22749
0.25785 0.87604 0.2241
0.27454 0.88067 0.22529
0.28674 0.88464 0.22896
0.28892 0.8846 0.2303
0.30976 0.87628 0.22881
0.39329 0.86645 0.2278
0.49657 0.86209 0.22886
0.59372 0.86035 0.23188
0.6762 0.86013 0.23491
0.74583 0.86026 0.23841
0.8026 0.85812 0.24075
0.84532 0.8533 0.24039
0.87486 0.84702 0.23868
0.88906 0.83781 0.23661
0.89482 0.82759 0.23209
0.89421 0.81695 0.22688
0.89101 0.8031 0.21899
0.88815 0.78941 0.20963
0.88614 0.77704 0.1985
0.88388 0.76225 0.18161
0.88141 0.74419 0.15532
0.8792 0.72543 0.11517
0.87844 0.71015 0.06237
0.10682 0.86368 0.28873
0.11117 0.86421 0.28724
0.12141 0.86553 0.28353
0.13563 0.86751 0.27798
0.15256 0.8701 0.2708
0.17128 0.87324 0.26229
0.19114 0.87689 0.25291
0.21161 0.88101 0.24345
0.23218 0.88552 0.23515
0.25222 0.89024 0.22966
0.27077 0.8949 0.22847
0.28614 0.89935 0.23123
0.29403 0.90217 0.23417
0.29729 0.89835 0.23395
0.34796 0.89065 0.23272
0.44985 0.88647 0.2336
0.55313 0.88455 0.23644
0.64455 0.88392 0.23919
0.72018 0.88498 0.24259
0.78441 0.88436 0.24589
0.83625 0.88195 0.24722
0.87164 0.87505 0.24538
0.88985 0.86618 0.24355
0.8963 0.85414 0.24083
0.89731 0.8438 0.23657
0.89461 0.83193 0.23104
0.89203 0.81901 0.22307
0.89025 0.80738 0.21361
0.88855 0.7955 0.201
0.88658 0.78034 0.18117
0.88442 0.76256 0.15054
0.88343 0.74689 0.11314
0.08689 0.87505 0.29676
0.09187 0.87551 0.2953
0.10338 0.87666 0.29169
0.119 0.87837 0.28625
0.13723 0.88058 0.27918
0.1571 0.88322 0.27072
0.17796 0.88622 0.26123
0.19934 0.88949 0.25128
0.2208 0.89288 0.24187
0.24184 0.89617 0.23439
0.26168 0.89905 0.23041
0.27908 0.90122 0.23064
0.29168 0.90272 0.23332
0.29478 0.90281 0.2344
0.31248 0.90135 0.23421
0.3966 0.90371 0.23743
0.50725 0.90513 0.24018
0.60658 0.90418 0.24411
0.6909 0.90505 0.24562
0.76011 0.90621 0.24937
0.81918 0.90538 0.25157
0.86495 0.90274 0.25215
0.88984 0.89453 0.25047
0.90073 0.88398 0.24751
0.9016 0.8724 0.24427
0.89895 0.86055 0.23958
0.89646 0.8484 0.23399
0.89483 0.83675 0.22646
0.89298 0.82519 0.21609
0.89143 0.81291 0.20088
0.88938 0.79748 0.17677
0.88822 0.78217 0.14702
0.05586 0.88296 0.3046
0.06254 0.88333 0.30317
0.07707 0.88426 0.29963
0.09557 0.88563 0.29428
0.11615 0.88738 0.28729
0.13788 0.88943 0.27886
0.16025 0.8917 0.26925
0.18292 0.8941 0.25891
0.2056 0.8965 0.24861
0.22794 0.89874 0.2395
0.24939 0.90065 0.23307
0.26901 0.90211 0.23058
0.2851 0.90307 0.23175
0.29504 0.90353 0.23385
0.29647 0.90362 0.23388
0.34369 0.90822 0.2362
0.45196 0.9161 0.24211
0.56147 0.91862 0.24594
0.65566 0.91945 0.24931
0.73292 0.92213 0.25106
0.79729 0.92336 0.25482
0.85131 0.92338 0.25606
0.88719 0.92053 0.25646
0.90291 0.91194 0.25465
0.90766 0.90238 0.25102
0.90504 0.89011 0.24685
0.90242 0.87853 0.24221
0.90127 0.86756 0.23689
0.89875 0.85492 0.22815
0.89707 0.84326 0.2158
0.89462 0.82968 0.19657
0.89303 0.81526 0.17255
0.0 0.8885 0.313
0.0 0.88879 0.3116
0.03384 0.8895 0.30812
0.06217 0.89054 0.30287
0.08813 0.89185 0.29597
0.11329 0.89336 0.28759
0.13808 0.895 0.27792
0.16263 0.89668 0.2673
0.18694 0.89833 0.25633
0.21092 0.89983 0.24593
0.23427 0.90112 0.23743
0.25641 0.90217 0.2323
0.2761 0.903 0.23131
0.29124 0.90376 0.23337
0.29599 0.90409 0.23473
0.30806 0.9053 0.23493
0.39199 0.91293 0.2398
0.50869 0.92211 0.24553
0.61341 0.92885 0.25026
0.70126 0.93234 0.25307
0.77348 0.93541 0.25561
0.83422 0.93844 0.25875
0.88061 0.9399 0.25994
0.90316 0.93597 0.2597
0.90816 0.92639 0.25739
0.9075 0.91562 0.25369
0.90599 0.90455 0.24896
0.90643 0.89659 0.24421
0.90454 0.88494 0.23748
0.90317 0.87321 0.22715
0.90057 0.86034 0.21146
0.89828 0.84638 0.19304
0.0 0.89276 0.32279
0.0 0.89298 0.32143
0.0 0.8935 0.31805
0.0 0.89425 0.31292
0.0489 0.89519 0.30618
0.08252 0.89625 0.29792
0.11155 0.89738 0.2883
0.13878 0.8985 0.27755
0.16507 0.89957 0.26609
0.19074 0.90051 0.25464
0.21585 0.9013 0.24425
0.24013 0.90193 0.23634
0.2628 0.90246 0.23218
0.28213 0.90294 0.23195
0.2947 0.90333 0.23372
0.2952 0.90333 0.23377
0.3384 0.90742 0.23543
0.44632 0.91712 0.24313
0.56527 0.92989 0.24836
0.66466 0.93852 0.25372
0.74485 0.94201 0.25586
0.81251 0.94559 0.2586
0.86695 0.94931 0.261
0.89911 0.9494 0.26111
0.90797 0.94411 0.25972
0.90823 0.93707 0.25773
0.90748 0.92687 0.25416
0.90724 0.91869 0.24918
0.90619 0.91017 0.24317
0.90594 0.90003 0.2351
0.90462 0.88812 0.22278
0.90297 0.87486 0.21164
0.0 0.89669 0.33479
0.0 0.89684 0.3335
0.0 0.89721 0.33026
0.0 0.89774 0.32536
