LUTs/velvia tone curve.cube
#proPhotoRGB
LUT_1D_SIZE 32
0.0 0.0 0.0
0.0 0.0 0.0
0.00707 0.00707 0.00707
0.02546 0.02546 0.02546
0.06968 0.06968 0.06968
0.13728 0.13728 0.13728
0.21593 0.21593 0.21593
0.28723 0.28723 0.28723
0.35281 0.35281 0.35281
0.41051 0.41051 0.41051
0.46092 0.46092 0.46092
0.50786 0.50786 0.50786
0.55355 0.55355 0.55355
0.59573 0.59573 0.59573
0.63425 0.63425 0.63425
0.67422 0.67422 0.67422
0.71319 0.71319 0.71319
0.75225 0.75225 0.75225
0.79447 0.79447 0.79447
0.83715 0.83715 0.83715
0.87362 0.87362 0.87362
0.90788 0.90788 0.90788
0.93613 0.93613 0.93613
0.95942 0.95942 0.95942
0.9748 0.9748 0.9748
0.98446 0.98446 0.98446
0.99205 0.99205 0.99205
0.99621 0.99621 0.99621
0.99681 0.99681 0.99681
0.99798 0.99798 0.99798
0.99887 0.99887 0.99887
1.0 1.0 1.0
