LUTs/velvia.cube
#proPhotoRGB
LUT_3D_SIZE 32
0.0 0.0 0.0
0.00815 0.0 0.0
0.03121 0.00729 0.0
0.08441 0.02971 0.0
0.17579 0.06432 0.0
0.28325 0.10574 0.0083
0.3848 0.1457 0.01837
0.47505 0.17988 0.01047
0.55646 0.20981 0.0
0.63204 0.23697 0.0
0.70036 0.26017 0.02933
0.75756 0.27833 0.06737
0.79664 0.28916 0.1089
0.81925 0.29199 0.1509
0.83368 0.29003 0.19182
0.84401 0.28537 0.23285
0.85111 0.27928 0.27447
0.85574 0.27208 0.31668
0.85937 0.26401 0.36021
0.8629 0.25514 0.40394
0.86639 0.2449 0.44563
0.86975 0.23286 0.48398
0.87293 0.21851 0.51851
0.87591 0.20127 0.54896
0.87873 0.18033 0.57479
0.88138 0.15473 0.59537
0.88392 0.1234 0.61054
0.88642 0.08445 0.62078
0.88895 0.02664 0.62683
0.89163 0.0 0.62955
0.89467 0.0 0.63008
0.89831 0.0 0.62982
0.0 0.00369 0.0
0.00125 0.00068 0.0
0.01983 0.00493 0.0
0.07228 0.02721 0.0
0.16732 0.06247 0.00458
0.27882 0.10511 0.01581
0.3827 0.14599 0.02502
0.47415 0.18059 0.01942
0.55635 0.2108 0.0
0.63247 0.23817 0.0
0.7011 0.26152 0.02353
0.75851 0.27983 0.062
0.79743 0.29076 0.10384
0.81971 0.29353 0.14594
0.83389 0.2914 0.18668
0.84404 0.28647 0.2275
0.85099 0.28017 0.26906
0.85549 0.27289 0.31137
0.85903 0.26487 0.35519
0.86252 0.25611 0.39927
0.86598 0.24602 0.44129
0.86935 0.23414 0.47993
0.87252 0.21997 0.51473
0.87551 0.20292 0.54544
0.87833 0.18219 0.57153
0.88099 0.15684 0.59232
0.88354 0.12587 0.60769
0.88606 0.08765 0.6181
0.8886 0.03377 0.62432
0.89131 0.0 0.62722
0.89437 0.0 0.62792
0.89803 0.0 0.62783
0.0 0.01265 0.0
0.0 0.00566 0.0
0.00868 0.00672 0.0
0.03926 0.01631 0.0
0.13589 0.05209 0.0116
0.26163 0.09991 0.0236
0.37473 0.14473 0.03593
0.47064 0.18124 0.03441
0.55585 0.21271 0.01957
0.63353 0.24083 0.0
0.70291 0.26459 0.00803
0.76081 0.28335 0.04891
0.79938 0.29465 0.0915
0.82089 0.29735 0.13367
0.83447 0.29481 0.17379
0.84414 0.28917 0.21388
0.85068 0.28229 0.25516
0.85485 0.27481 0.29773
0.85818 0.26691 0.34229
0.86156 0.25847 0.38729
0.86497 0.24875 0.43015
0.86831 0.23727 0.46954
0.87148 0.22354 0.50505
0.87448 0.20697 0.53646
0.87732 0.18676 0.56319
0.88 0.16201 0.58455
0.88259 0.13187 0.6004
0.88515 0.09527 0.61127
0.88773 0.04782 0.61794
0.89049 0.0 0.62129
0.89361 0.0 0.62244
0.89733 0.0 0.62282
0.0 0.0322 0.00666
0.0 0.02563 0.0009
0.00579 0.02062 0.00456
0.02642 0.02256 0.0071
0.0771 0.03513 0.00687
0.19869 0.07708 0.0193
0.33803 0.13142 0.03842
0.45382 0.17627 0.04602
0.55124 0.21284 0.03909
0.6338 0.2433 0.02069
0.70491 0.26815 0.0
0.76366 0.2878 0.02846
0.80209 0.3 0.07295
0.8228 0.30296 0.11505
0.83552 0.3 0.15385
0.84438 0.29324 0.19235
0.85023 0.28532 0.23284
0.85384 0.27745 0.27575
0.85685 0.26976 0.32158
0.86006 0.26183 0.36811
0.86339 0.2527 0.41235
0.8667 0.24186 0.45298
0.86986 0.22882 0.48964
0.87288 0.21299 0.52218
0.87575 0.19356 0.54996
0.87847 0.16966 0.57224
0.88111 0.14064 0.58889
0.88373 0.10607 0.60049
0.88639 0.06448 0.6079
0.88922 0.0 0.61199
0.89243 0.0 0.6139
0.89626 0.0 0.61503
0.0 0.06879 0.01841
0.0 0.0629 0.01413
0.01643 0.0519 0.01317
0.0209 0.05365 0.01369
0.07156 0.0599 0.01764
0.14992 0.0731 0.01848
0.26937 0.10992 0.03205
0.38977 0.15453 0.04753
0.51898 0.20231 0.05127
0.62222 0.2409 0.03864
0.70117 0.26937 0.0
0.76363 0.29117 0.0
0.80414 0.3054 0.04504
0.82527 0.30964 0.08846
0.83723 0.30679 0.12587
0.84483 0.29879 0.16188
0.84965 0.28928 0.20075
0.85249 0.28071 0.24405
0.85505 0.27326 0.29187
0.85803 0.266 0.34073
0.86124 0.25767 0.38705
0.8645 0.24768 0.42949
0.86766 0.23557 0.46787
0.87071 0.22074 0.50205
0.87362 0.20232 0.53137
0.87639 0.17946 0.55499
0.8791 0.15174 0.57278
0.8818 0.11928 0.58548
0.88456 0.08248 0.59397
0.88751 0.04066 0.59916
0.89085 0.0 0.60216
0.89482 0.0 0.60441
0.0 0.12583 0.03455
0.00938 0.12172 0.03007
0.02735 0.11274 0.02417
0.0329 0.11064 0.02504
0.0524 0.11293 0.02616
0.14475 0.12033 0.03295
0.24361 0.13312 0.03759
0.34772 0.15634 0.05071
0.45064 0.18684 0.05655
0.57286 0.22871 0.05552
0.67132 0.26383 0.03163
0.74818 0.29056 0.0
0.7994 0.30914 0.0
0.82616 0.31659 0.0457
0.83918 0.31517 0.08521
0.84546 0.30665 0.11963
0.84897 0.29526 0.15632
0.85082 0.28532 0.20016
0.85282 0.27779 0.25104
0.85548 0.27114 0.30336
0.85852 0.26366 0.35267
0.86173 0.25466 0.39774
0.86488 0.2437 0.43856
0.86795 0.23009 0.4751
0.87091 0.21289 0.50656
0.87374 0.19123 0.53203
0.87653 0.16488 0.55143
0.87935 0.13444 0.56564
0.88224 0.10147 0.57567
0.88534 0.069 0.5824
0.88885 0.04365 0.58695
0.89301 0.03945 0.59074
0.03166 0.19556 0.05605
0.03773 0.19308 0.05215
0.04916 0.18738 0.04615
0.05955 0.18307 0.04676
0.06258 0.19082 0.04887
0.10438 0.18737 0.04903
0.23846 0.19708 0.05525
0.33345 0.20151 0.06237
0.42531 0.21353 0.06651
0.52032 0.23448 0.06831
0.61303 0.26142 0.06206
0.70089 0.28819 0.03519
0.77329 0.3117 0.0
0.81761 0.32475 0.0
0.83867 0.32665 0.0081
0.84591 0.31925 0.05739
0.84831 0.3067 0.09511
0.84902 0.29436 0.14054
0.85028 0.28542 0.19613
0.8525 0.27844 0.2534
0.85528 0.27131 0.30699
0.85838 0.2631 0.35576
0.86151 0.25332 0.40005
0.8646 0.24111 0.43986
0.86761 0.22529 0.47428
0.87051 0.2049 0.50227
0.8734 0.1799 0.52385
0.87635 0.15133 0.54015
0.87941 0.12143 0.55229
0.8827 0.09426 0.56115
0.88643 0.07632 0.56782
0.89082 0.0744 0.57371
0.05805 0.26937 0.07886
0.06236 0.26826 0.07522
0.07164 0.26587 0.06876
0.08223 0.2635 0.06653
0.08735 0.266 0.06848
0.0926 0.26694 0.06933
0.18406 0.26154 0.07017
0.32259 0.26931 0.07754
0.41302 0.271 0.08147
0.49396 0.27664 0.08311
0.5759 0.28863 0.08323
0.6497 0.30238 0.07508
0.72437 0.32127 0.05069
0.78893 0.33788 0.0
0.82939 0.34474 0.0
0.84522 0.34041 0.0
0.84818 0.32835 0.0
0.84771 0.31355 0.05524
0.84786 0.30104 0.12317
0.84932 0.29129 0.18786
0.85169 0.28274 0.24727
0.85459 0.27424 0.30108
0.85763 0.26518 0.35019
0.86072 0.25423 0.3945
0.86375 0.23976 0.43292
0.8667 0.22063 0.46429
0.8697 0.1969 0.48881
0.8728 0.16996 0.50793
0.87605 0.14252 0.52293
0.87956 0.11893 0.53468
0.88356 0.1047 0.54424
0.88825 0.1038 0.55294
0.08093 0.33933 0.10133
0.08445 0.33889 0.09779
0.09239 0.33797 0.0908
0.10221 0.33714 0.08583
0.10986 0.33793 0.08652
0.11226 0.34259 0.08779
0.13477 0.33145 0.08582
0.26888 0.32794 0.08951
0.39691 0.33629 0.09638
0.47966 0.33805 0.10039
0.55054 0.34126 0.10123
0.6247 0.34438 0.09913
0.68851 0.35099 0.08881
0.75141 0.36247 0.06746
0.80656 0.37137 0.0331
0.84046 0.37196 0.0
0.8494 0.36188 0.0
0.84816 0.34615 0.0
0.84651 0.32975 0.0
0.84665 0.315 0.10159
0.84822 0.3022 0.17054
0.85067 0.29108 0.23107
0.85348 0.28118 0.28656
0.85647 0.2706 0.33684
0.85944 0.25704 0.38055
0.8624 0.23889 0.41638
0.86549 0.21619 0.44478
0.86873 0.19061 0.46766
0.87218 0.16511 0.48649
0.87595 0.14408 0.50213
0.88026 0.13218 0.51553
0.88529 0.13188 0.52795
0.10095 0.40366 0.12261
0.10403 0.40356 0.11915
0.11116 0.40336 0.11189
0.12052 0.40322 0.10528
0.12964 0.40332 0.10421
0.13353 0.40631 0.10643
0.13754 0.40402 0.10583
0.20745 0.39044 0.10381
0.34923 0.38946 0.10782
0.46115 0.39659 0.11428
0.53874 0.40101 0.11689
0.60535 0.40048 0.11723
0.66998 0.39934 0.11245
0.72835 0.40207 0.10252
0.78414 0.40641 0.08885
0.82955 0.40981 0.05937
0.85138 0.40422 0.0
0.85143 0.38899 0.0
0.84763 0.37081 0.0
0.84571 0.35219 0.0
0.84582 0.33419 0.06593
0.84733 0.31816 0.14229
0.84956 0.30483 0.20675
0.85219 0.29258 0.26469
0.85495 0.27863 0.31513
0.8578 0.26071 0.35667
0.8609 0.23856 0.39008
0.86425 0.21388 0.41787
0.86787 0.18977 0.44173
0.87191 0.17051 0.46249
0.87655 0.16011 0.48098
0.88199 0.16006 0.49827
0.1176 0.4623 0.14176
0.12034 0.46238 0.1383
0.12675 0.4626 0.1307
0.13538 0.46296 0.12245
0.14448 0.46351 0.11815
0.15061 0.46525 0.11941
0.15076 0.46651 0.12026
0.17105 0.45375 0.11762
0.28626 0.44324 0.11751
0.42267 0.44436 0.12334
0.5216 0.45318 0.12922
0.59488 0.45419 0.13218
0.65544 0.45227 0.12946
0.71248 0.4489 0.12547
0.77215 0.4493 0.12012
0.82111 0.4499 0.1068
0.8527 0.44752 0.07798
0.85697 0.43526 0.0
0.85178 0.41782 0.0
0.84766 0.39879 0.0
0.84575 0.37839 0.0
0.84569 0.35809 0.0
0.84679 0.33972 0.10433
0.8486 0.32334 0.17525
0.85079 0.3069 0.23459
0.85328 0.2878 0.28331
0.85622 0.26529 0.32301
0.85955 0.24082 0.35703
0.86328 0.21736 0.38733
0.86753 0.19906 0.41473
0.87252 0.18938 0.43984
0.87837 0.18914 0.46341
0.13184 0.51551 0.15932
0.13435 0.51567 0.15592
0.14028 0.51604 0.14823
0.14847 0.51653 0.13915
0.15771 0.51713 0.13282
0.16567 0.51822 0.13256
0.16752 0.51947 0.13468
0.17118 0.51355 0.1337
0.23354 0.49693 0.13092
0.36407 0.49009 0.13317
0.4858 0.49378 0.13794
0.57725 0.49813 0.14262
0.64446 0.49852 0.14346
0.69998 0.49431 0.14055
0.756 0.48997 0.14026
0.81303 0.48826 0.13417
0.85291 0.48654 0.12003
0.86351 0.47729 0.08973
0.8576 0.46247 0.02261
0.85217 0.44622 0.0
0.84858 0.42775 0.0
0.84675 0.40713 0.0
0.84624 0.38562 0.0
0.84667 0.36465 0.04798
0.84778 0.34411 0.13401
0.84951 0.32224 0.19376
0.85194 0.29814 0.24174
0.85501 0.27284 0.28359
0.85865 0.24902 0.32199
0.86302 0.23065 0.35786
0.86828 0.22076 0.39146
0.87454 0.2197 0.42298
0.14434 0.56394 0.17582
0.14669 0.56414 0.17251
0.15231 0.56458 0.16485
0.16021 0.56511 0.15528
0.16956 0.56555 0.14732
0.17921 0.56615 0.14502
0.18627 0.56823 0.14803
0.18481 0.56983 0.14906
0.19511 0.55525 0.14519
0.29553 0.53746 0.14269
0.43465 0.53392 0.14578
0.5467 0.53587 0.15031
0.62704 0.53561 0.15305
0.68925 0.53329 0.15534
0.74192 0.5284 0.15478
0.79777 0.52406 0.15147
0.84613 0.5201 0.14601
0.86771 0.51157 0.12884
0.86312 0.49946 0.09744
0.85725 0.48652 0.04206
0.85303 0.47252 0.0
0.8503 0.45612 0.0
0.84835 0.4362 0.0
0.84721 0.41375 0.0
0.84685 0.39005 0.0
0.84731 0.36502 0.07322
0.84876 0.33847 0.14122
0.85116 0.3113 0.19496
0.85441 0.28592 0.24413
0.85865 0.26618 0.29092
0.86404 0.25491 0.33533
0.87063 0.25219 0.37678
0.15548 0.60826 0.19183
0.1577 0.60849 0.18861
0.16302 0.60899 0.18105
0.17055 0.60958 0.17111
0.17953 0.61006 0.16161
0.18903 0.6103 0.15622
0.19751 0.61127 0.15679
0.20167 0.61306 0.15906
0.19932 0.61457 0.15926
0.23452 0.59031 0.15375
0.36808 0.57498 0.15313
0.49805 0.57044 0.15695
0.59698 0.56623 0.16042
0.67115 0.56451 0.16285
0.73179 0.56376 0.16541
0.78459 0.55903 0.16535
0.83338 0.55303 0.162
0.86437 0.54298 0.15387
0.86626 0.52883 0.13395
0.86142 0.51779 0.10348
0.85718 0.50694 0.05358
0.85455 0.496 0.0
0.85222 0.48181 0.0
0.8501 0.463 0.0
0.8484 0.44007 0.0
0.84736 0.414 0.0
0.8474 0.38572 0.0
0.84864 0.35645 0.07542
0.85106 0.32864 0.14917
0.85481 0.30625 0.2124
0.86007 0.29226 0.27104
0.86683 0.28683 0.32487
0.16595 0.64966 0.20778
0.16809 0.64994 0.20471
0.17324 0.65057 0.1974
0.18058 0.65132 0.18751
0.18947 0.65196 0.17727
0.19921 0.65224 0.16997
0.20858 0.65204 0.16847
0.21552 0.65288 0.17115
0.21645 0.65388 0.17173
0.21631 0.64745 0.17042
0.29397 0.61746 0.16387
0.43606 0.60249 0.16371
0.55281 0.5971 0.16707
0.64245 0.59327 0.16904
0.71381 0.59379 0.17244
0.77316 0.59117 0.17432
0.8249 0.5861 0.1731
0.85642 0.57558 0.16911
0.86567 0.5591 0.1568
0.86428 0.54346 0.13703
0.86061 0.53205 0.109
0.85807 0.52404 0.06238
0.85604 0.51571 0.0
0.85394 0.50373 0.0
0.85173 0.48633 0.0
0.84958 0.46335 0.0
0.84822 0.43618 0.0
0.84798 0.40627 0.0
0.84912 0.37632 0.0
0.85193 0.35057 0.11548
0.85668 0.3327 0.19775
0.86334 0.32357 0.26758
0.17586 0.6894 0.22348
0.17795 0.68979 0.22057
0.18297 0.6907 0.21358
0.19016 0.69191 0.20386
0.19889 0.69317 0.19313
0.20851 0.69423 0.18401
0.21802 0.69482 0.17941
0.22544 0.69479 0.17976
0.22758 0.69566 0.18066
0.22665 0.69551 0.18066
0.24888 0.67485 0.1764
0.36793 0.64305 0.17108
0.50061 0.62738 0.17169
0.60484 0.62235 0.17488
0.688 0.62208 0.17796
0.75597 0.62124 0.18127
0.81353 0.61698 0.18148
0.85018 0.6079 0.1781
0.86321 0.59157 0.17144
0.86599 0.57289 0.15836
0.86347 0.55507 0.14067
0.86085 0.54407 0.11301
0.85895 0.53818 0.06834
0.85716 0.53202 0.0
0.85531 0.52207 0.0
0.85293 0.5059 0.0
0.85077 0.48379 0.0
0.84923 0.45637 0.0
0.84888 0.42612 0.0
0.85037 0.39756 0.0
0.85418 0.37538 0.11035
0.8604 0.36189 0.20538
0.18527 0.72759 0.23881
0.18734 0.72814 0.23608
0.19234 0.72946 0.22949
0.19951 0.73128 0.22016
0.20825 0.73334 0.20943
0.21795 0.73532 0.19936
0.22777 0.73676 0.19261
0.23625 0.73719 0.19088
0.24054 0.73682 0.19213
0.23895 0.73701 0.19272
0.24583 0.7279 0.19084
0.31408 0.69517 0.18387
0.43935 0.66941 0.18055
0.55885 0.65719 0.18215
0.65564 0.65396 0.1847
0.7335 0.65018 0.18661
0.79798 0.64756 0.18873
0.84196 0.64014 0.18681
0.86256 0.62704 0.18185
0.86779 0.60696 0.1734
0.8658 0.58525 0.16153
0.86296 0.5665 0.14308
0.861 0.55576 0.11569
0.85928 0.5506 0.07177
0.85794 0.54592 0.0
0.85603 0.53712 0.0
0.8539 0.5227 0.0
0.85173 0.50121 0.0
0.85016 0.47365 0.0
0.85021 0.4442 0.0
0.85274 0.41847 0.0
0.85818 0.4007 0.13807
0.19376 0.76362 0.25346
0.19585 0.76436 0.25093
0.2009 0.76617 0.24478
0.20818 0.76876 0.23598
0.21711 0.77187 0.22558
0.22714 0.77516 0.21519
0.23759 0.77811 0.20707
0.24744 0.78002 0.20334
0.25485 0.78026 0.20378
0.25687 0.78068 0.20504
0.25306 0.78053 0.20488
0.27322 0.75718 0.19902
0.37596 0.71687 0.19058
0.50344 0.69658 0.18914
0.61522 0.68829 0.19062
0.70572 0.68455 0.19292
0.77779 0.67876 0.19606
0.83237 0.67414 0.19645
0.8617 0.66185 0.1925
0.87077 0.64514 0.1863
0.8688 0.62311 0.17723
0.86533 0.59911 0.16386
0.86293 0.57995 0.14502
0.86086 0.56803 0.11748
0.85945 0.56192 0.07646
0.85809 0.55736 0.0
0.85646 0.55019 0.0
0.85442 0.53638 0.0
0.85228 0.51427 0.0
0.85119 0.48667 0.0
0.85237 0.45935 0.0
0.85677 0.4384 0.05908
0.20053 0.7961 0.26697
0.20264 0.79704 0.26462
0.20777 0.79934 0.2589
0.21518 0.80271 0.25064
0.22434 0.80692 0.24066
0.23471 0.81165 0.23023
0.24566 0.81641 0.22116
0.25633 0.82043 0.2155
0.26541 0.82267 0.21421
0.27092 0.82316 0.21544
0.2705 0.82558 0.21637
0.26777 0.81797 0.21449
0.31776 0.77621 0.20427
0.44174 0.73995 0.19837
0.56257 0.72507 0.19858
0.66705 0.71905 0.20036
0.75139 0.71454 0.20367
0.81893 0.70781 0.20456
0.86021 0.69943 0.2034
0.87369 0.68391 0.19843
0.87243 0.66425 0.19142
0.86847 0.6394 0.1804
0.86581 0.61541 0.16657
0.86315 0.59469 0.14701
0.86091 0.58005 0.12059
0.85928 0.5719 0.08011
0.85802 0.56764 0.0
0.85649 0.56044 0.0
0.8544 0.54482 0.0
0.85275 0.52138 0.0
0.85282 0.49509 0.0
0.85615 0.47305 0.0
0.20474 0.82317 0.27892
0.20688 0.82424 0.27673
0.21207 0.82686 0.27138
0.2196 0.83077 0.2636
0.22896 0.83576 0.25406
0.23964 0.84156 0.24376
0.25109 0.84776 0.23416
0.2626 0.85366 0.22712
0.27316 0.8583 0.22415
0.28129 0.86081 0.22482
0.28481 0.86243 0.22628
0.28158 0.86432 0.22654
0.28832 0.84142 0.2208
0.37587 0.79213 0.20996
0.50494 0.76516 0.20725
0.6176 0.75459 0.20898
0.71483 0.74998 0.21112
0.79639 0.7453 0.21339
0.85495 0.73543 0.21301
0.87688 0.72248 0.2101
0.87682 0.70403 0.20417
0.87251 0.68188 0.19553
0.86976 0.6582 0.18445
0.86656 0.63269 0.16956
0.8635 0.60918 0.15023
0.86085 0.59162 0.12365
0.85908 0.58168 0.08269
0.85788 0.57582 0.0
0.85607 0.56509 0.0
0.85429 0.54644 0.0
0.8537 0.52343 0.0
0.85616 0.50302 0.0
0.20574 0.84337 0.28904
0.20789 0.84446 0.28697
0.2131 0.84715 0.28191
0.22067 0.85118 0.27449
0.23012 0.85634 0.26529
0.24095 0.86245 0.25508
0.25268 0.86917 0.24505
0.26472 0.87603 0.23681
0.2763 0.88236 0.23205
0.28631 0.88745 0.2314
0.29302 0.89072 0.23312
0.29349 0.893 0.23405
0.28855 0.88842 0.23261
0.32553 0.85053 0.22332
0.44225 0.81096 0.2164
0.56579 0.79331 0.2162
0.67028 0.78396 0.21847
0.76341 0.78051 0.22064
0.84064 0.7728 0.22202
0.87921 0.75861 0.21956
0.88166 0.742 0.21535
0.87753 0.72204 0.20856
0.87446 0.70143 0.19999
0.87069 0.6763 0.1883
0.86718 0.64841 0.17335
0.86369 0.6227 0.15361
0.86078 0.60295 0.12575
0.85916 0.59028 0.0839
0.8574 0.57892 0.0
0.85556 0.56318 0.0
0.85466 0.54426 0.0
0.8566 0.52781 0.0
0.20334 0.85664 0.2974
0.20547 0.85765 0.29543
0.21066 0.86014 0.29057
0.2182 0.86385 0.2834
0.22761 0.86859 0.27439
0.23842 0.87416 0.26416
0.25017 0.88028 0.25366
0.26237 0.88655 0.24424
0.27438 0.89244 0.23754
0.2854 0.89738 0.23479
0.29427 0.90098 0.23556
0.29913 0.90296 0.23723
0.29662 0.90418 0.23729
0.29469 0.89494 0.23469
0.37449 0.85931 0.22706
0.50588 0.83271 0.22421
0.62156 0.82019 0.2254
0.72062 0.81131 0.22753
0.81316 0.80764 0.22924
0.87411 0.79482 0.22885
0.88423 0.77615 0.22456
0.88175 0.75847 0.21966
0.87892 0.73958 0.21299
0.87517 0.71838 0.20399
0.87182 0.69207 0.19233
0.86772 0.66261 0.17669
0.86364 0.63503 0.15595
0.86102 0.61316 0.12727
0.8588 0.59496 0.08534
0.85678 0.57747 0.0
0.8557 0.56087 0.0
0.85741 0.54908 0.0
0.19785 0.8644 0.30447
0.19997 0.86528 0.30256
0.20513 0.86744 0.29786
0.21263 0.87063 0.29087
0.22199 0.87467 0.28199
0.23274 0.87937 0.27172
0.24445 0.88444 0.26079
0.25665 0.88954 0.25031
0.26881 0.8942 0.24173
0.28025 0.89794 0.2365
0.29004 0.90038 0.23512
0.29681 0.90158 0.23619
0.29763 0.90216 0.23661
0.29223 0.90252 0.23624
0.31932 0.8947 0.23481
0.43855 0.87422 0.2327
0.56677 0.85527 0.23195
0.6729 0.84335 0.23338
0.76978 0.83619 0.23497
0.8529 0.82828 0.23558
0.88481 0.81021 0.23303
0.88508 0.79147 0.22802
0.88305 0.77384 0.2231
0.8795 0.75463 0.2159
0.87665 0.73293 0.20807
0.87263 0.70548 0.19596
0.86779 0.67508 0.17961
0.86412 0.64688 0.15867
0.86105 0.6214 0.12947
0.85866 0.59845 0.0897
0.85733 0.58022 0.03623
0.85884 0.57094 0.02072
0.18981 0.86868 0.31084
0.19194 0.86943 0.30899
0.19712 0.87126 0.30442
0.20464 0.87396 0.29761
0.21403 0.87737 0.28887
0.22484 0.88129 0.27862
0.23664 0.88551 0.26745
0.24903 0.88975 0.25624
0.26154 0.89369 0.24625
0.27363 0.89696 0.23894
0.28456 0.89932 0.23537
0.29319 0.90069 0.23518
0.29743 0.90131 0.23605
0.29486 0.90173 0.23602
0.29314 0.90248 0.2364
0.36539 0.89966 0.23728
0.50262 0.88619 0.23761
0.62197 0.87032 0.23764
0.72338 0.86105 0.23977
0.8185 0.85502 0.24091
0.87663 0.84196 0.24017
0.8873 0.82239 0.23584
0.88699 0.80482 0.23085
0.88421 0.78734 0.22576
0.88108 0.76795 0.22001
0.87738 0.74484 0.21175
0.87283 0.7175 0.19916
0.8687 0.68828 0.18317
0.86504 0.65923 0.16184
0.86223 0.63185 0.13334
0.86044 0.60953 0.0999
0.86144 0.59883 0.08432
0.17961 0.87104 0.31707
0.18177 0.87169 0.31528
0.18703 0.87326 0.31085
0.19467 0.87558 0.30422
0.20421 0.87849 0.29567
0.21523 0.88186 0.28553
0.22731 0.88551 0.27427
0.24009 0.88923 0.26263
0.25317 0.8928 0.25166
0.2661 0.89599 0.24272
0.27829 0.89859 0.23712
0.28885 0.90049 0.23533
0.29626 0.90164 0.23605
0.29765 0.90201 0.23641
0.29323 0.90194 0.2361
0.30344 0.90237 0.23782
0.42615 0.90516 0.23949
0.56306 0.89426 0.24097
0.67404 0.88192 0.24203
0.77537 0.87495 0.24479
0.85994 0.86937 0.24517
0.88717 0.85042 0.24295
0.88943 0.83139 0.23804
0.88848 0.81558 0.23262
0.88594 0.79808 0.22816
0.88201 0.77883 0.22296
0.87803 0.75628 0.2144
0.87448 0.73116 0.20239
0.87078 0.70319 0.18638
0.86779 0.67496 0.16505
0.86545 0.64991 0.13924
0.8656 0.63537 0.12362
0.16744 0.87243 0.32366
0.16965 0.87298 0.32193
0.17504 0.87435 0.31764
0.18288 0.87637 0.3112
0.19267 0.87891 0.30286
0.20399 0.88187 0.29289
0.21645 0.88509 0.28166
0.22972 0.88843 0.26975
0.24342 0.89172 0.25803
0.25719 0.89475 0.24769
0.27048 0.89735 0.24002
0.28254 0.89934 0.23596
0.29213 0.9006 0.23523
0.29753 0.90112 0.23593
0.29646 0.90113 0.2357
0.29249 0.90095 0.23592
0.33695 0.90411 0.23871
0.49125 0.91218 0.24255
0.62013 0.8998 0.24384
0.72634 0.8915 0.24616
0.82422 0.88487 0.24842
0.87997 0.87183 0.24738
0.89042 0.85361 0.24386
0.8904 0.83748 0.23882
0.88993 0.82302 0.23399
0.88713 0.80678 0.22931
0.88333 0.78906 0.22437
0.88052 0.76954 0.21626
0.87752 0.74635 0.20412
0.87444 0.71994 0.18791
0.87163 0.69511 0.16785
0.87096 0.67762 0.15423
0.1535 0.87332 0.33118
0.15579 0.87381 0.32951
0.16135 0.87501 0.32537
0.16943 0.87679 0.31913
0.17952 0.87903 0.31102
0.19118 0.88165 0.30125
0.20406 0.88454 0.29011
0.21783 0.88757 0.27807
0.23219 0.89061 0.26582
0.24682 0.89353 0.25432
0.2613 0.89617 0.24483
0.27502 0.89841 0.2385
0.28701 0.90017 0.23586
0.29583 0.90143 0.23615
0.29871 0.90193 0.23672
0.2943 0.90157 0.23629
0.29309 0.9013 0.23755
0.40462 0.91111 0.2407
0.55522 0.91375 0.2452
0.67545 0.90198 0.24622
0.78163 0.89744 0.24917
0.8633 0.88955 0.25004
0.8891 0.8724 0.24736
0.89145 0.85509 0.24355
0.8914 0.84097 0.23945
0.89037 0.82785 0.23443
0.88834 0.81443 0.22983
0.886 0.8002 0.22441
0.88371 0.78304 0.21583
0.88087 0.76059 0.20377
0.87775 0.73754 0.18851
0.8767 0.71948 0.17911
0.13838 0.87403 0.34028
0.14075 0.87446 0.33867
0.1465 0.87552 0.33469
0.15483 0.87709 0.32869
0.1652 0.87908 0.32085
0.17717 0.88141 0.31134
0.1904 0.884 0.3004
0.20458 0.88675 0.28835
0.21945 0.88956 0.27572
0.23476 0.89231 0.26329
0.25019 0.89488 0.25209
0.26525 0.89716 0.2433
0.27914 0.89899 0.23783
0.29052 0.90025 0.23576
0.29738 0.9008 0.23584
0.29688 0.90078 0.23545
0.29022 0.90023 0.23541
0.31106 0.90137 0.2381
0.47449 0.91659 0.24297
0.61535 0.91237 0.2467
0.73244 0.90466 0.24802
0.83411 0.90036 0.25109
0.88524 0.88651 0.24982
0.89219 0.86949 0.24588
0.8919 0.85445 0.24253
0.89114 0.84258 0.2387
0.8907 0.83157 0.2344
0.88949 0.82066 0.22922
0.88779 0.80948 0.22223
0.88584 0.79392 0.21409
0.88304 0.7737 0.20394
0.88231 0.75653 0.20184
0.12364 0.87477 0.35163
0.12608 0.87515 0.35011
0.13199 0.87609 0.34633
0.14051 0.87747 0.34063
