LUTs/velvia.cube
#proPhotoRGB
LUT_3D_SIZE 5
DOMAIN_MIN 0.000000 0.000000 0.000000
DOMAIN_MAX 0.903226 0.903226 0.903226
0.0 0.0 0.0
0.47505 0.17988 0.01047
0.83368 0.29003 0.19182
0.86975 0.23286 0.48398
0.88895 0.02664 0.62683
0.05805 0.26937 0.07886
0.32259 0.26931 0.07754
0.82939 0.34474 0.0
0.85459 0.27424 0.30108
0.87605 0.14252 0.52293
0.16595 0.64966 0.20778
0.21552 0.65288 0.17115
0.71381 0.59379 0.17244
0.85807 0.52404 0.06238
0.84912 0.37632 0.0
0.20334 0.85664 0.2974
0.26237 0.88655 0.24424
0.37449 0.85931 0.22706
0.88175 0.75847 0.21966
0.8588 0.59496 0.08534
0.12364 0.87477 0.35163
0.19097 0.8861 0.30158
0.2943 0.90103 0.23653
0.79452 0.9057 0.24998
0.88914 0.82532 0.22575
0.10132 0.03881 0.33233
0.47291 0.18912 0.39775
0.85929 0.32355 0.47449
0.89062 0.29262 0.65908
0.90381 0.11502 0.73993
0.17747 0.32299 0.41727
0.28928 0.28667 0.28687
0.82096 0.38503 0.40373
0.87393 0.3363 0.51961
0.89026 0.19095 0.64937
0.22229 0.67146 0.37206
0.23287 0.6606 0.26099
0.64987 0.62532 0.24401
0.87278 0.61611 0.26592
0.85451 0.40818 0.17036
0.23558 0.85581 0.38652
0.2849 0.89021 0.29106
0.4898 0.85493 0.23126
0.89653 0.8505 0.26201
0.87928 0.7221 0.20447
0.14075 0.87432 0.40758
0.20489 0.88663 0.34677
0.29851 0.90175 0.23599
0.84532 0.9048 0.25748
0.90306 0.89046 0.25989
0.16888 0.10435 0.74963
0.41847 0.16785 0.90959
0.9438 0.3627 0.95401
0.94142 0.3368 0.95515
0.94173 0.22585 0.97267
0.29254 0.34136 0.90207
0.3876 0.35479 0.81438
0.81153 0.39632 0.79282
0.92159 0.37316 0.85797
0.93979 0.30092 0.95005
0.34362 0.67517 0.88617
0.37416 0.67243 0.8037
0.63644 0.63333 0.63271
0.92756 0.6874 0.69506
0.90736 0.56301 0.67733
0.30006 0.79214 0.75839
0.35667 0.82114 0.74588
0.52541 0.89117 0.59747
0.89414 0.90016 0.56075
0.93083 0.88515 0.59673
0.17918 0.85736 0.62485
0.23785 0.87427 0.58665
0.30236 0.90211 0.40291
0.82726 0.96864 0.52263
0.94176 1.0 0.55176
0.0 0.13793 0.91741
0.29041 0.12372 0.93804
0.86251 0.33954 0.95568
0.93498 0.34217 0.96162
0.93404 0.24535 0.97699
0.05442 0.31706 0.9401
0.3329 0.31648 0.94739
0.79725 0.38849 0.95618
0.93686 0.38894 0.9592
0.93245 0.3117 0.96373
0.23241 0.6334 0.97557
0.37997 0.67414 0.97092
0.70756 0.69952 0.97696
0.96533 0.7122 0.96717
0.96115 0.63085 0.96695
0.25363 0.71088 0.97557
0.35826 0.74552 0.9811
0.59016 0.92497 0.97053
0.90913 0.90738 0.90665
0.98563 0.93746 0.95479
0.19757 0.80847 0.89902
0.28087 0.82626 0.91562
0.43586 0.88678 0.95318
0.79152 0.96807 0.8797
0.97925 1.0 0.89034
0.0 0.1184 0.94241
0.13178 0.10713 0.94258
0.75671 0.29998 0.95093
0.9349 0.36109 0.95857
0.93253 0.25923 0.96028
0.0 0.23252 0.94646
0.0 0.20391 0.94507
0.7336 0.32142 0.95114
0.93493 0.37261 0.95824
0.9338 0.33947 0.95767
0.0 0.5333 0.96327
0.0 0.56327 0.96308
0.60459 0.6551 0.96961
0.96801 0.7498 0.98022
0.96125 0.67054 0.97503
0.0 0.75358 0.98075
0.11686 0.80349 0.98203
0.51083 0.91645 0.98651
0.93996 0.95417 0.99534
0.99637 0.96276 0.99751
0.15959 0.80852 0.97507
0.26486 0.82789 0.97856
0.48951 0.89117 0.98727
0.81743 0.97386 0.99742
0.99655 0.9968 0.99677
