LUTs/velvia.cube
#proPhotoRGB
LUT_3D_SIZE 8
DOMAIN_MIN 0.000000 0.000000 0.000000
DOMAIN_MAX 0.903226 0.903226 0.903226
0.0 0.0 0.0
0.17579 0.06432 0.0
0.55646 0.20981 0.0
0.79664 0.28916 0.1089
0.85111 0.27928 0.27447
0.86639 0.2449 0.44563
0.87873 0.18033 0.57479
0.88895 0.02664 0.62683
0.0 0.06879 0.01841
0.07156 0.0599 0.01764
0.51898 0.20231 0.05127
0.80414 0.3054 0.04504
0.84965 0.28928 0.20075
0.86124 0.25767 0.38705
0.87362 0.20232 0.53137
0.88456 0.08248 0.59397
0.08093 0.33933 0.10133
0.10986 0.33793 0.08652
0.39691 0.33629 0.09638
0.68851 0.35099 0.08881
0.8494 0.36188 0.0
0.84822 0.3022 0.17054
0.85944 0.25704 0.38055
0.87218 0.16511 0.48649
0.14434 0.56394 0.17582
0.16956 0.56555 0.14732
0.19511 0.55525 0.14519
0.62704 0.53561 0.15305
0.84613 0.5201 0.14601
0.85303 0.47252 0.0
0.84685 0.39005 0.0
0.85441 0.28592 0.24413
0.18527 0.72759 0.23881
0.20825 0.73334 0.20943
0.24054 0.73682 0.19213
0.43935 0.66941 0.18055
0.79798 0.64756 0.18873
0.8658 0.58525 0.16153
0.85794 0.54592 0.0
0.85016 0.47365 0.0
0.20574 0.84337 0.28904
0.23012 0.85634 0.26529
0.2763 0.88236 0.23205
0.28855 0.88842 0.23261
0.67028 0.78396 0.21847
0.88166 0.742 0.21535
0.86718 0.64841 0.17335
0.8574 0.57892 0.0
0.17961 0.87104 0.31707
0.20421 0.87849 0.29567
0.25317 0.8928 0.25166
0.29626 0.90164 0.23605
0.42615 0.90516 0.23949
0.85994 0.86937 0.24517
0.88594 0.79808 0.22816
0.87078 0.70319 0.18638
0.12364 0.87477 0.35163
0.15108 0.87923 0.33315
0.20604 0.88866 0.28886
0.26894 0.89793 0.24356
0.29569 0.90143 0.23622
0.67755 0.91129 0.24805
0.89154 0.86364 0.24215
0.88914 0.82532 0.22575
0.01775 0.0 0.08724
0.16223 0.06207 0.08451
0.53833 0.20562 0.11719
0.80217 0.29453 0.22518
0.85842 0.29904 0.36386
0.87343 0.26755 0.51293
0.88525 0.20286 0.6282
0.89404 0.06755 0.66728
0.03686 0.0801 0.11484
0.07018 0.06942 0.06975
0.52512 0.20869 0.15021
0.80348 0.30845 0.21698
0.85581 0.30559 0.3058
0.86774 0.27997 0.46009
0.87994 0.22417 0.58761
0.88959 0.10662 0.63603
0.10993 0.3576 0.15922
0.11461 0.35461 0.08948
0.3705 0.34178 0.09442
0.66996 0.37398 0.14156
0.85072 0.37482 0.13171
0.85182 0.3082 0.25131
0.86451 0.27435 0.43991
0.87655 0.17978 0.53035
0.16615 0.57509 0.21968
0.18263 0.57583 0.16218
0.23991 0.5474 0.13858
0.61023 0.5449 0.15889
0.82519 0.54268 0.16947
0.85666 0.50498 0.11524
0.84923 0.40702 0.08966
0.85678 0.29458 0.28241
0.20225 0.73344 0.27472
0.22249 0.73933 0.23356
0.24562 0.74135 0.19427
0.47788 0.67188 0.17823
0.79119 0.67006 0.19937
0.86981 0.6229 0.18766
0.86392 0.58626 0.11202
0.85332 0.50217 0.0
0.21938 0.84632 0.318
0.24293 0.86041 0.28915
0.28653 0.88961 0.23921
0.30768 0.86779 0.22623
0.69108 0.79397 0.21949
0.88809 0.77125 0.22583
0.87383 0.6895 0.19978
0.86347 0.61912 0.09746
0.19061 0.87166 0.34031
0.21467 0.87934 0.31636
0.26233 0.89405 0.26257
0.29913 0.90202 0.23648
0.48259 0.90182 0.23748
0.88442 0.88271 0.2467
0.89398 0.83129 0.23804
0.87801 0.74262 0.20885
0.1302 0.8751 0.37022
0.15719 0.8797 0.35056
0.21179 0.88943 0.30171
0.27518 0.89891 0.24745
0.30065 0.90215 0.23512
0.71192 0.91134 0.25043
0.8986 0.87079 0.24725
0.8943 0.84592 0.23812
0.12747 0.05101 0.4162
0.18385 0.07424 0.46293
0.56251 0.22242 0.51227
0.80726 0.31441 0.51954
0.88199 0.33589 0.58241
0.89388 0.31505 0.67909
0.90357 0.25422 0.76237
0.90831 0.13231 0.7712
0.15712 0.11961 0.46303
0.1876 0.12358 0.47806
0.50041 0.21007 0.48538
0.77464 0.30585 0.52684
0.8771 0.3436 0.56036
0.88825 0.33155 0.64339
0.89845 0.27694 0.73209
0.90414 0.16136 0.74638
0.21703 0.39869 0.50804
0.21941 0.39224 0.46798
0.35423 0.35219 0.35175
0.65398 0.41224 0.40589
0.869 0.42816 0.45617
0.87459 0.37231 0.50261
0.8827 0.33284 0.60937
0.89038 0.22293 0.65329
0.23653 0.60438 0.46187
0.24666 0.60219 0.42993
0.27441 0.54279 0.33446
0.54666 0.5471 0.29469
0.79989 0.58549 0.35062
0.87719 0.56045 0.37448
0.86384 0.44454 0.35051
0.86545 0.30993 0.39664
0.24543 0.73948 0.432
0.25934 0.74467 0.38999
0.26731 0.74172 0.31827
0.4839 0.69333 0.25778
0.73101 0.70123 0.28978
0.87909 0.70509 0.28867
0.87841 0.66901 0.29119
0.86232 0.56087 0.13903
0.2474 0.83908 0.42157
0.26711 0.85276 0.38646
0.29489 0.88601 0.28088
0.35249 0.8594 0.2422
0.68007 0.85892 0.25599
0.88397 0.83981 0.28854
0.89246 0.80517 0.27173
0.88208 0.74353 0.22905
0.21438 0.8677 0.41553
0.23661 0.87606 0.38753
0.27735 0.89284 0.30756
0.29674 0.90166 0.23179
0.56933 0.90816 0.25686
0.86072 0.9467 0.25669
0.91551 0.9341 0.28039
0.90308 0.87536 0.25383
0.14492 0.87348 0.42587
0.17039 0.87842 0.40417
0.22171 0.88899 0.34428
0.28059 0.89922 0.25809
0.35195 0.90723 0.23135
0.78242 0.90822 0.25732
0.90962 0.90598 0.26614
0.90775 0.91578 0.27629
0.18026 0.08935 0.67438
0.23482 0.09027 0.68868
0.55644 0.22215 0.87567
0.84379 0.32722 0.866
0.92391 0.35246 0.8242
0.92314 0.33641 0.86561
0.93194 0.29858 0.92347
0.93145 0.20033 0.91342
0.22556 0.16785 0.73678
0.27594 0.15122 0.76386
0.51509 0.22337 0.82904
0.79184 0.3131 0.82256
0.91064 0.35495 0.79338
0.91628 0.34686 0.83557
0.92801 0.31966 0.90386
0.92956 0.22831 0.90234
0.29514 0.4064 0.82246
0.31217 0.40352 0.79447
0.40511 0.39869 0.64158
0.6438 0.40862 0.62578
0.86448 0.43673 0.63748
0.89823 0.4126 0.70159
0.90877 0.36563 0.78875
0.92012 0.29515 0.84582
0.32026 0.62427 0.78739
0.33379 0.62477 0.76119
0.34912 0.56968 0.63283
0.55627 0.55221 0.55249
0.80401 0.5988 0.57906
0.90967 0.61013 0.61712
0.90414 0.55915 0.6492
0.88962 0.40061 0.62775
0.30917 0.72721 0.7221
0.32685 0.73198 0.71002
0.34482 0.7349 0.65744
0.47804 0.69763 0.51895
0.70761 0.70949 0.49577
0.88936 0.7332 0.54165
0.91019 0.72174 0.58239
0.89037 0.60729 0.50646
0.28663 0.80131 0.64837
0.30668 0.81022 0.6348
0.33991 0.83202 0.59911
0.41211 0.86574 0.52237
0.65783 0.86824 0.43564
0.87003 0.86521 0.46606
0.91774 0.85609 0.48789
0.91007 0.83111 0.46889
0.24676 0.84859 0.58223
0.26915 0.8581 0.56444
0.30971 0.8816 0.50964
0.32721 0.90604 0.43008
0.53849 0.92747 0.40346
0.83064 0.98359 0.41394
0.93433 0.98333 0.44123
0.92909 0.95297 0.43392
0.16532 0.86532 0.54047
0.18892 0.87099 0.52188
0.23377 0.88385 0.46376
0.27197 0.89708 0.33269
0.37028 0.90879 0.28666
0.7689 0.94453 0.39728
0.92432 0.99112 0.40093
0.93138 1.0 0.43378
0.12942 0.11898 0.80171
0.20039 0.09891 0.79699
0.47643 0.18996 0.94042
0.80478 0.3159 0.95582
0.94748 0.36173 0.96998
0.9433 0.34531 0.97972
0.94385 0.31386 1.0
0.94482 0.2407 1.0
0.19213 0.19777 0.85757
0.26102 0.17566 0.86901
0.47922 0.20081 0.94927
0.7756 0.31036 0.95261
0.93774 0.36545 0.96111
0.941 0.35782 0.96791
0.94213 0.33349 0.99039
0.94507 0.26802 1.0
0.29283 0.39903 0.95455
0.34016 0.4005 0.95658
0.44528 0.42053 0.89635
0.67012 0.43996 0.8889
0.89315 0.45369 0.87266
0.92887 0.42082 0.87047
0.93787 0.381 0.93393
0.94321 0.33553 0.97832
0.34164 0.60503 0.98681
0.37342 0.61456 0.98341
0.43226 0.5963 0.89064
0.59931 0.59385 0.80199
0.80147 0.60549 0.77525
0.92515 0.61758 0.77391
0.93502 0.58575 0.83694
0.92083 0.47288 0.82004
0.34312 0.69156 0.94885
0.371 0.69924 0.94808
0.41399 0.73162 0.90387
0.52432 0.72951 0.77989
0.71513 0.71195 0.71165
0.90774 0.74389 0.74364
0.9462 0.7632 0.80203
0.93841 0.71234 0.79836
0.32078 0.75056 0.88805
0.3491 0.76157 0.89321
0.40422 0.80197 0.89369
0.47421 0.88393 0.80019
0.6604 0.86566 0.68132
0.86069 0.86585 0.66374
0.94797 0.88145 0.72666
0.94747 0.867 0.74826
0.27909 0.80908 0.80959
0.30749 0.81943 0.81374
0.36627 0.84983 0.8246
0.41909 0.90059 0.81709
0.56776 0.9334 0.68013
0.82256 0.96307 0.6321
0.94739 0.96973 0.66445
0.954 0.95994 0.69866
0.19385 0.84613 0.71884
0.22009 0.85288 0.71481
0.27381 0.87038 0.70237
0.33217 0.89556 0.67199
0.39858 0.91007 0.60729
0.73437 0.95586 0.62171
0.91655 1.0 0.63074
0.95227 1.0 0.67005
0.0 0.13665 0.90424
0.13808 0.12169 0.91283
0.37904 0.1552 0.9424
0.72325 0.28683 0.94999
0.93954 0.36536 0.95917
0.9354 0.34669 0.96223
0.93498 0.31555 0.97176
0.93529 0.24657 0.98373
0.0 0.20194 0.917
0.16663 0.18592 0.92458
0.39881 0.1671 0.94555
0.71186 0.28233 0.94955
0.9344 0.36851 0.95821
0.93478 0.35699 0.959
0.93449 0.3353 0.96524
0.93416 0.27255 0.97831
0.15647 0.37284 0.94547
0.24159 0.37626 0.9483
0.41421 0.40359 0.95255
0.64938 0.43018 0.95699
0.89364 0.45878 0.9644
0.94084 0.43214 0.96093
0.93638 0.38556 0.95811
0.93327 0.33982 0.96253
0.24468 0.56773 0.97181
0.30339 0.5804 0.96985
0.43081 0.5929 0.96396
0.62381 0.6198 0.96836
0.82858 0.64367 0.96925
0.95071 0.63377 0.94857
0.95797 0.59075 0.9608
0.95151 0.48973 0.95669
0.27715 0.6741 0.98411
0.32109 0.68908 0.98276
0.41603 0.72765 0.97516
0.58333 0.75204 0.97281
0.76638 0.75693 0.93152
0.93867 0.7602 0.92945
0.97544 0.77784 0.95159
0.9681 0.74701 0.95541
0.28014 0.70444 0.97728
0.3185 0.71454 0.98094
0.40136 0.76111 0.98293
0.51828 0.88376 0.96526
0.6878 0.88885 0.91417
0.87637 0.87268 0.872
0.97512 0.8999 0.90838
0.97996 0.90932 0.93767
0.25993 0.75976 0.94399
0.29575 0.76901 0.95192
0.37331 0.80002 0.97032
0.45817 0.87286 0.98398
0.61874 0.95112 0.95888
0.82985 0.95808 0.86573
0.96801 0.9712 0.84866
0.984 0.97451 0.89841
0.20281 0.81573 0.87456
0.23431 0.82209 0.88028
0.30207 0.83991 0.89717
0.38604 0.87182 0.92761
0.4877 0.91485 0.91312
0.72926 0.95567 0.84744
0.91462 0.99306 0.82813
0.97484 1.0 0.85791
0.0 0.12966 0.93328
0.0 0.1187 0.9358
0.29833 0.12748 0.94175
0.65079 0.26018 0.94818
0.92901 0.36439 0.95816
0.93439 0.35537 0.95849
0.93378 0.32041 0.96037
0.93268 0.24713 0.96473
0.0 0.18479 0.93682
0.0 0.17291 0.93881
0.30188 0.1513 0.94294
0.65469 0.25824 0.94803
0.93028 0.36545 0.95797
0.93436 0.36363 0.95766
0.934 0.3377 0.95871
0.93248 0.27364 0.96205
0.0 0.32852 0.94604
0.0 0.32773 0.94701
0.30137 0.33117 0.94831
0.60079 0.38779 0.95298
0.88158 0.44038 0.96069
0.94106 0.42726 0.961
0.93679 0.39231 0.95894
0.93412 0.34889 0.95804
0.0 0.5196 0.9601
0.11899 0.53237 0.96057
0.34354 0.56442 0.96182
0.58377 0.61019 0.96671
0.82779 0.66281 0.97436
0.95857 0.65979 0.97609
0.95591 0.60742 0.97275
0.94474 0.49768 0.96458
0.08584 0.67407 0.97319
0.18651 0.6937 0.97351
0.35272 0.73702 0.97395
0.55748 0.74682 0.97635
0.78539 0.78792 0.98275
0.94803 0.80782 0.98545
0.97999 0.79431 0.98931
0.9701 0.75242 0.98255
0.1283 0.7245 0.97725
0.19722 0.73936 0.97774
0.3272 0.78182 0.97809
0.49925 0.86297 0.98263
0.71675 0.90166 0.98767
0.90251 0.90874 0.98892
0.98646 0.90773 0.99186
0.99017 0.91388 0.99438
0.1478 0.74194 0.96988
0.19975 0.74918 0.97181
0.30401 0.77323 0.97511
0.43652 0.84867 0.98076
0.62305 0.94619 0.99781
0.83805 0.96745 0.99371
0.97541 0.97449 0.97499
0.99633 0.97664 0.98434
0.16926 0.79638 0.9439
0.20697 0.80208 0.94734
0.28668 0.81872 0.95573
0.39174 0.85284 0.96713
0.54387 0.91125 0.97723
0.75564 0.96269 0.96797
0.92478 0.99175 0.95425
0.98877 1.0 0.96091
0.0 0.1184 0.94241
0.0 0.10929 0.94242
0.22051 0.11494 0.9428
0.57633 0.23068 0.94704
0.9103 0.35833 0.95732
0.93483 0.363 0.95852
0.93394 0.336 0.95853
0.93253 0.25923 0.96028
0.0 0.15878 0.94368
0.0 0.14782 0.94347
0.19607 0.13597 0.94324
0.59007 0.23441 0.94715
0.91769 0.3604 0.95744
0.93544 0.36574 0.95828
0.93436 0.35106 0.95791
0.9326 0.28592 0.95879
0.0 0.26598 0.9479
0.0 0.25719 0.94734
0.11317 0.23503 0.94593
0.52554 0.26766 0.9471
0.87047 0.42038 0.95894
0.93902 0.40215 0.95986
0.93727 0.40136 0.95932
0.93486 0.36446 0.95789
0.0 0.43838 0.95705
0.0 0.44238 0.95666
0.05761 0.45765 0.95614
0.44572 0.51374 0.95908
0.79693 0.64276 0.97162
0.95981 0.65045 0.97403
0.95575 0.61313 0.97133
0.94892 0.5456 0.96703
0.0 0.62042 0.96968
0.0 0.63477 0.96976
0.15021 0.67143 0.97021
0.4491 0.71618 0.97277
0.73595 0.77165 0.9789
0.952 0.8386 0.98631
0.97937 0.82442 0.98566
0.97321 0.78071 0.98241
0.0 0.73923 0.97949
0.0 0.75747 0.97993
0.17061 0.80682 0.98111
0.39989 0.87793 0.98357
0.68267 0.89575 0.9864
0.91774 0.93685 0.99312
0.99061 0.94384 0.99529
0.99334 0.94175 0.99542
0.0 0.77363 0.98145
0.02465 0.78453 0.98203
0.20543 0.81372 0.98308
0.36325 0.86326 0.98444
0.59351 0.93012 0.98946
0.85572 0.96866 0.99806
0.97323 0.9799 0.99971
0.99896 0.98871 1.0
0.15959 0.80852 0.97507
0.20124 0.81526 0.97637
0.29027 0.83369 0.97947
0.41278 0.86719 0.98412
0.57873 0.91822 0.99095
0.77304 0.96531 0.99684
0.92512 0.99119 0.99707
0.99655 0.9968 0.99677
